<?xml version="1.0" encoding="UTF-8"?>
<map version="1.10" tiledversion="1.12.2" orientation="orthogonal" renderorder="right-down" width="100" height="100" tilewidth="16" tileheight="16" infinite="0" nextlayerid="13" nextobjectid="79">
 <tileset firstgid="1" source="../tilesets/sunnysideworld.tsx"/>
 <tileset firstgid="4097" source="../tilesets/props.tsx"/>
 <layer id="1" name="ground" width="100" height="100">
  <data encoding="csv">
1932,1996,1932,1931,1868,1932,1933,1931,1933,1868,1868,1932,1996,1868,1932,1933,1933,1931,1996,1931,1931,1996,1868,1868,1996,1932,1932,1931,1868,1996,1932,1933,1931,1868,1996,1933,1996,1932,1868,1932,1868,1931,1868,1931,1931,1868,1933,1868,1933,1868,1931,1933,1868,1933,1868,1933,1931,1996,1932,1933,1868,1932,1933,1931,1931,1932,1996,1868,1933,1996,1996,1932,1996,1931,1931,1996,1933,1933,1996,1868,1996,1996,1931,1932,1932,1996,1931,1932,1996,1932,1996,1868,1933,1996,1996,1932,1868,1933,1996,1933,
1868,1996,1933,1931,1996,1996,1932,1931,1932,1996,1932,1868,1932,1931,1996,1932,1933,1996,1868,1931,1996,1932,1931,1996,1868,1931,1932,1996,1868,1932,1933,1868,1933,1868,1932,1996,1868,1933,1996,1932,1996,1931,1996,1931,1931,1996,1931,1931,1996,1933,1933,1996,1868,1868,1931,1868,1996,1932,1933,1933,1933,1868,1931,1868,1868,1868,1932,1868,1931,1933,1932,1868,1931,1932,1932,1868,1933,1932,1933,1933,1868,1931,1933,1933,1932,1931,1868,1933,1868,1868,1931,1931,1933,1933,1931,1868,1932,1996,1868,1868,
1931,1996,1933,1996,1931,1932,1931,1931,1868,1996,1996,1868,1933,1931,1996,1932,1931,1868,1931,1996,1932,1932,1931,1996,1933,1996,1932,1932,1931,1932,1931,1933,1932,1932,1933,1868,1996,1996,1933,1931,1932,1996,1931,1933,1868,1931,1932,1996,1932,1996,1996,1868,1932,1933,1933,1932,1931,1996,1932,1868,1931,1996,1996,1996,1868,1931,1931,1932,1868,1932,1931,1868,1996,1933,1933,1868,1931,1996,1868,1868,1868,1868,1932,1996,1933,1931,1868,1996,1932,1868,1996,1868,1931,1931,1932,1931,1933,1933,1931,1931,
1932,1996,1931,1933,1996,1932,1996,1933,1931,1931,1868,1996,1932,1996,1932,1933,1932,1868,1933,1932,1996,1868,1931,1868,1933,1933,1868,1996,1933,1996,1996,1933,1932,1932,1868,1933,1933,1932,1996,1996,1931,1932,1868,1931,1932,1996,1868,1931,1932,1932,1868,1932,1868,1868,1931,1868,1996,1932,1868,1932,1933,1868,1932,1933,1933,1868,1931,1931,1932,1931,1933,1868,1868,1996,1931,1931,1933,1868,1868,1931,1868,1931,1931,1868,1931,1933,1996,1868,1868,1932,1932,1933,1932,1868,1932,1868,1931,1932,1932,1996,
1931,1996,1931,1932,1932,1933,1996,1868,1931,1932,1933,1932,1933,1933,1932,1868,1868,1932,1932,1868,1932,1868,1931,1868,1931,1996,1996,1933,1996,1996,1932,1932,1868,1931,1933,1996,1996,1868,1996,1931,1931,1996,1933,1933,1933,1996,1868,1932,1868,1996,1996,1932,1868,1996,1996,1996,1932,1932,1868,1868,1868,1933,1931,1933,1931,1996,1868,1996,1932,1868,1933,1996,1931,1996,1868,1931,1932,1996,1996,1931,1996,1996,1996,1931,1868,1932,1868,1932,1931,1868,1931,1932,1868,1868,1932,1933,1932,1996,1932,1996,
1996,1933,1996,1932,1996,1931,1931,1868,1932,1931,1931,1931,1931,1931,1868,1933,1933,1932,1932,1868,1933,1933,1932,1932,1932,1933,1996,1996,1932,1933,1933,1996,1868,1933,1868,1932,1932,1868,1931,1932,1868,1932,1868,1996,1933,1933,1996,1931,1868,1931,1932,1868,1996,1933,1933,1996,1996,1868,1933,1868,1931,1931,1933,1933,1996,1931,1933,1996,1868,1868,1931,1868,1868,1933,1868,1868,1932,1868,1996,1932,1932,1996,1996,1932,1932,1932,1933,1932,1933,1868,1996,1996,1931,1868,1996,1932,1932,1996,1931,1933,
1996,1868,1868,1931,1933,1931,1931,1932,1933,1868,1996,1932,1868,1996,1932,1868,1868,1931,1931,1932,1996,1931,1868,1868,1932,1996,1932,1996,1931,1932,1868,1868,1996,1996,1996,1868,1932,1868,1932,1996,1931,1868,1931,1933,1996,1996,1933,1933,1996,1931,1933,1931,1868,1933,1933,1996,1868,1932,1868,1932,1868,1868,1931,1931,1868,1932,1868,1868,1868,1996,1931,1932,1932,1868,1932,1933,1931,1932,1868,1932,1931,1931,1996,1931,1996,1868,1868,1996,1933,1932,1868,1932,1932,1996,1868,1933,1931,1996,1996,1996,
1933,1931,1933,1931,1933,1931,1932,1933,1996,1931,1996,1932,1932,1868,1932,1996,1933,1868,1996,1996,1996,1931,1868,1996,1931,1931,1931,1932,1933,1932,1868,1868,1868,1931,1931,1868,1868,1868,1931,1868,1933,1933,1868,1933,1933,1931,1933,1868,1868,1931,1933,1932,1868,1996,1868,1868,1931,1933,1933,1933,1868,1868,1868,1932,1868,1868,1868,1933,1996,1996,1932,1996,1931,1931,1933,1996,1931,1996,1868,1868,1868,1931,1933,1868,1868,1996,1933,1933,1932,1996,1996,1932,1933,1868,1933,1996,1931,1931,1868,1996,
1931,1868,1868,1868,1868,1933,1931,1868,1931,1996,1868,1932,1931,1932,1932,1868,1931,1931,1996,1996,1933,1996,1868,1868,1933,1933,1933,1868,1868,1933,1933,1931,1868,1931,1868,1933,1868,1996,1933,1933,1931,1931,1933,1996,1868,1996,1933,1931,1996,1933,1931,1868,1868,1996,1996,1996,1996,1932,1933,1931,1996,1996,1996,1932,1931,1931,1868,1933,1932,1931,1933,1931,1932,1933,1932,1933,1931,1868,1933,1933,1931,1868,1868,1996,1932,1931,1932,1931,1868,1933,1868,1932,1931,1931,1868,1931,1868,1933,1996,1931,
1931,1933,1933,1931,1931,1931,1996,1996,1933,1933,1933,1931,1868,1931,1933,1996,1868,1931,1996,1933,1933,1932,1868,1932,1996,1932,1932,1996,1868,1868,1931,1868,1932,1996,1996,1996,1868,1868,1868,1996,1868,1931,1933,1996,1931,1932,1931,1931,1931,1996,1932,1931,1931,1933,1868,1868,1931,1931,1932,1931,1931,1933,1868,1931,1931,1868,1868,1932,1996,1932,1996,1931,1996,1933,1933,1931,1996,1996,1933,1932,1868,1931,1931,1996,1933,1932,1931,1868,1996,1932,1933,1933,1933,1931,1996,1933,1932,1932,1933,1931,
1868,1868,1933,1932,1933,1932,1931,1931,1932,1996,1868,1931,1932,1931,1996,1868,1933,1933,1933,1996,1932,1931,1931,1932,1932,1996,1868,1933,1996,1931,1868,1932,1931,1996,1932,1996,1931,1996,1996,1931,1932,1932,1996,1996,1868,1868,1932,1868,1931,1933,1931,1931,1868,1933,1932,1932,1933,1931,1868,1996,1933,1868,1996,1868,1931,1996,1931,1932,1996,1931,1933,1868,1933,1868,1933,1933,1932,1868,1868,1932,1932,1931,1868,1932,1932,1996,1932,1996,1931,1931,1868,1932,1996,1932,1931,1932,1932,1933,1933,1932,
1933,1931,1933,1932,1931,1933,1996,1996,1868,1996,1868,1868,1931,1931,1868,1932,1931,1868,1868,1931,1868,1933,1932,1868,1932,1933,1931,1932,1868,1931,1933,1933,1933,1933,1996,1933,1931,1868,1931,1931,1868,1933,1932,1933,1933,1931,1996,1996,1868,1932,1933,1931,1932,1868,1868,1996,1868,1931,1996,1931,1996,1933,1931,1931,1931,1933,1996,1931,1932,1868,1932,1931,1931,1996,1996,1868,1932,1868,1868,1932,1932,1932,1931,1931,1931,1868,1996,1996,1932,1932,1931,1932,1931,1868,1996,1996,1931,1996,1996,1996,
1933,1996,1933,1933,1931,1933,1868,1868,1932,1932,1932,1933,1868,1933,1868,1933,1932,1933,1932,1933,1996,1933,1868,1931,1996,1996,1931,1931,1933,1932,1933,1996,1932,1868,1933,1932,1931,1933,1932,1932,1996,1931,1931,1932,1932,1868,1932,1931,1932,1932,1996,1996,1868,1868,1932,1931,1932,1868,1931,1996,1933,1932,1868,1931,1931,1868,1931,1933,1996,1996,1932,1933,1931,1933,1933,1932,1996,1933,1931,1931,1996,1996,1868,1931,1996,1932,1931,1933,1996,1932,1933,1933,1931,1931,1931,1868,1868,1931,1996,1996,
1933,1931,1996,1868,1868,1931,1868,1931,1868,1868,1996,1868,1933,1996,1933,1933,1931,1996,1933,1996,1996,1933,1933,1933,1868,1868,1932,1868,1996,1931,1996,1996,1868,1932,1868,1868,1868,1996,1868,1933,1868,1933,1931,1931,1868,1931,1933,1868,1931,1868,1868,1933,1933,1931,1868,1996,1868,1933,1933,1996,1868,1868,1933,1996,1932,1932,1932,1931,1931,1931,1996,1996,1931,1868,1931,1933,1931,1933,1933,1931,1932,1932,1933,1932,1932,1996,1933,1932,1931,1931,1996,1932,1931,1932,1868,1933,1996,1996,1932,1932,
1933,1932,1931,1996,1868,1868,1932,1931,1996,1931,1931,1933,1933,1931,1932,1932,1996,1931,1932,1932,1931,1868,1996,1996,1996,1996,1996,1932,1933,1868,1996,1996,1933,1996,1933,1932,1931,1868,1933,1931,1996,1868,1931,1868,1932,1932,1932,1932,1932,1931,1932,1868,1933,1996,1933,1933,1933,1868,1931,1996,1933,1933,1931,1933,1932,1931,1932,1996,1996,1868,1933,1868,1868,1996,1933,1933,1933,1996,1932,1868,1868,1933,1868,1868,1933,1996,1932,1868,1933,1933,1932,1868,1932,1932,1996,1933,1932,1868,1996,1996,
1932,1933,1996,1931,1932,1868,1996,1932,1996,1931,1932,1933,1933,1996,1933,1933,1932,1932,1868,1932,1868,1932,1996,1933,1996,1933,1933,1996,1933,1933,1931,1932,1996,1931,1996,1932,1868,1932,1932,1933,1931,1933,1933,1996,1868,1932,1868,1996,1868,1933,1933,1931,1932,1932,1933,1932,1868,1931,1868,1932,1931,1932,1931,1996,1933,1996,1932,1996,1868,1932,1996,1932,1996,1933,1931,1933,1932,1996,1868,1932,1868,1933,1932,1931,1868,1868,1933,1996,1868,1868,1931,1996,1933,1931,1932,1932,1933,1932,1933,1931,
1931,1932,1932,1931,1933,1868,1933,1932,1868,1996,1932,1868,1932,1932,1932,1932,1933,1931,1933,1931,1933,1868,1996,1932,1932,1933,1868,1996,1931,1933,1932,1868,1933,1933,1996,1933,1932,1868,1868,1868,1933,1868,1996,1933,1996,1931,1996,1933,1868,1931,1931,1932,1931,1931,1933,1933,1933,1868,1868,1931,1932,1932,1996,1868,1933,1996,1868,1868,1931,1996,1868,1932,1931,1933,1868,1932,1868,1931,1932,1868,1931,1932,1868,1996,1933,1996,1868,1868,1932,1868,1996,1933,1868,1932,1931,1932,1996,1933,1933,1931,
1996,1996,1932,1932,1932,1868,1931,1932,1933,1996,1932,1996,1868,1933,1931,1868,1933,1932,1933,1933,1931,1933,1996,1996,1933,1932,1933,1996,1996,1931,1996,1931,1931,1932,1933,1933,1932,1996,1931,1868,1996,1932,1931,1933,1868,1932,1996,1996,1932,1868,1996,1996,1868,1868,1932,1868,1933,1932,1932,1932,1868,1931,1932,1932,1996,1932,1996,1932,1933,1933,1933,1996,1931,1933,1933,1996,1996,1868,1933,1932,1868,1932,1868,1931,1996,1933,1932,1868,1868,1931,1868,1933,1996,1996,1933,1996,1933,1933,1868,1868,
1931,1932,1933,1868,1996,1996,1933,1996,1868,1996,1868,1996,1996,1868,1931,1868,1868,1868,1996,1933,1932,1996,1932,1996,1931,1996,1996,1932,1933,1868,1996,1868,1868,1932,1996,1996,1931,1933,1933,1996,1933,1996,1931,1933,1996,1996,1931,1931,1996,1868,1932,1933,1933,1933,1932,1868,1868,1868,1931,1933,1933,1868,1933,1996,1932,1996,1996,1996,1933,1933,1996,1931,1868,1933,1868,1868,1996,1996,1868,1931,1933,1932,1931,1931,1868,1996,1996,1931,1931,1996,1996,1996,1931,1868,1868,1932,1933,1868,1931,1996,
1868,1933,1933,1933,1932,1931,1932,1932,1932,1868,1868,1932,1996,1931,1933,1931,1933,1933,1931,1933,1933,1932,1996,1996,1931,1996,1996,1932,1996,1931,1931,1931,1932,1868,1932,1933,1933,1996,1932,1931,1933,1932,1996,1868,1868,1933,1931,1931,1931,1996,1931,1932,1868,1933,1933,1932,1932,1868,1931,1868,1931,1933,1931,1996,1932,1868,1931,1868,1931,1931,1996,1996,1868,1932,1996,1868,1996,1932,1996,1868,1868,1932,1932,1996,1868,1996,1933,1933,1931,1931,1996,1933,1931,1931,1931,1932,1868,1932,1931,1868,
1932,1868,1996,1868,1996,1868,1933,1996,1932,1932,1868,1932,1932,1996,1996,1931,1931,1996,1931,1996,1868,1996,1931,1996,1996,1932,1932,1868,1931,1996,1933,1931,1932,1931,1868,1932,1932,1933,1931,1931,1933,1933,1868,1932,1932,1868,1996,1868,1931,1932,1868,1931,1932,1933,1932,1868,1933,1996,1931,1996,1933,1931,1868,1932,1996,1868,1932,1931,1933,1932,1932,1868,1932,1933,1996,1996,1932,1868,1932,1996,1931,1933,1996,1933,1931,1933,1932,1931,1933,1996,1932,1931,1933,1932,1931,1931,1931,1932,1996,1933,
1868,1933,1868,1931,1932,1931,1932,1933,1932,1933,1933,1868,1933,1932,1868,1932,1933,1931,1932,1933,1933,1996,1933,1931,1996,1996,1933,1868,1996,1933,1931,1868,1868,1933,1996,1868,1868,1868,1931,1868,1932,1931,1933,1933,1868,1868,1996,1996,1931,1932,1931,1933,1996,1996,1931,1933,1932,1996,1996,1868,1931,1932,1931,1868,1932,1931,1932,1868,1996,1996,1868,1868,1932,1933,1932,1931,1932,1931,1933,1868,1933,1931,1932,1933,1996,1996,1868,1933,1933,1932,1996,1933,1868,1996,1932,1933,1932,1933,1868,1996,
1931,1868,1931,1868,1996,1932,1933,1933,1868,1932,1931,1933,1933,1933,1868,1932,1996,1996,1931,1933,1932,1868,1933,1933,1933,1868,1996,1931,1933,1932,1931,1868,1868,1868,1868,1932,1933,1932,1933,1931,1996,1933,1868,1931,1931,1932,1931,1931,1931,1933,1931,1931,1932,1996,1933,1933,1932,1931,1868,1932,1933,1996,1868,1996,1931,1933,1868,1996,1996,1932,1933,1996,1996,1868,1931,1996,1996,1996,1932,1933,1932,1933,1996,1868,1868,1933,1868,1868,1931,1931,1932,1933,1868,1996,1932,1932,1932,1868,1996,1932,
1931,1932,1868,1996,1931,1931,1931,1933,1933,1932,1931,1931,1932,1933,1932,1996,1931,1931,1996,1932,1868,1932,1996,1931,1933,1933,1868,1996,1931,1931,1932,1933,1996,1996,1933,1996,1931,1933,1868,1996,1933,1933,1868,1933,1996,1996,1933,1931,1868,1932,1996,1933,1996,1931,1932,1933,1933,1933,1996,1868,1932,1868,1996,1996,1996,1932,1933,1933,1931,1933,1932,1868,1933,1868,1933,1868,1932,1932,1868,1868,1931,1933,1932,1932,1996,1932,1933,1931,1996,1933,1933,1933,1933,1932,1996,1996,1933,1868,1868,1931,
1868,1996,1933,1868,1932,1932,1996,1868,1996,1996,1932,1933,1996,1996,1932,1932,1933,1932,1868,1933,1933,1932,1932,1932,1868,1932,1996,1932,1932,1932,1931,1932,1996,1932,1932,1996,1868,1996,1868,1996,1868,1868,1996,1868,1931,1868,1868,1931,1932,1932,1868,1996,1932,1931,1996,1932,1868,1931,1931,1996,1931,1996,1931,1868,1933,1931,1931,1932,1932,1996,1996,1868,1932,1996,1996,1933,1996,1931,1868,1996,1933,1933,1933,1868,1868,1931,1933,1931,1932,1933,1931,1931,1931,1931,1932,1996,1931,1933,1933,1931,
1996,1933,1933,1868,1931,1996,1931,1996,1996,1932,1932,1996,1868,1931,1868,1996,1996,1996,1932,1868,1931,1868,1931,1932,1932,1932,1932,1933,1931,1932,1996,1868,1932,1931,1996,1931,1931,1868,1868,1868,1868,1868,1932,1996,1996,1932,1932,1868,1996,1931,1868,1868,1868,1996,1933,1932,1931,1996,1931,1931,1933,1868,1931,1933,1933,1996,1868,1868,1931,1933,1933,1931,1933,1931,1933,1931,1933,1931,1868,1932,1868,1931,1931,1933,1931,1932,1931,1932,1932,1868,1932,1996,1996,1996,1933,1931,1996,1868,1931,1932,
1931,1996,1933,1932,1996,1868,1933,1996,1932,1931,1996,1868,1933,1996,1868,1931,1996,1931,1932,1933,1932,1996,1996,1868,1996,1868,1868,1996,1932,1932,1931,1933,1931,1996,1868,1933,1996,1996,1996,1932,1868,1933,1931,1933,1932,1868,1933,1868,1931,1932,1933,1932,1996,1868,1868,1931,1932,1868,1932,1933,1996,1996,1933,1933,1868,1931,1931,1868,1931,1932,1932,1931,1931,1931,1933,1932,1932,1996,1932,1931,1996,1931,1868,1868,1932,1933,1932,1868,1933,1996,1868,1996,1932,1932,1931,1868,1932,1932,1931,1933,
1868,1996,1868,1996,1931,1996,1933,1932,1931,1868,1996,1932,1933,1868,1868,1996,1932,1868,1996,1996,1868,1868,1932,1933,1932,1932,1931,1868,1931,1996,1868,1868,1868,1868,1868,1933,1933,1996,1931,1931,1931,1868,1996,1868,1931,1931,1996,1933,1996,1931,1931,1933,1931,1931,1931,1932,1996,1996,1868,1933,1996,1868,1932,1931,1932,1868,1868,1996,1933,1932,1932,1932,1931,1868,1931,1996,1933,1868,1996,1996,1931,1933,1996,1868,1933,1933,1868,1996,1933,1932,1868,1996,1932,1932,1932,1996,1931,1932,1932,1933,
1868,1868,1868,1996,1996,1933,1933,1932,1868,1868,1933,1996,1868,1932,1931,1933,1931,1868,1996,1931,1868,1933,1933,1933,1868,1932,1932,1933,1933,1931,1868,1868,1932,1996,1933,1931,1996,1931,1932,1932,1931,1996,1868,1931,1933,1868,1996,1868,1868,1868,1933,1996,1868,1996,1933,1868,1996,1931,1996,1868,1996,1933,1932,1933,1931,1932,1996,1933,1931,1996,1933,1868,1868,1933,1868,1931,1996,1996,1933,1932,1996,1996,1931,1932,1931,1931,1996,1932,1996,1996,1933,1932,1933,1868,1996,1933,1996,1996,1933,1931,
1868,1868,1933,1932,1931,1933,1931,1933,1868,1932,1932,1932,1996,1868,1932,1933,1932,1932,1996,1933,1868,1931,1931,1933,1931,1933,1868,1932,1868,1931,1931,1996,1933,1933,1933,1996,1868,1996,1932,1996,1932,1932,1996,1996,1933,1868,1933,1868,1996,1931,1868,1931,1933,1932,1868,1868,1996,1932,1931,1933,1868,1996,1932,1931,1868,1868,1933,1933,1933,1868,1868,1933,1868,1868,1933,1868,1996,1931,1996,1996,1933,1931,1868,1931,1933,1996,1932,1996,1931,1933,1868,1868,1933,1933,1868,1868,1996,1996,1868,1996,
1933,1868,1931,1933,1933,1933,1996,1931,1868,1868,1931,1932,1932,1868,1996,1932,1931,1933,1868,1933,1933,1933,1931,1868,1996,1868,1931,1931,1996,1932,1931,1932,1932,1996,1933,1933,1933,1931,1932,1996,1868,1932,1931,1933,1931,1931,1996,1933,1933,1996,1933,1868,1996,1931,1933,1868,1933,1931,1931,1868,1996,1996,1868,1933,1996,1996,1933,1931,1931,1933,1933,1996,1933,1933,1996,1932,1933,1996,1931,1996,1931,1868,1996,1996,1931,1931,1868,1933,1933,1931,1996,1868,1932,1996,1996,1933,1932,1932,1933,1933,
1932,1868,1933,1868,1868,1996,1932,1932,1933,1933,1868,1931,1931,1996,1932,1933,1933,1868,1933,1932,1933,1932,1931,1933,1868,1933,1932,1996,1996,1933,1996,1868,1932,1932,1931,1933,1996,1931,1868,1933,1931,1868,1932,1996,1996,1933,1932,1996,1868,1933,1932,1933,1931,1932,1933,1933,1932,1996,1868,1931,1933,1932,1933,1931,1931,1933,1868,1931,1931,1868,1931,1932,1933,1933,1868,1868,1868,1932,1931,1932,1868,1931,1996,1932,1868,1996,1932,1933,1868,1996,1933,1868,1933,1931,1931,1868,1932,1996,1931,1931,
1931,1932,1931,1996,1996,1868,1868,1996,1868,1868,1931,1931,1932,1996,1931,1868,1996,1933,1933,1933,1868,1868,1931,1932,1996,1931,1931,1931,1931,1932,1932,1931,1931,1932,1996,1868,1931,1933,1932,1868,1932,1931,1932,1996,1932,1868,1933,1868,1933,1931,1996,1868,1931,1868,1868,1932,1933,1996,1931,1996,1868,1868,1933,1868,1933,1868,1933,1933,1931,1931,1933,1996,1996,1933,1931,1931,1868,1931,1868,1996,1931,1933,1996,1931,1931,1931,1933,1996,1996,1996,1996,1996,1933,1932,1868,1868,1932,1932,1933,1933,
1932,1931,1996,1996,1932,1931,1996,1931,1931,1996,1931,1933,1932,1932,1931,1996,1868,1996,1996,1931,1996,1931,1931,1868,1868,1933,1932,1996,1933,1868,1933,1868,1932,1868,1931,1931,1931,1932,1868,1931,1932,1932,1931,1931,1932,1996,1932,1932,1868,1933,1933,1933,1996,1933,1931,1932,1868,1933,1931,1931,1996,1931,1996,1931,1933,1932,1932,1933,1932,1933,1996,1996,1932,1933,1931,1932,1932,1868,1868,1996,1996,1996,1933,1996,1996,1931,1996,1868,1868,1932,1932,1868,1933,1933,1933,1996,1932,1931,1932,1996,
1932,1931,1933,1933,1868,1933,1931,1868,1868,1868,1932,1931,1931,1868,1996,1868,1996,1868,1996,1932,1868,1933,1932,1996,1996,1933,1868,1996,1932,1931,1931,1932,1933,1868,1868,1996,1932,1868,1868,1868,1996,1868,1868,1932,1933,1932,1868,1868,1868,1933,1933,1868,1996,1996,1931,1933,1868,1933,1996,1932,1931,1996,1996,1933,1868,1932,1996,1933,1996,1996,1868,1868,1932,1932,1932,1996,1868,1933,1996,1932,1868,1996,1996,1996,1996,1933,1933,1868,1868,1868,1868,1868,1932,1931,1933,1931,1933,1996,1931,1933,
1931,1868,1932,1996,1931,1932,1996,1933,1931,1996,1868,1868,1932,1868,1933,1996,1932,1868,1931,1996,1933,1933,1932,1868,1933,1933,1932,1868,1868,1931,1996,1996,1933,1868,1932,1931,1931,1996,1868,1996,1868,1933,1933,1996,1931,1933,1996,1931,1868,1996,1931,1933,1933,1932,1932,1868,1996,1932,1933,1868,1932,1933,1932,1868,1932,1996,1932,1932,1933,1933,1932,1932,1933,1996,1933,1931,1932,1996,1933,1933,1996,1931,1932,1996,1932,1931,1868,1931,1996,1931,1996,1933,1933,1931,1868,1868,1931,1868,1933,1933,
1933,1868,1868,1996,1868,1931,1868,1932,1996,1932,1868,1868,1932,1931,1931,1933,1996,1933,1931,1868,1931,1933,1932,1931,1932,1931,1932,1933,1931,1932,1996,1868,1996,1933,1932,1996,1868,1868,1868,1931,1932,1931,1932,1933,1868,1868,1933,1868,1996,1932,1996,1931,1996,1932,1996,1868,1931,1931,1931,1996,1933,1932,1933,1931,1931,1868,1996,1932,1933,1933,1931,1932,1868,1932,1933,1932,1933,1932,1932,1931,1996,1868,1996,1868,1996,1931,1933,1932,1868,1933,1996,1996,1933,1931,1868,1931,1996,1868,1931,1868,
1868,1931,1996,1868,1931,1996,1933,1868,1932,1931,1931,1933,1932,1868,1932,1996,1933,1932,1933,1932,1996,1933,1868,1996,1933,1933,1932,1868,1996,1933,1868,1996,1996,1932,1931,1931,1996,1932,1931,1996,1931,1931,1933,1931,1932,1932,1868,1868,1932,1932,1931,1932,1933,1868,1932,1933,1868,1932,1932,1868,1933,1933,1932,1996,1868,1868,1996,1868,1933,1932,1931,1933,1868,1932,1933,1933,1933,1996,1868,1868,1996,1931,1932,1868,1932,1931,1932,1932,1933,1933,1868,1868,1932,1931,1933,1868,1931,1933,1996,1933,
1931,1933,1933,1932,1932,1932,1933,1868,1932,1868,1933,1932,1996,1933,1932,1931,1996,1933,1932,1932,1933,1932,1933,1932,1868,1932,1932,1931,1932,1996,1868,1868,1933,1931,1931,1932,1996,1933,1931,1996,1996,1931,1996,1932,1931,1868,1868,1933,1868,1932,1933,1933,1932,1996,1996,1932,1931,1931,1932,1932,1933,1868,1868,1868,1996,1931,1868,1932,1931,1931,1996,1932,1868,1933,1932,1868,1932,1996,1868,1931,1933,1931,1932,1933,1868,1868,1931,1868,1933,1931,1933,1996,1933,1868,1932,1996,1868,1933,1996,1996,
1933,1931,1932,1931,1996,1996,1932,1931,1933,1868,1932,1996,1996,1932,1931,1933,1932,1996,1932,1996,1868,1996,1996,1996,1868,1933,1932,1932,1996,1932,1933,1868,1868,1933,1868,1933,1933,1933,1868,1932,1931,1996,1868,1933,1932,1931,1996,1931,1933,1868,1932,1932,1931,1868,1996,1996,1932,1868,1868,1868,1932,1933,1996,1932,1932,1932,1996,1931,1996,1996,1868,1932,1933,1996,1933,1933,1868,1868,1868,1932,1996,1933,1931,1933,1931,1996,1933,1931,1931,1868,1931,1868,1932,1932,1933,1933,1931,1996,1868,1996,
1931,1868,1868,1933,1931,1932,1933,1932,1931,1868,1996,1933,1996,1933,1868,1933,1868,1996,1996,1932,1932,1931,1933,1996,1868,1932,1996,1933,1868,1868,1931,1868,1996,1933,1996,1868,1996,1932,1933,1931,1931,1996,1933,1996,1933,1933,1931,1933,1933,1931,1933,1933,1933,1933,1933,1868,1933,1868,1933,1931,1868,1932,1932,1931,1868,1931,1932,1868,1868,1932,1933,1868,1868,1868,1868,1931,1996,1931,1868,1933,1996,1933,1996,1931,1868,1996,1933,1868,1931,1932,1996,1933,1933,1932,1933,1933,1931,1932,1932,1933,
1931,1996,1868,1932,1931,1996,1996,1932,1996,1996,1868,1933,1932,1932,1933,1996,1996,1931,1933,1931,1933,1868,1931,1868,1933,1933,1868,1932,1996,1933,1932,1933,1868,1933,1868,1996,1996,1996,1931,1933,1868,1932,1932,1931,1932,1868,1931,1996,1931,1933,1868,1996,1932,1868,1932,1996,1933,1931,1868,1996,1931,1931,1933,1933,1868,1933,1932,1868,1868,1996,1933,1996,1996,1868,1933,1868,1996,1933,1932,1933,1933,1868,1932,1933,1931,1931,1868,1931,1868,1868,1933,1996,1933,1931,1996,1996,1996,1933,1996,1868,
1932,1933,1996,1868,1868,1933,1933,1868,1933,1931,1933,1868,1996,1996,1868,1868,1932,1868,1933,1868,1996,1996,1931,1931,1996,1933,1996,1931,1996,1996,1932,1932,1996,1931,1996,1932,1931,1868,1932,1996,1933,1931,1868,1996,1931,1931,1996,1931,1996,1868,1932,1996,1931,1933,1996,1996,1931,1868,1868,1996,1931,1931,1868,1933,1933,1932,1932,1996,1868,1996,1931,1933,1933,1868,1933,1933,1996,1932,1931,1996,1996,1931,1868,1996,1933,1932,1996,1933,1996,1868,1932,1996,1932,1996,1868,1933,1932,1996,1931,1932,
1996,1996,1932,1931,1933,1868,1931,1933,1996,1931,1933,1996,1932,1932,1868,1932,1933,1868,1931,1996,1932,1996,1868,1932,1996,1932,1996,1933,1932,1931,1933,1868,1931,1932,1931,1996,1932,1933,1933,1931,1932,1931,1933,1996,1868,1931,1932,1996,1931,1931,1932,1932,1931,1933,1996,1868,1868,1932,1933,1868,1933,1996,1933,1932,1868,1996,1932,1931,1933,1933,1931,1868,1868,1996,1932,1932,1933,1931,1932,1931,1996,1933,1931,1933,1933,1932,1931,1996,1932,1868,1868,1933,1933,1933,1996,1933,1932,1933,1931,1996,
1931,1996,1932,1931,1933,1933,1932,1931,1932,1868,1931,1932,1933,1933,1996,1868,1931,1868,1933,1931,1933,1932,1996,1868,1931,1932,1996,1868,1932,1933,1868,1996,1933,1996,1996,1996,1933,1996,1868,1868,1868,1932,1932,1933,1996,1996,1932,1868,1931,1931,1868,1868,1931,1931,1996,1868,1933,1868,1868,1996,1931,1868,1932,1996,1868,1868,1931,1931,1932,1932,1996,1933,1868,1932,1933,1931,1996,1868,1931,1868,1932,1931,1868,1996,1932,1868,1996,1931,1932,1996,1933,1933,1931,1996,1868,1931,1931,1932,1868,1996,
1933,1996,1868,1996,1932,1868,1868,1996,1996,1932,1868,1933,1996,1868,1933,1931,1932,1931,1868,1931,1932,1931,1932,1868,1996,1996,1868,1933,1932,1933,1931,1996,1932,1868,1868,1931,1931,1868,1933,1868,1933,1868,1996,1932,1931,1996,1868,1868,1868,1933,1931,1933,1932,1996,1868,1996,1868,1932,1868,1933,1933,1932,1932,1868,1996,1996,1868,1996,1868,1868,1868,1933,1996,1931,1868,1996,1932,1996,1932,1868,1931,1996,1868,1933,1868,1933,1932,1996,1996,1996,1933,1933,1932,1996,1932,1868,1933,1996,1868,1932,
1931,1931,1933,1931,1996,1931,1931,1933,1868,1932,1931,1996,1868,1996,1932,1931,1932,1931,1933,1996,1932,1868,1933,1933,1868,1996,1932,1931,1931,1932,1931,1996,1868,1932,1933,1931,1932,1933,1932,1931,1933,1933,1996,1933,1932,1868,1931,1933,1868,1996,1933,1933,1931,1932,1931,1932,1933,1868,1868,1932,1931,1932,1996,1996,1933,1868,1931,1932,1996,1931,1932,1933,1932,1931,1931,1996,1931,1868,1931,1933,1996,1996,1931,1996,1996,1933,1931,1931,1933,1996,1933,1931,1868,1996,1933,1933,1868,1932,1931,1996,
1933,1996,1868,1932,1933,1996,1932,1868,1996,1868,1932,1933,1933,1868,1868,1933,1868,1868,1868,1932,1868,1868,1932,1996,1868,1868,1868,1931,1932,1931,1996,1932,1933,1932,1996,1868,1996,1996,1931,1933,1932,1996,1931,1932,1996,1933,1931,1931,1996,1932,1932,1996,1868,1996,1933,1996,1933,1931,1932,1932,1933,1868,1931,1933,1933,1868,1931,1933,1868,1933,1868,1996,1931,1996,1931,1868,1933,1931,1932,1996,1996,1868,1932,1996,1868,1931,1996,1932,1996,1931,1996,1868,1933,1932,1868,1996,1932,1932,1933,1996,
1868,1933,1996,1933,1932,1996,1931,1996,1931,1931,1932,1932,1932,1932,1933,1933,1931,1931,1933,1932,1933,1931,1931,1933,1868,1868,1996,1931,1996,1932,1996,1932,1931,1996,1996,1932,1996,1931,1996,1933,1931,1868,1996,1933,1868,1933,1933,1931,1932,1933,1996,1868,1868,1933,1931,1931,1933,1996,1996,1931,1931,1996,1868,1996,1996,1933,1868,1933,1868,1996,1933,1868,1933,1868,1933,1933,1932,1868,1996,1931,1932,1996,1868,1933,1996,1933,1931,1996,1868,1868,1933,1932,1996,1932,1996,1931,1996,1932,1996,1932,
1868,1996,1868,1868,1933,1996,1932,1996,1996,1996,1933,1868,1932,1868,1933,1933,1996,1931,1931,1996,1996,1868,1931,1931,1932,1931,1932,1868,1933,1996,1932,1868,1932,1868,1932,1933,1868,1996,1868,1932,1931,1868,1933,1996,1932,1868,1931,1931,1868,1931,1868,1933,1868,1933,1996,1868,1931,1932,1996,1868,1868,1932,1932,1868,1933,1932,1932,1931,1868,1932,1933,1933,1933,1933,1996,1933,1996,1932,1933,1868,1868,1932,1996,1933,1931,1868,1932,1933,1868,1868,1868,1868,1868,1933,1931,1933,1868,1932,1932,1933,
1996,1932,1868,1933,1932,1931,1996,1868,1996,1996,1933,1931,1996,1933,1996,1996,1996,1931,1868,1932,1931,1868,1868,1868,1996,1996,1868,1933,1932,1868,1868,1933,1933,1932,1868,1932,1932,1933,1931,1996,1931,1931,1868,1868,1931,1868,1933,1933,1931,1932,1933,1868,1868,1933,1933,1996,1996,1933,1932,1931,1931,1996,1996,1931,1933,1932,1996,1996,1932,1868,1932,1996,1933,1931,1868,1932,1868,1868,1933,1996,1996,1996,1931,1996,1931,1932,1868,1996,1931,1933,1932,1996,1931,1996,1931,1932,1868,1996,1933,1932,
1868,1868,1996,1996,1868,1931,1933,1932,1996,1933,1996,1996,1868,1868,1933,1933,1868,1868,1933,1868,1932,1996,1996,1933,1932,1996,1932,1868,1868,1932,1996,1868,1932,1931,1996,1868,1933,1932,1996,1932,1868,1931,1868,1931,1931,1931,1933,1931,1996,1932,1932,1996,1868,1868,1868,1996,1996,1868,1931,1931,1868,1932,1933,1933,1868,1868,1996,1868,1932,1868,1933,1931,1868,1931,1932,1996,1868,1933,1933,1868,1931,1868,1931,1933,1931,1931,1931,1868,1933,1933,1932,1996,1932,1931,1932,1932,1932,1931,1933,1933,
1932,1996,1932,1933,1933,1933,1996,1868,1932,1996,1868,1933,1868,1931,1931,1933,1868,1931,1996,1868,1933,1996,1996,1931,1868,1931,1933,1931,1933,1931,1933,1868,1932,1868,1996,1931,1933,1933,1996,1932,1931,1932,1931,1996,1932,1996,1868,1932,1932,1931,1996,1933,1996,1996,1996,1868,1933,1933,1932,1932,1931,1932,1933,1933,1996,1933,1931,1996,1868,1931,1996,1996,1932,1931,1931,1932,1868,1996,1868,1931,1932,1933,1932,1932,1931,1868,1933,1868,1933,1868,1996,1931,1996,1996,1931,1931,1932,1996,1932,1931,
1996,1931,1996,1933,1931,1933,1868,1931,1996,1933,1868,1931,1932,1931,1933,1932,1932,1996,1932,1996,1931,1996,1996,1932,1996,1996,1996,1868,1933,1868,1868,1931,1868,1996,1868,1996,1996,1931,1996,1931,1932,1933,1932,1931,1931,1933,1996,1932,1932,1868,1868,1868,1868,1932,1868,1868,1932,1931,1931,1933,1868,1996,1868,1933,1932,1996,1996,1996,1996,1933,1996,1932,1932,1868,1932,1933,1932,1932,1932,1933,1868,1868,1868,1931,1932,1996,1868,1868,1933,1933,1868,1868,1933,1931,1933,1996,1933,1931,1931,1932,
1933,1933,1932,1868,1932,1868,1931,1996,1932,1933,1868,1932,1931,1996,1931,1931,1996,1932,1996,1932,1996,1996,1868,1932,1996,1933,1868,1931,1932,1996,1868,1933,1996,1996,1932,1931,1868,1932,1868,1931,1996,1868,1933,1933,1996,1932,1996,1932,1931,1868,1931,1931,1996,1931,1933,1996,1931,1932,1933,1933,1996,1931,1933,1996,1996,1931,1931,1933,1932,1932,1932,1931,1868,1931,1931,1932,1933,1868,1932,1996,1931,1868,1931,1933,1996,1931,1931,1933,1868,1996,1931,1931,1932,1933,1931,1931,1931,1868,1868,1931,
1931,1931,1931,1868,1932,1933,1931,1868,1868,1933,1932,1931,1932,1933,1933,1933,1932,1931,1932,1868,1932,1868,1932,1932,1931,1933,1868,1932,1996,1932,1996,1996,1931,1933,1996,1996,1932,1933,1996,1933,1996,1933,1868,1931,1996,1931,1933,1932,1933,1931,1996,1933,1868,1996,1931,1868,1933,1933,1931,1996,1931,1996,1996,1932,1933,1931,1933,1931,1931,1996,1933,1996,1868,1868,1931,1931,1931,1996,1933,1933,1933,1868,1996,1868,1933,1933,1933,1932,1932,1996,1931,1868,1932,1996,1996,1932,1996,1932,1933,1868,
1996,1931,1931,1932,1932,1932,1996,1932,1868,1931,1931,1931,1931,1996,1932,1868,1931,1931,1868,1868,1933,1931,1933,1932,1931,1932,1932,1868,1996,1933,1933,1996,1996,1933,1933,1932,1933,1931,1931,1996,1932,1932,1931,1932,1933,1931,1932,1996,1996,1933,1933,1932,1868,1931,1932,1868,1996,1932,1932,1931,1931,1933,1933,1931,1931,1996,1996,1996,1868,1932,1933,1931,1931,1933,1932,1868,1868,1933,1932,1996,1996,1932,1996,1931,1996,1868,1931,1996,1932,1933,1931,1931,1931,1996,1932,1933,1931,1868,1933,1931,
1868,1932,1996,1931,1996,1996,1996,1931,1931,1933,1931,1996,1933,1932,1932,1932,1932,1996,1868,1933,1996,1868,1932,1868,1933,1931,1933,1932,1931,1868,1996,1868,1996,1996,1868,1868,1868,1868,1933,1931,1931,1932,1996,1931,1996,1931,1933,1933,1868,1932,1868,1933,1931,1931,1868,1933,1996,1932,1868,1868,1868,1868,1868,1931,1933,1996,1933,1931,1868,1932,1932,1996,1932,1931,1931,1996,1933,1933,1996,1996,1933,1996,1931,1868,1933,1932,1932,1932,1931,1868,1932,1931,1932,1932,1932,1996,1868,1931,1996,1996,
1868,1931,1996,1932,1868,1931,1868,1933,1932,1933,1868,1996,1931,1932,1996,1868,1868,1932,1932,1932,1996,1996,1932,1932,1933,1932,1932,1933,1996,1868,1933,1931,1932,1933,1931,1868,1996,1868,1868,1932,1933,1933,1932,1868,1931,1996,1931,1932,1931,1931,1931,1931,1933,1996,1932,1933,1933,1931,1868,1931,1931,1933,1996,1868,1931,1932,1868,1868,1931,1868,1931,1868,1932,1931,1933,1932,1868,1996,1996,1933,1996,1868,1932,1933,1996,1932,1996,1868,1996,1996,1931,1996,1996,1931,1996,1931,1932,1996,1996,1931,
1932,1933,1996,1931,1932,1933,1932,1933,1932,1932,1996,1996,1996,1996,1996,1933,1996,1868,1996,1932,1932,1868,1931,1931,1933,1933,1996,1931,1868,1933,1931,1931,1933,1931,1996,1868,1931,1933,1933,1931,1932,1996,1933,1868,1868,1868,1996,1996,1933,1932,1933,1996,1933,1932,1933,1932,1932,1932,1933,1868,1868,1868,1933,1931,1932,1868,1932,1932,1932,1931,1932,1868,1931,1996,1931,1931,1931,1996,1933,1932,1931,1931,1931,1933,1932,1933,1868,1933,1932,1931,1868,1868,1932,1996,1996,1931,1868,1933,1932,1933,
1932,1868,1931,1868,1868,1868,1931,1868,1932,1931,1933,1932,1932,1931,1996,1932,1868,1932,1931,1931,1933,1868,1931,1868,1868,1932,1932,1996,1868,1933,1868,1868,1932,1868,1996,1932,1996,1931,1931,1996,1996,1931,1931,1933,1933,1931,1868,1868,1931,1868,1932,1933,1996,1996,1933,1931,1931,1996,1931,1932,1868,1933,1933,1933,1996,1931,1931,1932,1996,1996,1932,1868,1932,1932,1933,1996,1931,1868,1933,1933,1932,1996,1932,1932,1932,1996,1931,1932,1931,1931,1932,1868,1933,1933,1868,1933,1868,1996,1932,1931,
1933,1932,1996,1932,1931,1996,1868,1996,1868,1868,1996,1932,1931,1932,1996,1933,1868,1931,1932,1932,1931,1932,1868,1996,1996,1996,1996,1932,1933,1868,1933,1931,1996,1932,1932,1996,1932,1996,1932,1931,1931,1933,1931,1932,1868,1931,1931,1868,1996,1868,1996,1933,1868,1931,1996,1933,1933,1932,1868,1996,1868,1931,1933,1868,1996,1868,1996,1931,1933,1996,1933,1933,1868,1996,1868,1933,1933,1931,1868,1996,1931,1932,1996,1932,1933,1868,1932,1996,1931,1933,1933,1932,1868,1931,1932,1932,1996,1868,1931,1996,
1868,1933,1996,1932,1931,1868,1931,1932,1996,1931,1996,1868,1933,1996,1933,1996,1868,1931,1996,1868,1868,1932,1868,1996,1996,1932,1931,1932,1868,1931,1933,1996,1931,1996,1868,1996,1996,1931,1932,1931,1931,1932,1996,1868,1868,1933,1996,1931,1868,1933,1996,1996,1868,1932,1931,1933,1933,1931,1996,1868,1868,1933,1933,1868,1933,1932,1931,1996,1933,1932,1996,1933,1868,1996,1868,1868,1932,1932,1932,1932,1996,1868,1996,1931,1996,1932,1931,1933,1868,1933,1868,1932,1868,1868,1868,1931,1931,1931,1996,1996,
1996,1868,1931,1931,1932,1931,1868,1932,1996,1931,1868,1868,1868,1931,1933,1932,1932,1933,1932,1996,1996,1868,1931,1931,1933,1933,1868,1996,1868,1932,1932,1996,1931,1931,1933,1868,1868,1933,1868,1996,1996,1932,1996,1996,1996,1996,1996,1932,1996,1933,1931,1931,1996,1931,1996,1996,1932,1932,1996,1996,1933,1933,1932,1931,1868,1931,1933,1996,1932,1932,1932,1932,1868,1868,1933,1931,1933,1868,1931,1996,1931,1931,1868,1996,1996,1868,1932,1868,1932,1868,1933,1933,1996,1933,1868,1933,1996,1996,1933,1996,
1931,1996,1932,1932,1931,1933,1932,1933,1868,1996,1868,1931,1996,1868,1933,1996,1868,1931,1933,1931,1931,1932,1868,1933,1933,1868,1996,1996,1931,1996,1868,1933,1933,1868,1932,1996,1931,1931,1868,1933,1868,1931,1868,1868,1932,1931,1931,1931,1868,1868,1931,1996,1931,1931,1933,1868,1868,1996,1996,1931,1931,1868,1932,1868,1933,1931,1996,1933,1931,1931,1868,1996,1868,1931,1868,1931,1932,1932,1931,1932,1868,1932,1868,1932,1933,1933,1868,1933,1931,1996,1933,1931,1868,1931,1996,1933,1868,1931,1932,1996,
1931,1933,1931,1932,1996,1931,1933,1868,1933,1996,1996,1996,1933,1931,1931,1868,1868,1932,1996,1933,1996,1933,1932,1931,1868,1868,1931,1996,1996,1868,1996,1931,1932,1932,1933,1996,1931,1868,1933,1932,1932,1932,1996,1868,1933,1868,1931,1996,1933,1868,1932,1868,1868,1868,1868,1996,1932,1996,1933,1931,1931,1996,1996,1933,1996,1996,1996,1868,1931,1933,1931,1868,1932,1996,1996,1932,1932,1996,1868,1932,1933,1933,1933,1868,1932,1996,1996,1932,1931,1931,1868,1931,1868,1996,1868,1933,1868,1932,1931,1933,
1996,1868,1931,1868,1933,1931,1868,1933,1931,1996,1996,1996,1996,1931,1933,1996,1932,1868,1931,1996,1868,1931,1996,1932,1932,1932,1933,1868,1933,1931,1931,1931,1932,1996,1868,1868,1931,1933,1933,1932,1996,1868,1932,1932,1868,1931,1933,1933,1996,1868,1996,1931,1933,1933,1931,1933,1931,1932,1931,1868,1932,1933,1868,1933,1931,1932,1932,1996,1933,1996,1932,1868,1931,1931,1931,1933,1996,1932,1868,1933,1933,1868,1996,1931,1933,1868,1868,1932,1996,1933,1933,1931,1996,1932,1933,1931,1996,1931,1996,1933,
1931,1933,1932,1931,1868,1868,1932,1932,1996,1996,1931,1931,1933,1931,1933,1868,1933,1868,1933,1933,1932,1868,1996,1868,1933,1933,1996,1933,1931,1996,1868,1931,1931,1996,1933,1996,1868,1933,1933,1932,1932,1931,1996,1932,1996,1933,1932,1931,1932,1932,1932,1868,1996,1996,1996,1868,1933,1931,1933,1931,1932,1933,1931,1868,1868,1996,1931,1933,1996,1933,1868,1868,1868,1931,1996,1932,1868,1933,1932,1996,1932,1868,1931,1931,1931,1933,1932,1932,1996,1931,1996,1868,1933,1868,1996,1933,1868,1868,1868,1996,
1933,1868,1932,1932,1996,1933,1868,1868,1996,1932,1933,1868,1932,1996,1931,1933,1931,1933,1996,1933,1996,1931,1932,1932,1868,1996,1996,1932,1931,1933,1996,1933,1932,1932,1932,1932,1996,1932,1932,1933,1996,1931,1868,1996,1933,1996,1996,1933,1931,1868,1933,1931,1996,1932,1868,1931,1996,1932,1932,1931,1932,1932,1868,1868,1933,1996,1931,1932,1868,1868,1931,1996,1933,1868,1996,1996,1933,1931,1996,1933,1933,1931,1931,1933,1868,1932,1868,1932,1996,1933,1996,1933,1931,1996,1932,1996,1931,1933,1932,1931,
1868,1931,1931,1931,1868,1868,1933,1931,1931,1868,1931,1996,1932,1868,1932,1868,1933,1932,1932,1996,1931,1931,1868,1996,1931,1931,1933,1932,1868,1996,1931,1931,1933,1932,1931,1932,1996,1933,1868,1933,1931,1933,1933,1933,1996,1868,1868,1996,1932,1996,1932,1868,1933,1933,1932,1933,1996,1868,1933,1996,1996,1931,1931,1931,1868,1933,1996,1868,1931,1996,1932,1996,1933,1996,1933,1932,1996,1996,1932,1931,1931,1932,1932,1933,1931,1933,1996,1933,1932,1932,1931,1868,1868,1931,1868,1931,1933,1868,1868,1996,
1931,1933,1996,1931,1931,1932,1933,1932,1933,1996,1932,1933,1996,1931,1933,1996,1933,1933,1996,1932,1996,1996,1931,1868,1996,1931,1996,1931,1932,1996,1932,1931,1932,1933,1996,1933,1868,1932,1931,1931,1931,1868,1931,1996,1931,1996,1933,1996,1868,1868,1932,1932,1933,1996,1996,1931,1933,1996,1932,1933,1931,1932,1932,1868,1868,1932,1933,1868,1933,1932,1933,1933,1932,1868,1932,1868,1996,1996,1868,1931,1996,1996,1868,1868,1933,1933,1868,1996,1868,1996,1868,1932,1931,1996,1996,1868,1868,1932,1931,1868,
1932,1868,1932,1996,1933,1996,1996,1996,1996,1933,1996,1933,1932,1931,1868,1868,1931,1931,1996,1931,1933,1932,1868,1931,1996,1932,1996,1932,1996,1996,1868,1931,1996,1996,1933,1996,1868,1996,1932,1932,1996,1996,1868,1868,1868,1868,1868,1996,1933,1932,1996,1996,1933,1996,1996,1931,1932,1996,1931,1933,1931,1868,1933,1996,1932,1933,1868,1931,1932,1868,1933,1996,1932,1868,1933,1868,1933,1931,1931,1868,1932,1933,1868,1931,1868,1933,1868,1932,1868,1932,1868,1931,1933,1933,1996,1996,1931,1933,1868,1933,
1868,1996,1932,1932,1996,1933,1932,1932,1931,1931,1932,1868,1868,1932,1868,1932,1931,1932,1868,1931,1933,1996,1996,1933,1933,1931,1933,1931,1932,1996,1868,1931,1931,1932,1933,1931,1868,1933,1931,1868,1931,1933,1932,1933,1932,1868,1933,1932,1931,1868,1868,1868,1996,1933,1931,1933,1868,1996,1932,1932,1933,1996,1996,1868,1996,1933,1933,1868,1932,1932,1933,1931,1931,1996,1996,1868,1933,1932,1996,1933,1933,1996,1931,1932,1933,1868,1933,1868,1868,1868,1996,1931,1931,1933,1868,1996,1932,1932,1931,1931,
1932,1931,1996,1996,1932,1868,1931,1932,1933,1868,1868,1932,1933,1996,1868,1996,1996,1933,1932,1931,1933,1868,1868,1868,1932,1996,1931,1996,1868,1931,1932,1932,1933,1868,1931,1996,1932,1931,1996,1932,1931,1932,1931,1996,1932,1933,1931,1933,1933,1996,1932,1932,1996,1868,1996,1931,1868,1931,1931,1931,1932,1931,1933,1933,1868,1932,1932,1931,1996,1868,1996,1931,1933,1933,1933,1932,1931,1931,1932,1932,1996,1931,1933,1868,1932,1933,1868,1931,1932,1932,1868,1868,1996,1933,1931,1933,1996,1996,1868,1931,
1932,1933,1868,1933,1868,1868,1996,1933,1932,1933,1932,1996,1932,1996,1868,1868,1931,1933,1931,1931,1931,1996,1868,1931,1996,1932,1932,1868,1931,1996,1933,1932,1996,1931,1933,1996,1932,1931,1868,1996,1932,1933,1868,1933,1933,1932,1868,1868,1932,1996,1932,1931,1868,1931,1996,1932,1933,1931,1996,1932,1868,1932,1868,1931,1931,1868,1933,1932,1996,1931,1932,1868,1932,1931,1996,1996,1996,1868,1932,1868,1933,1931,1868,1996,1996,1931,1868,1931,1996,1931,1868,1868,1868,1933,1932,1868,1932,1932,1932,1868,
1932,1868,1996,1931,1931,1931,1932,1996,1933,1932,1931,1933,1931,1933,1933,1931,1931,1931,1996,1996,1931,1868,1933,1868,1868,1931,1868,1868,1933,1932,1931,1996,1933,1996,1868,1868,1996,1868,1996,1933,1931,1996,1868,1868,1996,1996,1868,1868,1931,1868,1932,1932,1931,1932,1932,1868,1931,1868,1931,1868,1996,1932,1932,1996,1932,1931,1868,1933,1996,1868,1868,1932,1996,1996,1996,1931,1868,1996,1931,1933,1933,1996,1932,1868,1932,1932,1932,1931,1996,1932,1931,1931,1933,1931,1931,1996,1996,1868,1932,1868,
1931,1868,1931,1932,1996,1932,1932,1868,1932,1996,1932,1996,1868,1996,1868,1932,1996,1933,1931,1933,1868,1933,1932,1868,1931,1933,1868,1996,1932,1996,1932,1933,1868,1868,1996,1933,1868,1932,1996,1931,1996,1996,1931,1933,1931,1868,1932,1868,1931,1933,1933,1931,1931,1932,1996,1996,1931,1931,1996,1868,1931,1868,1868,1931,1933,1933,1868,1933,1868,1932,1933,1996,1931,1868,1933,1932,1931,1996,1868,1932,1931,1931,1932,1931,1868,1933,1931,1931,1996,1933,1931,1868,1868,1996,1868,1933,1932,1996,1868,1933,
1996,1868,1931,1868,1996,1931,1933,1932,1932,1996,1996,1996,1933,1868,1996,1996,1868,1933,1932,1933,1868,1868,1933,1931,1932,1933,1932,1932,1996,1933,1868,1931,1932,1996,1932,1868,1933,1868,1931,1931,1996,1868,1868,1932,1933,1933,1932,1868,1931,1933,1868,1931,1932,1933,1932,1933,1933,1868,1868,1932,1932,1996,1933,1996,1931,1932,1932,1932,1868,1996,1868,1931,1933,1931,1931,1931,1996,1933,1868,1932,1931,1868,1868,1933,1931,1868,1996,1996,1996,1932,1931,1931,1931,1868,1933,1932,1996,1931,1932,1996,
1868,1996,1931,1933,1932,1996,1931,1931,1996,1868,1933,1996,1868,1932,1931,1996,1996,1931,1868,1932,1868,1868,1931,1868,1868,1868,1932,1868,1868,1933,1931,1932,1868,1933,1932,1932,1932,1996,1868,1996,1933,1933,1932,1996,1932,1932,1931,1932,1932,1868,1932,1933,1933,1933,1996,1933,1868,1996,1933,1931,1933,1932,1868,1931,1932,1932,1932,1931,1932,1933,1996,1933,1931,1933,1931,1996,1931,1996,1933,1933,1996,1933,1868,1931,1933,1868,1933,1931,1868,1868,1933,1933,1933,1996,1868,1931,1932,1933,1931,1996,
1996,1868,1932,1996,1996,1933,1932,1996,1931,1933,1932,1931,1868,1933,1932,1931,1932,1868,1933,1996,1933,1932,1933,1996,1868,1932,1868,1996,1931,1931,1931,1933,1996,1868,1933,1868,1932,1868,1931,1996,1933,1868,1933,1933,1933,1932,1933,1931,1996,1932,1933,1932,1933,1932,1868,1933,1933,1931,1868,1931,1996,1996,1933,1996,1931,1932,1996,1868,1996,1996,1932,1932,1933,1996,1932,1996,1931,1996,1996,1996,1931,1996,1868,1931,1868,1931,1933,1868,1932,1931,1931,1933,1933,1933,1933,1931,1996,1932,1931,1996,
1931,1868,1931,1933,1932,1932,1932,1932,1996,1868,1931,1931,1933,1932,1933,1996,1931,1931,1932,1933,1996,1996,1868,1933,1932,1996,1996,1868,1931,1931,1996,1933,1933,1933,1933,1932,1868,1933,1933,1868,1996,1931,1931,1931,1868,1932,1933,1868,1931,1933,1933,1933,1868,1996,1932,1931,1996,1996,1931,1933,1868,1933,1933,1868,1931,1996,1933,1931,1932,1933,1996,1933,1932,1932,1868,1931,1931,1868,1932,1933,1933,1868,1931,1932,1868,1996,1931,1868,1932,1931,1933,1996,1931,1996,1868,1933,1996,1932,1996,1868,
1932,1868,1931,1932,1996,1931,1933,1996,1931,1932,1931,1931,1932,1931,1931,1868,1868,1933,1868,1932,1996,1996,1868,1931,1996,1868,1932,1996,1996,1931,1996,1868,1933,1996,1996,1931,1868,1996,1868,1931,1931,1996,1868,1996,1931,1868,1932,1996,1932,1931,1868,1868,1996,1868,1933,1932,1996,1931,1931,1996,1933,1868,1933,1933,1931,1868,1996,1933,1933,1931,1933,1933,1932,1933,1933,1933,1931,1996,1933,1933,1932,1868,1931,1996,1932,1996,1996,1996,1933,1996,1933,1996,1931,1868,1933,1932,1931,1931,1868,1933,
1868,1931,1933,1933,1932,1933,1931,1868,1996,1931,1931,1868,1931,1933,1868,1932,1932,1932,1868,1868,1868,1931,1996,1933,1868,1931,1933,1933,1933,1933,1932,1931,1932,1931,1931,1933,1931,1996,1996,1868,1868,1931,1996,1868,1996,1932,1868,1932,1933,1868,1931,1868,1996,1932,1868,1932,1932,1933,1932,1996,1868,1931,1932,1868,1868,1931,1996,1996,1868,1868,1933,1931,1932,1931,1996,1868,1931,1996,1996,1933,1931,1932,1868,1933,1933,1932,1868,1931,1996,1933,1996,1931,1933,1868,1931,1868,1932,1932,1931,1931,
1933,1931,1931,1932,1868,1932,1868,1996,1933,1931,1868,1996,1933,1933,1932,1996,1931,1932,1931,1933,1868,1933,1932,1996,1932,1933,1931,1996,1868,1996,1868,1932,1868,1933,1932,1868,1933,1868,1931,1933,1868,1996,1931,1931,1932,1996,1868,1868,1933,1996,1931,1996,1996,1868,1996,1932,1868,1933,1932,1932,1996,1996,1931,1996,1932,1933,1996,1868,1996,1931,1868,1868,1933,1931,1933,1996,1932,1996,1933,1932,1868,1932,1933,1933,1933,1932,1933,1868,1868,1868,1933,1996,1931,1932,1933,1868,1996,1932,1931,1996,
1933,1868,1868,1932,1868,1933,1933,1868,1931,1933,1931,1996,1868,1933,1931,1868,1868,1932,1868,1996,1996,1932,1868,1996,1933,1933,1868,1868,1868,1931,1868,1868,1932,1868,1933,1933,1933,1933,1931,1931,1933,1933,1996,1996,1868,1996,1932,1868,1868,1932,1868,1868,1933,1868,1931,1996,1996,1933,1868,1931,1933,1932,1933,1932,1931,1868,1933,1996,1868,1933,1996,1932,1996,1868,1932,1933,1931,1932,1933,1868,1996,1868,1933,1996,1933,1933,1932,1868,1996,1996,1932,1868,1996,1931,1996,1933,1868,1932,1932,1932,
1996,1933,1932,1931,1868,1868,1931,1868,1996,1931,1933,1933,1931,1868,1868,1996,1931,1932,1931,1932,1933,1868,1868,1868,1996,1933,1868,1931,1931,1868,1996,1996,1932,1931,1996,1996,1868,1933,1933,1933,1932,1932,1932,1868,1931,1932,1931,1868,1996,1868,1931,1868,1932,1996,1996,1868,1931,1868,1932,1996,1932,1996,1933,1996,1931,1868,1868,1933,1932,1931,1996,1933,1933,1996,1996,1932,1931,1931,1868,1933,1996,1932,1933,1868,1931,1868,1932,1931,1996,1931,1931,1932,1931,1868,1996,1933,1933,1933,1933,1933,
1932,1868,1933,1996,1931,1931,1933,1931,1996,1931,1933,1932,1933,1931,1868,1868,1933,1996,1933,1868,1932,1868,1931,1933,1932,1996,1996,1932,1996,1933,1996,1996,1932,1933,1933,1868,1868,1933,1996,1933,1933,1931,1996,1932,1932,1933,1868,1933,1933,1932,1868,1933,1996,1932,1996,1996,1996,1933,1996,1932,1931,1932,1868,1996,1996,1868,1868,1932,1868,1931,1868,1931,1868,1933,1996,1932,1868,1932,1996,1868,1932,1996,1996,1868,1931,1933,1933,1996,1933,1931,1868,1868,1933,1931,1996,1931,1933,1933,1996,1931,
1931,1868,1932,1868,1933,1933,1868,1868,1932,1931,1868,1868,1931,1933,1933,1931,1868,1933,1932,1996,1933,1932,1996,1996,1868,1868,1868,1932,1868,1996,1932,1932,1931,1996,1931,1931,1931,1932,1996,1996,1931,1933,1996,1996,1868,1932,1933,1868,1996,1868,1933,1933,1868,1932,1932,1868,1932,1931,1868,1933,1932,1932,1996,1996,1933,1996,1931,1933,1868,1933,1932,1996,1931,1868,1996,1932,1931,1996,1996,1868,1868,1933,1931,1868,1933,1931,1932,1868,1932,1931,1931,1996,1931,1933,1868,1931,1933,1931,1933,1868,
1868,1931,1868,1933,1996,1868,1932,1996,1868,1932,1932,1996,1932,1996,1868,1868,1932,1932,1933,1932,1931,1933,1933,1932,1931,1931,1996,1996,1931,1931,1868,1931,1931,1932,1931,1933,1996,1996,1933,1931,1931,1932,1931,1868,1996,1933,1868,1931,1933,1931,1931,1933,1868,1931,1933,1931,1868,1931,1996,1868,1996,1933,1868,1996,1996,1932,1996,1932,1931,1931,1996,1931,1932,1868,1933,1933,1996,1868,1933,1933,1996,1932,1996,1996,1931,1931,1996,1931,1931,1996,1933,1868,1932,1996,1996,1933,1932,1933,1931,1996,
1932,1868,1932,1868,1996,1932,1933,1868,1868,1996,1932,1868,1868,1931,1931,1868,1931,1996,1996,1996,1868,1931,1931,1996,1996,1996,1996,1933,1868,1931,1868,1933,1933,1933,1868,1933,1868,1932,1933,1996,1931,1932,1996,1868,1932,1996,1931,1996,1933,1996,1931,1868,1933,1932,1932,1868,1996,1933,1996,1933,1868,1933,1996,1931,1996,1868,1933,1932,1931,1933,1932,1931,1933,1868,1996,1932,1996,1932,1932,1868,1996,1996,1932,1931,1868,1996,1933,1933,1868,1931,1933,1868,1932,1868,1868,1996,1933,1931,1933,1996,
1931,1931,1931,1996,1932,1931,1996,1868,1868,1933,1933,1868,1933,1932,1868,1931,1931,1996,1932,1932,1931,1931,1996,1868,1996,1933,1932,1931,1996,1932,1932,1868,1933,1996,1933,1931,1996,1996,1868,1932,1868,1933,1931,1932,1868,1931,1932,1932,1932,1868,1931,1933,1996,1931,1932,1996,1931,1931,1868,1933,1932,1933,1932,1931,1868,1933,1996,1996,1933,1996,1868,1932,1931,1996,1996,1996,1933,1931,1931,1931,1933,1868,1931,1933,1932,1868,1933,1931,1868,1931,1996,1933,1931,1933,1931,1932,1931,1868,1932,1933,
1868,1931,1996,1932,1933,1932,1933,1932,1931,1996,1996,1932,1868,1932,1932,1868,1996,1868,1931,1931,1868,1932,1996,1932,1996,1933,1996,1932,1933,1933,1868,1933,1931,1868,1868,1933,1868,1931,1868,1932,1932,1868,1931,1933,1933,1932,1996,1933,1932,1931,1931,1868,1996,1996,1868,1868,1996,1932,1933,1868,1868,1996,1868,1868,1996,1931,1868,1932,1931,1931,1931,1933,1931,1931,1933,1868,1996,1933,1932,1868,1932,1931,1932,1868,1996,1931,1868,1931,1996,1868,1931,1932,1996,1933,1933,1933,1931,1932,1931,1933,
1868,1933,1931,1868,1996,1932,1931,1932,1933,1996,1932,1868,1933,1933,1931,1868,1996,1868,1932,1931,1931,1996,1931,1868,1996,1931,1932,1996,1931,1868,1868,1933,1933,1931,1996,1932,1868,1996,1931,1932,1868,1933,1868,1996,1868,1932,1931,1932,1996,1933,1996,1932,1933,1996,1932,1933,1933,1868,1933,1996,1932,1931,1996,1931,1931,1868,1932,1932,1931,1996,1933,1996,1931,1933,1996,1933,1931,1933,1868,1996,1933,1932,1996,1932,1868,1933,1932,1868,1996,1933,1931,1931,1996,1996,1932,1932,1933,1933,1868,1933,
1996,1933,1933,1996,1868,1932,1996,1931,1931,1931,1931,1933,1933,1933,1996,1932,1933,1868,1933,1931,1932,1931,1932,1996,1932,1868,1933,1932,1931,1931,1931,1933,1868,1996,1933,1996,1933,1996,1931,1868,1932,1933,1868,1868,1868,1868,1931,1931,1932,1931,1932,1933,1932,1932,1932,1868,1933,1996,1996,1931,1932,1996,1996,1933,1931,1996,1933,1932,1933,1933,1996,1933,1931,1996,1996,1996,1932,1933,1933,1931,1931,1932,1996,1868,1932,1931,1932,1996,1933,1931,1932,1868,1996,1996,1932,1932,1996,1868,1868,1931,
1868,1868,1932,1996,1931,1931,1932,1996,1996,1931,1868,1931,1931,1933,1868,1868,1933,1868,1933,1931,1931,1868,1996,1996,1996,1868,1933,1931,1932,1931,1933,1931,1931,1931,1931,1931,1932,1931,1868,1996,1996,1868,1931,1933,1996,1996,1931,1931,1933,1996,1996,1933,1932,1868,1932,1996,1932,1933,1932,1931,1932,1996,1933,1868,1931,1933,1996,1931,1931,1933,1931,1933,1868,1933,1868,1932,1931,1931,1933,1868,1933,1931,1868,1933,1996,1931,1996,1931,1932,1996,1996,1931,1931,1933,1868,1868,1868,1933,1932,1932,
1868,1996,1996,1996,1931,1933,1931,1868,1933,1868,1868,1996,1932,1933,1932,1996,1868,1933,1868,1933,1932,1868,1932,1931,1933,1932,1932,1996,1868,1932,1932,1933,1933,1996,1931,1996,1933,1932,1931,1933,1996,1933,1931,1996,1931,1933,1868,1933,1932,1932,1868,1931,1931,1933,1868,1932,1996,1868,1931,1933,1933,1868,1932,1996,1996,1932,1996,1933,1931,1868,1931,1932,1932,1933,1933,1868,1931,1996,1931,1933,1868,1933,1996,1933,1931,1933,1868,1932,1931,1933,1933,1868,1932,1996,1868,1868,1931,1932,1933,1931,
1868,1996,1933,1931,1932,1931,1996,1931,1931,1868,1996,1933,1932,1933,1933,1868,1933,1932,1996,1868,1933,1933,1932,1996,1933,1933,1996,1931,1933,1996,1932,1931,1932,1996,1933,1931,1931,1931,1933,1868,1933,1996,1931,1996,1931,1932,1932,1931,1933,1932,1933,1933,1996,1933,1932,1931,1931,1932,1931,1933,1868,1996,1931,1931,1996,1933,1996,1996,1933,1932,1933,1933,1931,1868,1933,1933,1932,1868,1931,1931,1996,1933,1932,1868,1932,1868,1932,1933,1996,1931,1868,1868,1868,1868,1868,1996,1931,1932,1932,1868,
1933,1996,1933,1931,1868,1996,1868,1933,1868,1933,1932,1933,1932,1933,1933,1932,1933,1931,1868,1933,1996,1933,1933,1996,1868,1996,1931,1931,1932,1933,1996,1996,1868,1868,1996,1868,1932,1932,1996,1996,1933,1931,1931,1868,1931,1932,1868,1868,1931,1932,1996,1932,1996,1932,1996,1996,1996,1868,1868,1868,1931,1931,1996,1933,1933,1931,1932,1868,1933,1933,1996,1996,1931,1996,1931,1932,1868,1933,1932,1932,1931,1868,1931,1932,1996,1931,1996,1932,1932,1932,1931,1996,1996,1933,1932,1932,1933,1932,1933,1932,
1932,1932,1932,1932,1931,1932,1931,1933,1931,1996,1996,1931,1931,1868,1996,1932,1868,1933,1996,1868,1931,1932,1996,1931,1868,1932,1932,1933,1996,1868,1933,1868,1868,1932,1931,1932,1931,1933,1931,1868,1933,1931,1868,1933,1996,1868,1933,1868,1868,1932,1931,1868,1868,1996,1996,1933,1932,1931,1868,1931,1932,1868,1996,1996,1996,1868,1868,1933,1868,1868,1931,1996,1931,1933,1996,1868,1868,1868,1931,1931,1933,1933,1868,1996,1932,1932,1933,1933,1996,1868,1931,1996,1933,1868,1932,1931,1996,1931,1933,1868,
1933,1932,1931,1932,1933,1933,1996,1868,1996,1931,1932,1933,1931,1933,1933,1933,1996,1933,1933,1996,1931,1933,1868,1868,1996,1933,1931,1931,1868,1931,1931,1932,1868,1868,1868,1932,1931,1931,1868,1931,1933,1931,1932,1868,1932,1868,1868,1868,1931,1996,1932,1933,1933,1932,1996,1932,1996,1933,1931,1996,1868,1996,1932,1933,1931,1931,1932,1868,1932,1931,1931,1931,1868,1931,1868,1933,1996,1933,1996,1996,1996,1932,1868,1932,1933,1933,1996,1932,1932,1868,1933,1996,1931,1931,1931,1931,1931,1868,1996,1931
</data>
 </layer>
 <layer id="12" name="walls" width="100" height="100">
  <data encoding="csv">
1998,1998,1998,2061,2061,1998,2062,2060,2060,2059,2061,2060,1998,2062,2059,2061,2060,1998,2062,1998,1994,2062,1998,1994,1998,2062,2061,2059,2060,2060,1998,1998,1994,1998,2062,2061,2059,2060,2062,1994,2061,1998,2059,2060,2062,2060,2059,2061,1994,1998,2061,2061,2062,1998,2061,2062,2062,2059,1994,2061,2060,2061,2062,2062,2062,2060,1994,2061,2060,2059,1998,2062,1994,2059,2059,1998,1998,2061,1994,2059,1998,1998,2060,1998,1994,2060,2062,2059,1994,1994,2059,1998,1994,2059,2062,2060,2059,2061,1998,1994,
1994,2062,2061,2059,2059,2062,1998,2061,2061,1998,2062,2059,2060,1998,2060,2061,2059,1994,2060,2062,1994,2060,2059,2062,2059,1994,1994,1994,2061,2059,1998,1994,2059,2060,2062,1998,1998,2059,1994,2059,2059,2062,2059,1994,2062,1994,2061,2061,1994,2060,1998,2061,2059,2062,1994,1994,2062,2060,2059,2061,2062,2060,2061,2062,1994,2062,2061,2062,2059,1994,2060,2059,1998,1998,2060,2061,2061,1998,2059,2059,1994,2059,2062,1994,2059,2059,1998,2062,2060,1998,1994,2061,2062,1998,1994,2059,2060,2061,2059,2060,
2059,2059,1994,2061,2059,2059,1998,1998,2062,2060,2059,1994,2060,2061,2062,2062,1998,2060,2062,1998,2059,1998,2061,2059,2059,2060,1998,2062,2060,1994,2061,2061,1994,2059,1994,1998,1994,2062,1998,2059,2062,2062,2061,1998,2061,2059,1994,2062,1998,2060,2061,2062,2059,2061,2059,2060,1998,1994,2062,2059,2059,2061,1994,2062,2062,2062,1994,2061,2059,2061,1994,1994,2060,2059,2062,1998,2059,1994,2060,1998,1994,2061,2062,2061,1998,2060,2060,1994,2061,2060,2062,2061,2062,2061,2059,2059,2061,2061,2062,2059,
1998,2059,2062,2062,2061,2062,2061,2059,2059,2062,2062,2062,1994,2059,2061,1994,2059,2062,1994,1998,2059,2062,1998,2061,2062,2059,2062,1998,2061,2061,2062,1998,2060,2061,1998,2061,2061,2062,2062,1998,2062,1994,2062,2062,1998,2060,1998,2060,1998,1994,1994,2062,2060,1994,2059,1998,1998,2060,2059,1994,2059,2060,1994,2062,1994,1998,2062,1998,2059,1994,1998,2059,2059,2059,1998,1998,2061,1998,2061,2061,2060,1998,2062,2059,1994,1994,1998,2060,1994,2060,2060,2059,1994,2062,1994,2060,2061,2062,2060,1998,
2062,2060,1994,1994,1998,2062,1998,2059,1994,1994,2060,2060,1803,1804,1804,1804,1805,1998,2062,2062,2062,2062,2059,2059,2062,1998,2062,1998,2062,2060,2061,2059,2059,1994,1994,2059,2059,2060,2059,2062,2062,2060,2062,2061,1994,2059,1998,2059,1994,2059,2060,2061,1994,2060,2059,1994,2061,2062,2062,2062,2061,1994,1998,1994,1994,2060,2060,2060,1994,2062,2059,2059,2059,2059,1998,2059,1998,1998,2062,2060,2062,1998,2061,1994,2060,2059,2059,2061,1994,1994,2060,1998,1998,2062,1998,1994,2061,1994,2060,2062,
2061,2062,2062,1994,2062,2061,1994,1998,2062,1998,1803,1804,1867,2188,2188,2188,1869,1804,1805,2061,2060,1998,1994,1998,2062,2061,2062,2062,1994,2060,1998,2059,1994,2059,2062,1994,1994,1998,2060,2059,1998,2060,2062,2060,1994,2060,1994,2060,1998,1998,2059,1994,2061,2060,2059,2061,2060,2060,2060,2062,2061,2062,1994,2059,2060,2061,2060,2062,2061,2062,2062,1998,2062,2061,1994,2060,2060,1994,2060,1803,1804,1804,1804,1804,1804,1804,1804,1805,2061,1998,2059,1994,1998,2059,2061,2059,2062,2059,2062,2062,
1994,1998,1994,2059,1998,2059,2059,1998,2061,1803,1867,2188,2188,2188,2188,2188,2188,2188,1869,1804,1805,2062,2060,1998,2062,2062,1994,2062,2061,2061,2059,2060,2059,2061,2061,1998,2060,1998,1998,2059,2062,2060,2059,1994,1998,1998,2060,2060,2059,1994,1994,2062,1994,2062,2062,2060,2062,1994,1998,2060,1998,2062,2059,2060,2059,1994,1998,1994,2059,1994,2061,2060,2062,1994,1994,2062,2059,1803,1804,1867,2188,2188,2188,2188,2188,2188,2188,1869,1805,1994,1994,2059,2062,2059,2062,2062,2059,1998,2060,2060,
1998,2061,2060,2059,2060,2061,2060,1998,1803,1867,2188,2188,2188,2188,2188,2188,2188,2188,2188,2188,1869,1805,1998,2059,2060,2060,2062,2060,2062,1998,2060,2060,1994,2061,2059,2059,2059,1994,1994,1998,2061,1998,2059,2061,2061,1994,1998,2059,1994,2061,1998,2059,1998,2060,1994,2060,2059,2062,2061,2061,2060,1994,2060,2062,2059,1994,1994,2059,2061,1994,1998,2061,1998,2060,1998,2061,2061,1867,2188,2188,2188,2188,2188,2188,2188,2188,2188,2188,1869,1804,1805,2060,2059,2060,1998,2059,2061,1994,2059,1998,
2060,2060,1994,2059,2061,2061,1994,2060,1867,2188,2188,2188,2188,2188,2188,2188,2188,2188,2188,2188,2188,1869,1805,2061,2062,2062,1994,2060,1998,2061,1994,1998,2060,1998,1994,1994,2060,1998,2061,2060,2062,2062,1994,1998,2061,1998,1994,1994,2060,2062,2061,2059,2059,1994,1998,2061,1998,1994,2059,2062,2061,2062,1994,2060,2059,2060,1998,2059,1998,2060,2059,2061,2061,2062,1994,1994,1803,2188,2188,2188,2188,2188,2188,2188,2188,2188,2188,2188,2188,2188,1869,1805,1994,1998,2060,2060,1994,2062,1998,2061,
2061,1994,2060,2060,2061,2061,1994,1803,2188,2188,2188,2188,2188,2188,2188,2188,2188,2188,2188,2188,2188,2188,1869,2060,2060,2060,2060,2059,2060,2061,2062,2062,1998,2062,2059,1994,1994,2059,2059,2061,2061,1994,1994,2062,2061,1998,1998,2059,1998,2060,2061,2059,2060,2059,2062,2059,1994,2061,2061,2060,2059,2060,2061,2060,1998,2061,2060,1994,1998,2060,2062,1998,2060,2062,1994,1998,1867,2188,2188,2188,2188,2188,2188,2188,2188,2188,2188,2188,2188,2188,2188,1869,2061,1994,1998,2061,2059,2059,2061,1994,
2062,2062,1998,1998,2062,2060,1803,1867,2188,2188,2188,2188,2188,2188,2188,2188,2188,2188,2188,2188,2188,2188,2188,1805,2061,1994,1994,1998,1998,2062,2061,2060,1998,2060,2059,1994,1994,2060,2062,2062,1998,2060,1998,1998,2062,2060,2062,2059,2060,1998,2060,1998,2062,2060,2061,2059,1998,2062,2060,2062,2062,2060,1998,2059,2062,1998,1994,2062,1998,1994,2061,1998,2061,2062,2061,1803,2188,2188,2188,2188,2188,2188,2188,2188,2188,2188,2188,2188,2188,2188,2188,2188,1805,2059,2059,1994,2059,2059,1994,1998,
2060,1994,1994,1998,2062,1998,1867,2188,2188,2188,2188,2188,2188,2188,2188,2188,2188,2188,2188,2188,2188,2188,2188,1869,2061,1998,2061,2059,1994,1994,2062,2060,2062,2061,1994,2062,2060,1994,1994,2062,1994,2061,1994,2060,2062,2061,2062,1998,2059,2062,2062,1998,2061,1994,2061,1998,2061,2060,2061,2062,2061,2062,1998,2061,2060,1998,1998,2061,2059,1998,2061,2061,2061,1994,2062,1867,2188,2188,2188,2188,2188,2188,2188,2188,2188,2188,2188,2188,2188,2188,2188,2188,1869,2062,2059,2060,2061,1998,2061,1998,
2062,2062,1998,2060,1994,2059,2188,2188,2188,2188,2188,2188,2188,2188,2188,2188,2188,2188,2188,2188,2188,2188,2188,2188,1934,1998,1994,1994,1994,2059,2061,1994,2062,2061,2060,1998,1998,2060,2059,2059,2061,2061,1998,2061,2060,2060,1998,2062,2061,1994,2059,2061,2061,1994,1998,1998,2059,2062,2061,2060,1994,1998,2060,2059,2059,2059,2060,2060,2059,2061,1994,2059,1998,1994,1930,2188,2188,2188,2188,2188,2188,2188,2188,2188,2188,2188,2188,2188,2188,2188,2188,2188,2188,1805,2062,2060,1994,2060,2062,1994,
2060,1998,1994,1998,1994,2062,2188,2188,2188,2188,2188,2188,2188,2188,2188,2188,2188,2188,2188,2188,2188,2188,2188,2188,2060,2062,2060,2059,1998,2060,1994,1994,1994,1998,1994,1994,2060,2060,1998,2062,2059,2059,2061,2060,1994,1998,1998,2060,2060,2062,2059,2059,1998,2060,2061,2062,2062,1994,2061,1994,2059,1998,2060,1998,1994,2062,2060,2061,2062,2060,1998,1994,1994,2061,2062,1995,2188,2188,2188,2188,2188,2188,2188,2188,2188,2188,2188,2188,2188,2188,2188,2188,2188,1869,1998,2061,1998,1998,1994,2061,
1998,2061,1998,2059,2060,1930,2188,2188,2188,2188,2188,2188,2188,2188,2188,2188,2188,2188,2188,2188,2188,2188,2188,2188,1994,1994,2060,2059,2059,2059,1998,1994,2061,2061,2062,2060,2060,1994,2059,2059,2061,2061,2060,2059,2062,2059,2061,2060,2062,1998,2061,2059,1998,2059,2062,1998,2061,1994,2060,1994,2062,2061,2061,2062,2060,2061,1994,2059,2059,2060,2062,1994,2059,2059,2060,2061,2188,2188,2188,2188,2188,2188,2188,2188,2188,2188,2188,2188,2188,2188,2188,2188,2188,2188,2059,2061,2061,2061,1994,1994,
2062,2059,2060,2060,2062,1994,2188,2188,2188,2188,2188,2188,2188,2188,2188,2188,2188,2188,2188,2188,2188,2188,2188,1997,2061,2062,1994,1994,2060,1994,2060,2060,1994,2060,2062,2061,1994,1998,2062,2059,2059,2061,2060,1994,2059,2059,2062,1994,2060,1998,2062,1998,2062,1998,2062,2060,2062,2062,1994,2060,1998,2060,2062,2061,1998,2062,1994,2062,2061,1994,2060,2062,2059,2060,2062,2059,2188,2188,2188,2188,2188,2188,2188,2188,2188,2188,2188,2188,2188,2188,2188,2188,2188,2188,1805,2062,1998,2060,1998,1994,
2061,2059,2062,2062,2061,1930,2188,2188,2188,2188,2188,2188,2188,2188,2188,2188,2188,2188,2188,2188,2188,2188,2188,2062,1998,2062,2061,1994,2060,1994,1994,1998,2060,2059,2059,2061,1994,1994,1994,2062,2060,2062,2061,2059,2060,2061,1998,2062,1994,1998,2059,2060,1994,1998,1994,2060,1998,2060,2059,2060,2059,1994,1994,2059,1998,2061,2060,1994,2059,2061,1998,2060,1998,2062,1994,2059,1995,2188,2188,2188,2188,2188,2188,2188,2188,2188,2188,2188,2188,2188,2188,2188,2188,2188,1869,2061,2060,1998,2059,1994,
2059,2062,2062,2061,1998,2059,2188,2188,2188,2188,2188,2188,2188,2188,2188,2188,2188,2188,2188,2188,2188,2188,2188,2062,2061,2059,2062,1994,2059,2061,2060,2059,2059,2060,2061,1994,1994,2062,1994,1998,1998,2060,2059,1998,1998,2061,2062,2062,2060,2060,2059,1998,2061,2060,2059,2062,1994,2061,2059,2059,1994,2060,2062,1994,1994,2059,2059,2060,1998,2059,1994,1998,2062,2060,1998,2060,2059,2188,2188,2188,2188,2188,2188,2188,2188,2188,2188,2188,2188,2188,2188,2188,2188,2188,2188,2062,2059,1994,1994,2062,
2060,2060,2059,2059,2061,2060,1995,2188,2188,2188,2188,2188,2188,2188,2188,2188,2188,2188,2188,2188,2188,2188,2188,1805,2059,1994,2061,2061,2061,1998,2059,1994,1994,2059,2060,1994,1998,2061,2060,2060,2059,2061,2060,2059,2060,2059,2060,2060,1994,2059,2062,2062,2060,1994,2061,2062,2062,2061,1998,2061,2061,1998,2061,1994,1998,2059,1998,2061,1994,2060,2061,2062,2061,1998,2061,2062,1930,2188,2188,2188,2188,2188,2188,2188,2188,2188,2188,2188,2188,2188,2188,2188,2188,2188,2188,1998,1994,2061,2059,2060,
2059,2061,2062,2062,2060,2060,2060,2188,2188,2188,2188,2188,2188,2188,2188,2188,2188,2188,2188,2188,2188,2188,2188,1869,1805,2061,2060,1994,2060,2060,1994,1998,1994,2062,1994,2060,2060,2059,1994,2062,1994,2062,2060,2061,2059,1998,1998,2059,1998,2060,2062,1994,2062,1998,1803,1804,1804,1804,1804,1804,1804,1804,1804,1805,2061,1994,2061,2059,2062,2059,2062,2062,1998,2059,1998,2061,2061,2188,2188,2188,2188,2188,2188,2188,2188,2188,2188,2188,2188,2188,2188,2188,2188,2188,2188,1934,2061,1998,1994,1994,
1998,1998,2060,1998,2060,2059,2062,1995,2188,2188,2188,2188,2188,2188,2188,2188,2188,2188,2188,2188,2188,2188,2188,2188,1869,1805,2060,1994,1998,1998,1998,1994,1998,2062,1994,2061,2061,2061,2059,2060,1994,2060,1803,1804,1804,1804,1804,1804,1804,1804,1804,1804,1804,1804,1867,2188,2188,2188,2188,2188,2188,2188,2188,1869,1804,1804,1805,2059,1998,1994,2061,1994,2062,2062,1994,2059,1803,2188,2188,2188,2188,2188,2188,2188,2188,2188,2188,2188,2188,2188,2188,2188,2188,2188,2188,1994,1998,2062,2060,2062,
2059,2061,2062,1998,1998,2059,2061,1994,1995,2188,2188,2188,2188,2188,2188,2188,2188,2188,2188,2188,2188,2188,2188,2188,2188,1869,1805,2062,2060,1998,1994,2062,2062,2060,1998,1994,1994,1803,1804,1804,1804,1804,1867,2188,2188,2188,2188,2188,2188,2188,2188,2188,2188,2188,2188,2188,2188,2188,2188,2188,2188,2188,2188,2188,2188,2188,1869,1804,1805,2060,2062,2061,2060,1994,1803,1804,1867,2188,2188,2188,2188,2188,2188,2188,2188,2188,2188,2188,2188,2188,2188,2188,2188,2188,2188,2061,2062,1998,2062,2062,
1994,2061,2061,2061,2062,2061,2059,1998,1994,1995,2188,2188,2188,2188,2188,2188,2188,2188,2188,2188,2188,2188,2188,2188,2188,2188,1869,1805,1994,2062,2061,2060,1998,1803,1804,1804,1804,1867,2188,2188,2188,2188,2188,2188,2188,2188,2188,2188,2188,2188,2188,2188,2188,2188,2188,2188,2188,2188,2188,2188,2188,2188,2188,2188,2188,2188,2188,2188,1869,1804,1805,1994,1998,1803,1867,2188,2188,2188,2188,2188,2188,2188,2188,2188,2188,2188,2188,2188,2188,2188,2188,2188,2188,2188,2188,2059,1994,2062,2062,2060,
2062,2062,2061,2059,2061,2061,2062,1998,2061,1994,1995,2188,2188,2188,2188,2188,2188,2188,2188,2188,2188,2188,2188,2188,2188,2188,2188,1869,1804,1805,1998,1803,1804,1867,2188,2188,2188,2188,2188,2188,2188,2188,2188,2188,2188,2188,2188,2188,2188,2188,2188,2188,2188,2188,2188,2188,2188,2188,2188,2188,2188,2188,2188,2188,2188,2188,2188,2188,2188,2188,1869,1804,1804,1867,2188,2188,2188,2188,2188,2188,2188,2188,2188,2188,2188,2188,2188,2188,2188,2188,2188,2188,2188,2188,2188,1934,2062,2062,2061,2060,
2062,2059,1994,2060,2060,2060,2062,2060,2060,2060,2059,1995,2188,2188,2188,2188,2188,2188,2188,0,0,2188,2188,2188,2188,2188,2188,2188,2188,1869,1804,1867,2188,2188,2188,2188,2188,2188,2188,2188,2188,2188,2188,2188,2188,2188,2188,2188,2188,2188,2188,2188,2188,2188,2188,2188,2188,2188,2188,2188,2188,2188,2188,2188,2188,2188,2188,2188,2188,2188,2188,2188,2188,2188,2188,2188,2188,2188,2188,2188,2188,1997,2060,2061,1995,2188,2188,2188,2188,2188,2188,2188,2188,2188,2188,2061,2062,1998,2059,1994,
2062,1994,2060,1994,2060,2059,2059,1998,1998,1994,1998,1998,2062,1995,2188,2188,2188,2188,1997,2059,2062,1995,2188,2188,2188,2188,2188,2188,2188,2188,2188,2188,2188,2188,2188,2188,2188,2188,2188,2188,2188,2188,2188,2188,2188,2188,2188,2188,2188,2188,2188,2188,2188,2188,2188,2188,2188,2188,2188,2188,2188,2188,2188,2188,2188,2188,2188,2188,2188,2188,2188,2188,2188,2188,2188,2188,2188,2188,2188,2188,1997,1994,1998,2061,1998,1995,2188,2188,2188,2188,2188,2188,2188,2188,2188,2061,2062,1994,1994,2061,
2059,1994,2060,2059,2060,2062,2061,2061,2062,2061,1994,1998,2062,2059,2060,2060,1994,2060,1994,2060,2062,1998,1994,1995,2188,2188,2188,2188,2188,2188,2188,2188,2188,2188,2188,2188,2188,2188,2188,2188,2188,2188,2188,2188,2188,2188,2188,2188,2188,2188,2188,2188,2188,2188,2188,2188,2188,2188,2188,2188,2188,2188,2188,2188,2188,2188,2188,2188,2188,2188,2188,2188,2188,2188,2188,2188,2188,2188,2188,1997,2060,1998,2062,2060,2060,1998,1995,2188,2188,2188,2188,2188,2188,2188,1997,2060,2059,1994,2061,2062,
2062,2059,2061,1994,1994,2060,2059,1998,1998,2060,2059,2060,2062,2061,2061,2061,2060,2059,2060,2059,2060,2060,2060,2059,1995,2188,2188,2188,2188,2188,2188,2188,2188,2188,2188,2188,2188,2188,2188,2188,2188,2188,2188,2188,2188,2188,2188,2188,2188,2188,2188,2188,2188,2188,2188,2188,2188,2188,2188,2188,2188,2188,2188,2188,2188,2188,2188,2188,2188,2188,2188,2188,2188,2188,2188,2188,2188,2188,1997,2059,2060,1994,1998,1994,2060,1998,2061,1995,2188,2188,2188,2188,1997,1998,1998,2059,2059,1994,1998,2062,
1998,2061,2060,2059,2060,1998,2061,1994,2059,1994,1994,2060,2062,1994,2059,2059,1994,1998,2062,1994,1998,1994,2062,1994,2060,1994,1995,2188,2188,2188,2188,2188,2188,2188,2188,2188,2188,2188,2188,2188,2188,2188,2188,2188,2188,2188,2188,2188,2188,2188,2188,2188,2188,2188,2188,2188,2188,2188,2188,2188,2188,2188,2188,2188,2188,2188,2188,2188,2188,2188,2188,2188,2188,2188,2188,2188,2188,2188,2062,2060,2059,2062,2062,2062,2059,2060,2062,1994,2060,2060,2061,1998,2060,2062,1998,2061,2061,1994,2062,1998,
1998,2059,2059,1994,1998,2062,1998,2059,1994,2059,1998,1994,1994,2061,2062,2059,1998,1998,1994,1998,2060,2061,2061,2062,1994,2061,1998,2188,2188,2188,2188,2188,2188,2188,2188,2188,2188,2188,2188,2188,2188,2188,2188,2188,2188,2188,2188,2188,2188,2188,2188,2188,2188,2188,2188,2188,2188,2188,2188,2188,2188,2188,2188,2188,2188,2188,2188,2188,2188,2188,2188,2188,2188,2188,2188,2188,2188,2188,2059,2059,2059,1994,2059,1994,1998,1994,2061,2062,1994,2059,2062,2061,2062,2061,2060,2060,1998,1994,1998,2060,
1994,2061,2060,1994,2061,2062,2060,2059,2061,2060,2060,2060,2061,2059,2061,2061,2061,1994,1998,2062,2060,1994,2059,2062,2059,2061,2061,2188,2188,2188,2188,2188,2188,2188,2188,2188,2188,2188,2188,2188,2188,2188,2188,2188,2188,2188,2188,2188,2188,2188,2188,2188,2188,2188,2188,2188,2188,2188,2188,2188,2188,2188,2188,2188,2188,2188,2188,2188,2188,2188,2188,2188,2188,2188,2188,2188,2188,2188,1805,2059,2061,2060,1998,2062,2062,1994,1994,2061,1998,2061,1994,1998,2059,2059,2062,1994,2061,2059,2059,1994,
1994,2060,2062,2059,2060,2061,1994,2062,2061,2062,2060,1994,2059,1994,1998,1998,2061,2061,2060,2061,2062,2061,2059,2060,2059,1998,1998,2188,2188,2188,2188,2188,2188,2188,2188,2188,2188,2188,2188,2188,2188,2188,2188,2188,2188,2188,2188,2188,2188,2188,2188,2188,2188,2188,2188,2188,2188,2188,2188,2188,2188,2188,2188,2188,2188,2188,2188,2188,2188,2188,2188,2188,2188,2188,2188,2188,2188,2188,1869,1805,1998,1994,1998,2060,1998,2059,2060,1998,2062,2060,2059,2059,2062,2060,1998,2060,2059,2061,2060,2061,
1998,2061,2061,2060,2062,2060,1994,2061,2062,1994,1994,1998,2061,2062,2059,2059,2061,2061,1998,2059,2060,2062,2061,2059,2061,2060,1803,2188,2188,2188,2188,2188,2188,2188,2188,2188,2188,2188,2188,2188,2188,2188,2188,2188,2188,2188,2188,2188,2188,2188,2188,2188,2188,2188,2188,2188,2188,2188,2188,2188,2188,2188,2188,2188,2188,2188,2188,2188,2188,2188,2188,2188,2188,2188,2188,2188,2188,2188,2188,1869,2062,1994,2062,2060,2060,1998,2061,2059,2062,2059,1994,2060,2060,1998,2062,2059,1994,1994,1994,1998,
2059,2059,2061,1998,2062,1994,2060,1994,2059,2060,1998,2059,2062,2062,2061,2062,1998,2060,2062,2061,1994,2059,1998,1994,2062,2059,1867,2188,2188,2188,2188,2188,2188,2188,2188,2188,2188,2188,2188,2188,2188,2188,2188,2188,2188,2188,2188,2188,2188,2188,2188,2188,2188,2188,2188,2188,2188,2188,2188,2188,2188,2188,2188,2188,2188,2188,2188,2188,2188,2188,2188,2188,2188,2188,2188,2188,2188,2188,2188,2188,2062,1998,2061,1998,1994,1998,2061,2062,2059,1994,2060,2061,2060,1998,1994,2062,2060,2060,2060,1994,
1994,2061,1998,2059,2059,2062,2062,2061,2061,2061,2061,2061,1994,2059,2059,2060,2060,2059,2061,2061,1998,2061,2060,2061,2062,1803,2188,2188,2188,2188,2188,2188,2188,2188,2188,2188,2188,2188,2188,2188,2188,2188,2188,2188,2188,2188,2188,2188,2188,2188,2188,2188,2188,2188,2188,2188,2188,2188,2188,2188,2188,2188,2188,2188,2188,2188,2188,2188,2188,2188,2188,2188,2188,2188,2188,2188,2188,2188,2188,2188,1805,2062,2062,2061,2061,1998,2061,2062,1998,2059,2059,1994,2059,1998,2062,1994,2061,1994,2062,2062,
1994,2062,2062,2062,2060,2061,1998,2061,2060,2060,2059,2062,2059,2061,1998,1998,2060,2061,1994,2060,2059,1994,2062,2061,2062,1867,2188,2188,2188,2188,2188,2188,2188,2188,2188,2188,2188,2188,2188,2188,2188,2188,2188,2188,2188,2188,2188,2188,2188,2188,2188,2188,2188,2188,2188,2188,2188,2188,2188,2188,2188,2188,2188,2188,2188,2188,2188,2188,2188,2188,2188,2188,2188,2188,2188,2188,2188,2188,2188,2188,1869,2062,2061,1998,1998,2059,2061,1998,2060,2061,2059,2060,2060,2060,1998,1998,1998,1998,2061,1994,
2062,2061,2060,2062,2060,2062,2061,1994,2059,1998,2060,1994,1994,2061,2060,1998,2061,2061,2061,2062,2059,2062,2060,2061,2059,2188,2188,2188,2188,2188,2188,2188,2188,2188,2188,2188,2188,2188,2188,2188,2188,2188,2188,2188,2188,2188,2188,2188,2188,2188,2188,2188,2188,2188,2188,2188,2188,2188,2188,2188,2188,2188,2188,2188,2188,2188,2188,2188,2188,2188,2188,2188,2188,2188,2188,2188,2188,2188,2188,2188,2188,2060,2062,2062,1998,2060,2059,1998,2061,1994,1998,2060,2061,1994,2060,1998,2061,2061,2061,1994,
2062,1998,1998,2062,1994,2061,1994,2062,1998,2061,2060,2062,2060,2062,2059,1998,2061,2062,2060,1998,1994,2062,1994,1994,1803,2188,2188,2188,2188,2188,2188,2188,2188,2188,2188,2188,2188,2188,2188,2188,2188,2188,2188,2188,2188,2188,2188,2188,2188,2188,2188,2188,2188,2188,2188,2188,2188,2188,2188,2188,2188,2188,2188,2188,2188,2188,2188,2188,2188,2188,2188,2188,2188,2188,2188,2188,2188,2188,2188,2188,2188,1805,1994,1998,2061,1998,2060,2061,1998,2060,1998,2059,2060,2059,2059,2061,2061,2062,1998,2061,
2059,1994,1994,2060,2061,1998,2062,2061,2059,2060,2062,1998,2059,1994,1994,2062,1994,2061,1994,2062,2061,2059,2062,2061,1867,2188,2188,2188,2188,2188,2188,2188,2188,2188,2188,2188,2188,2188,2188,2188,2188,2188,2188,2188,2188,2188,2188,2188,2188,2188,2188,2188,2188,2188,2188,2188,2188,2188,2188,2188,2188,2188,2188,2188,2188,2188,2188,2188,2188,2188,2188,2188,2188,2188,2188,2188,2188,2188,2188,2188,2188,1869,1998,2059,2059,2062,1994,2059,2060,2059,1998,2061,2061,1994,2062,1994,2062,2059,1998,2062,
1994,1994,2060,2060,1998,1998,2059,2059,2062,2060,2061,2059,1994,2059,2061,2059,2062,2060,2059,2062,1994,2062,1994,1803,2188,2188,2188,2188,2188,2188,2188,2188,2188,2188,2188,2188,2188,2188,2188,2188,2188,2188,2188,2188,2188,2188,2188,2188,2188,2188,2188,2188,2188,2188,2188,2188,2188,2188,2188,2188,2188,2188,2188,2188,2188,2188,2188,2188,2188,2188,2188,2188,2188,2188,2188,2188,2188,2188,2188,2188,2188,2188,1994,2061,2061,2062,2062,2061,1998,2059,2061,2060,2061,2060,2060,1998,2062,1994,1998,1994,
1994,2059,1998,2060,1994,1994,2059,1994,2060,1998,1998,2061,2061,2062,2061,1998,1998,1994,2062,2060,1994,2061,1998,1867,2188,2188,2188,2188,2188,2188,2188,2188,2188,2188,2188,2188,2188,2188,2188,2188,2188,2188,2188,2188,2188,2188,2188,2188,2188,2188,2188,2188,2188,2188,2188,2188,2188,2188,2188,2188,2188,2188,2188,2188,2188,2188,2188,2188,2188,2188,2188,2188,2188,2188,2188,2188,2188,2188,2188,2188,2188,2188,2059,2062,2059,2060,2061,2059,2062,1994,2060,1998,2062,2059,1998,2062,2060,2059,2059,1994,
2061,2059,2061,2060,2061,2059,2059,2060,2060,1998,1994,1998,2061,2060,2061,2060,2062,1994,1998,2059,2061,1994,2061,2188,2188,2188,2188,2188,2188,2188,2188,2188,2188,2188,2188,2188,2188,2188,2188,2188,2188,2188,2188,2188,2188,2188,2188,2188,2188,2188,2188,2188,2188,2188,2188,2188,2188,2188,2188,2188,2188,2188,2188,2188,2188,2188,2188,2188,2188,2188,2188,2188,2188,2188,2188,2188,2188,2188,2188,2188,2188,2188,2061,1994,1994,2062,1994,2062,2060,2062,2059,1994,2059,2062,2060,1998,2061,1998,1998,2061,
2060,1998,2060,2062,2060,2062,1994,1994,1994,2061,2060,2062,2061,1998,2062,2060,2062,2059,2060,2062,2062,2059,1803,2188,2188,2188,2188,2188,2188,2188,2188,2188,2188,2188,2188,2188,2188,2188,2188,2188,2188,2188,2188,2188,2188,2188,2188,2188,2188,2188,2188,2188,2188,2188,2188,2188,2188,2188,2188,2188,2188,2188,2188,2188,2188,2188,2188,2188,2188,2188,2188,2188,2188,2188,2188,2188,2188,2188,2188,2188,2188,2188,1805,2059,1994,2060,1994,1998,1998,2060,2059,2060,2061,1994,1998,2062,1998,1994,1998,2060,
1998,2059,2059,2062,1994,2060,2062,1994,2059,2060,2062,1998,2060,2062,2061,1994,2062,1994,2059,2062,2060,1998,1867,2188,2188,2188,2188,2188,2188,2188,2188,2188,2188,2188,2188,2188,2188,2188,2188,2188,2188,2188,2188,2188,2188,2188,2188,2188,2188,2188,2188,2188,2188,2188,2188,2188,2188,2188,2188,2188,2188,2188,2188,2188,2188,2188,2188,2188,2188,2188,2188,2188,2188,2188,2188,2188,2188,2188,2188,2188,2188,2188,1869,2060,2060,2059,1998,2062,1994,2060,1998,2060,1994,2059,2062,2061,2059,1998,2062,2061,
2061,2060,2060,1994,2061,1998,1994,1998,2060,2060,1998,2062,2060,2059,2059,1998,1994,2060,2059,1998,2061,2059,2188,2188,2188,2188,2188,2188,2188,2188,2188,2188,2188,2188,2188,2188,2188,2188,2188,2188,2188,2188,2188,2188,2188,2188,2188,2188,2188,2188,2188,2188,2188,2188,2188,2188,2188,2188,2188,2188,2188,2188,2188,2188,2188,2188,2188,2188,2188,2188,2188,2188,2188,2188,2188,2188,2188,2188,2188,2188,2188,2188,2188,2062,2061,2061,1994,2062,2061,2062,2060,2061,1994,2062,2062,2062,2060,2062,2061,2062,
2059,2059,2062,1998,1994,1994,1994,2059,2062,2061,2060,2061,1994,2062,2062,1998,2062,2059,1998,1994,2062,2062,2188,2188,2188,2188,2188,2188,2188,2188,2188,2188,2188,2188,2188,2188,2188,2188,2188,2188,2188,2188,2188,2188,2188,2188,2188,2188,2188,2188,2188,2188,2188,2188,2188,2188,2188,2188,2188,2188,2188,2188,2188,2188,2188,2188,2188,2188,2188,2188,2188,2188,2188,2188,2188,2188,2188,2188,2188,2188,2188,2188,2188,1998,2062,2060,2060,2059,1994,2059,2060,2059,1994,1998,1994,2059,2060,1998,1994,2059,
2061,2059,2059,2060,2062,2060,2062,1994,2062,1994,2061,2060,2059,2059,2060,2059,2061,2062,1994,2059,2060,1803,2188,2188,2188,2188,2188,2188,2188,2188,2188,2188,2188,2188,2188,2188,2188,2188,2188,2188,2188,2188,2188,2188,2188,2188,2188,2188,2188,2188,2188,2188,2188,2188,2188,2188,2188,2188,2188,2188,2188,2188,2188,2188,2188,2188,2188,2188,2188,2188,2188,2188,2188,2188,2188,2188,2188,2188,2188,2188,2188,2188,2188,1934,2061,1998,1998,2059,1994,2061,2059,1994,2060,1998,2059,2061,2061,1994,2062,2062,
1998,2062,2059,2060,1994,2059,1994,2059,2060,2059,2059,2059,1994,2059,2059,1994,1998,2062,2061,1998,1998,1867,2188,2188,2188,2188,2188,2188,2188,2188,2188,2188,2188,2188,2188,2188,2188,2188,2188,2188,2188,2188,2188,2188,2188,2188,2188,2188,2188,2188,2188,2188,2188,2188,2188,2188,2188,2188,2188,2188,2188,2188,2188,2188,2188,2188,2188,2188,2188,2188,2188,2188,2188,2188,2188,2188,2188,2188,2188,2188,2188,2188,2188,2061,2061,2061,2061,2059,2060,1994,2061,2059,1998,1994,1998,2061,1998,2061,2060,2061,
1998,2060,2059,1994,2061,1998,1998,2061,2061,2059,1998,1998,2059,2059,1998,2060,2060,2061,2059,2060,2059,2188,2188,2188,2188,2188,2188,2188,2188,2188,2188,2188,2188,2188,2188,2188,2188,2188,2188,2188,2188,2188,2188,2188,2188,2188,2188,2188,2188,2188,2188,2188,2188,2188,2188,2188,2188,2188,2188,2188,2188,2188,2188,2188,2188,2188,2188,2188,2188,2188,2188,2188,2188,2188,2188,2188,2188,2188,2188,2188,2188,2188,2188,1994,1994,2059,2061,2061,1994,2059,2060,2059,2062,2062,2059,2061,2059,1994,2061,1994,
2060,2060,1994,2060,2062,2062,1994,2061,2062,1998,2061,1994,2059,2060,2062,1998,2062,1994,2060,1998,2062,2188,2188,2188,2188,2188,2188,2188,2188,2188,2188,2188,2188,2188,2188,2188,2188,2188,2188,2188,2188,2188,2188,2188,2188,2188,2188,2188,2188,2188,2188,2188,2188,2188,2188,2188,2188,2188,2188,2188,2188,2188,2188,2188,2188,2188,2188,2188,2188,2188,2188,2188,2188,2188,2188,2188,2188,2188,2188,2188,2188,2188,2188,2060,1998,2062,2061,2060,2061,2061,1994,1994,2062,2061,1998,2061,2061,2059,2060,1998,
1994,2061,2060,1994,2060,2061,2061,1998,1994,2061,1998,2060,1998,2060,1998,1998,1994,1994,1998,2060,2059,2188,2188,2188,2188,2188,2188,2188,2188,2188,2188,2188,2188,2188,2188,2188,2188,2188,2188,2188,2188,2188,2188,2188,2188,2188,2188,2188,2188,2188,2188,2188,2188,2188,2188,2188,2188,2188,2188,2188,2188,2188,2188,2188,2188,2188,2188,2188,2188,2188,2188,2188,2188,2188,2188,2188,2188,2188,2188,2188,2188,2188,2188,1998,2061,2059,2060,2061,2061,2061,2061,2061,2060,2060,1998,1994,1998,1998,1994,2060,
2059,1994,2061,2061,2062,1998,2059,2061,2059,2062,2061,1998,2059,2062,1994,2059,1994,2061,1994,2060,2059,2188,2188,2188,2188,2188,2188,2188,2188,2188,2188,2188,2188,2188,2188,2188,2188,2188,2188,2188,2188,2188,2188,2188,2188,2188,2188,2188,2188,2188,2188,2188,2188,2188,2188,2188,2188,2188,2188,2188,2188,2188,2188,2188,2188,2188,2188,2188,2188,2188,2188,2188,2188,2188,2188,2188,2188,2188,2188,2188,2188,2188,1997,1998,1998,1998,2060,1994,1998,1994,2061,2062,1994,2060,2061,2061,1994,1998,2062,2061,
1994,2062,2060,2062,1994,2059,2062,2061,1998,2060,2060,2062,2060,2061,2062,2059,1994,2061,2060,2061,1930,2188,2188,2188,2188,2188,2188,2188,2188,2188,2188,2188,2188,2188,2188,2188,2188,2188,2188,2188,2188,2188,2188,2188,2188,2188,2188,2188,2188,2188,2188,2188,2188,2188,2188,2188,2188,2188,2188,2188,2188,2188,2188,2188,2188,2188,2188,2188,2188,2188,2188,2188,2188,2188,2188,2188,2188,2188,2188,2188,2188,2188,1998,2061,2061,2059,1994,2062,1994,1994,2061,2060,2062,1994,2059,1994,1998,2062,2062,2059,
2059,2061,1998,2062,1998,2060,2061,2062,2060,2061,1998,2061,2059,2060,1994,2059,2061,2060,2059,2060,2061,2188,2188,2188,2188,2188,2188,2188,2188,2188,2188,2188,2188,2188,2188,2188,2188,2188,2188,2188,2188,2188,2188,2188,2188,2188,2188,2188,2188,2188,2188,2188,2188,2188,2188,2188,2188,2188,2188,2188,2188,2188,2188,2188,2188,2188,2188,2188,2188,2188,2188,2188,2188,2188,2188,2188,2188,2188,2188,2188,2188,2188,2060,2060,2059,2061,2059,1994,1998,2060,2061,2062,2059,2060,1994,2062,2061,2062,2062,2061,
2060,2059,2062,2059,2059,1998,2062,1998,2061,2060,2061,2061,2062,1998,2061,2060,2062,2059,2062,2062,2062,2188,2188,2188,2188,2188,2188,2188,2188,2188,2188,2188,2188,2188,2188,2188,2188,2188,2188,2188,2188,2188,2188,2188,2188,2188,2188,2188,2188,2188,2188,2188,2188,2188,2188,2188,2188,2188,2188,2188,2188,2188,2188,2188,2188,2188,2188,2188,2188,2188,2188,2188,2188,2188,2188,2188,2188,2188,2188,2188,2188,2188,2062,2060,2062,2059,2059,1994,2062,2060,2060,1998,1998,1998,2059,2060,2060,2061,2059,2060,
1998,1994,1998,2059,1994,2059,1998,2062,2061,2060,2060,1998,2060,1998,1998,2059,1994,2059,2060,1998,2059,2188,2188,2188,2188,2188,2188,2188,2188,2188,2188,2188,2188,2188,2188,2188,2188,2188,2188,2188,2188,2188,2188,2188,2188,2188,2188,2188,2188,2188,2188,2188,2188,2188,2188,2188,2188,2188,2188,2188,2188,2188,2188,2188,2188,2188,2188,2188,2188,2188,2188,2188,2188,2188,2188,2188,2188,2188,2188,2188,2188,2188,1934,1994,1994,1998,2062,1994,1998,1998,2062,2061,2060,1994,1994,1998,2059,2060,2059,2059,
2061,1994,2061,2061,2061,1994,1998,2060,2062,2062,2059,1994,1998,2060,1994,1998,1998,2060,1998,1994,1998,2188,2188,2188,2188,2188,2188,2188,2188,2188,2188,2188,2188,2188,2188,2188,2188,2188,2188,2188,2188,2188,2188,2188,2188,2188,2188,2188,2188,2188,2188,2188,2188,2188,2188,2188,2188,2188,2188,2188,2188,2188,2188,2188,2188,2188,2188,2188,2188,2188,2188,2188,2188,2188,2188,2188,2188,2188,2188,2188,2188,2188,2060,1998,2061,1998,2060,2062,2061,2059,1994,1998,2060,2060,2060,2062,2060,2061,2060,1994,
2060,2062,2062,2061,1994,1994,1994,2062,2060,2060,1994,2060,2059,2060,2060,2060,2061,2059,1994,1994,1994,2188,2188,2188,2188,2188,2188,2188,2188,2188,2188,2188,2188,2188,2188,2188,2188,2188,2188,2188,2188,2188,2188,2188,2188,2188,2188,2188,2188,2188,2188,2188,2188,2188,2188,2188,2188,2188,2188,2188,2188,2188,2188,2188,2188,2188,2188,2188,2188,2188,2188,2188,2188,2188,2188,2188,2188,2188,2188,2188,2188,2188,2059,1994,2061,1994,1994,2060,1994,2060,1998,1998,2060,1998,2059,1994,1998,2062,2060,2062,
2059,2060,2059,2059,2061,2061,1994,1994,2061,2060,1994,1998,1998,2059,1998,2060,2061,2062,2061,2060,1930,2188,2188,2188,2188,2188,2188,2188,2188,2188,2188,2188,2188,2188,2188,2188,2188,2188,2188,2188,2188,2188,2188,2188,2188,2188,2188,2188,2188,2188,2188,2188,2188,2188,2188,2188,2188,2188,2188,2188,2188,2188,2188,2188,2188,2188,2188,2188,2188,2188,2188,2188,2188,2188,2188,2188,2188,2188,2188,2188,2188,1997,1998,2060,2062,2059,2060,1998,2060,2062,2059,2062,1998,2059,2061,2059,2061,2062,2059,2060,
2062,2060,2060,1994,1994,2062,2060,2062,2061,1994,1994,2060,2059,1994,1994,2061,1994,2060,2061,2060,2061,2188,2188,2188,2188,2188,2188,2188,2188,2188,2188,2188,2188,2188,2188,2188,2188,2188,2188,2188,2188,2188,2188,2188,2188,2188,2188,2188,2188,2188,2188,2188,2188,2188,2188,2188,2188,2188,2188,2188,2188,2188,2188,2188,2188,2188,2188,2188,2188,2188,2188,2188,2188,2188,2188,2188,2188,2188,2188,2188,2188,2059,1994,2061,1998,2061,1998,2062,2061,2061,2060,1994,2059,2059,2059,2059,1994,2061,2059,2060,
2061,1994,1994,1994,1998,2061,2060,2059,2061,2060,1994,2059,2062,2059,2060,2062,2061,2059,2060,2062,2062,2188,2188,2188,2188,2188,2188,2188,2188,2188,2188,2188,2188,2188,2188,2188,2188,2188,2188,2188,2188,2188,2188,2188,2188,2188,2188,2188,2188,2188,2188,2188,2188,2188,2188,2188,2188,2188,2188,2188,2188,2188,2188,2188,2188,2188,2188,2188,2188,2188,2188,2188,2188,2188,2188,2188,2188,2188,2188,2188,2188,1994,2062,2059,2061,2062,1998,1998,2062,1994,2059,1998,2062,1994,2061,2061,1998,2061,1998,2060,
1994,2062,2059,1994,2061,2061,1998,2059,1998,1998,2059,2061,2060,2060,2062,2062,2061,2062,2060,2060,2062,1995,2188,2188,2188,2188,2188,2188,2188,2188,2188,2188,2188,2188,2188,2188,2188,2188,2188,2188,2188,2188,2188,2188,2188,2188,2188,2188,2188,2188,2188,2188,2188,2188,2188,2188,2188,2188,2188,2188,2188,2188,2188,2188,2188,2188,2188,2188,2188,2188,2188,2188,2188,2188,2188,2188,2188,2188,2188,2188,2188,2060,2061,1998,1998,1998,1994,2059,1998,1994,2060,1998,2060,2059,1994,2060,2062,2059,2060,2061,
2061,1998,1994,2061,2062,2060,2060,2059,1998,2061,2062,2062,2061,1998,2059,1998,2062,2062,2061,2062,2059,1998,2188,2188,2188,2188,2188,2188,2188,2188,2188,2188,2188,2188,2188,2188,2188,2188,2188,2188,2188,2188,2188,2188,2188,2188,2188,2188,2188,2188,2188,2188,2188,2188,2188,2188,2188,2188,2188,2188,2188,2188,2188,2188,2188,2188,2188,2188,2188,2188,2188,2188,2188,2188,2188,2188,2188,2188,2188,2188,1997,1998,2059,1998,2059,1994,1998,2059,1994,2062,2060,2062,2061,2061,2059,2060,2060,1998,2060,1998,
2059,2062,2061,1998,2059,1994,1998,2060,2062,2059,2061,1994,2062,1994,1994,2062,2060,2061,2062,1994,2062,2062,2188,2188,2188,2188,2188,2188,2188,2188,2188,2188,2188,2188,2188,2188,2188,2188,2188,2188,2188,2188,2188,2188,2188,2188,2188,2188,2188,2188,2188,2188,2188,2188,2188,2188,2188,2188,2188,2188,2188,2188,2188,2188,2188,2188,2188,2188,2188,2188,2188,2188,2188,2188,2188,2188,2188,2188,2188,2188,1934,1994,2061,2062,1994,2059,2060,2061,2060,2062,2061,2059,1994,2060,2059,2061,1998,1994,2059,1998,
1994,2059,2059,2060,2059,1994,2060,2061,1994,2059,2061,2060,1998,2060,2059,1994,2061,1994,2062,2061,2061,2060,1995,2188,2188,2188,2188,2188,2188,2188,2188,2188,2188,2188,2188,2188,2188,2188,2188,2188,2188,2188,2188,2188,2188,2188,2188,2188,2188,2188,2188,2188,2188,2188,2188,2188,2188,2188,2188,2188,2188,2188,2188,2188,2188,2188,2188,2188,2188,2188,2188,2188,2188,2188,2188,2188,2188,2188,2188,2188,1998,2059,2060,1994,1998,1994,1994,2060,2060,2062,1994,1998,2062,2061,2062,2059,1998,2059,2060,1998,
2060,1994,2059,2060,2062,2061,2062,2061,2060,2061,2060,1998,2061,2060,2059,2061,2062,2060,1994,2062,1998,1994,2060,2188,2188,2188,2188,2188,2188,2188,2188,2188,2188,2188,2188,2188,2188,2188,2188,2188,2188,2188,2188,2188,2188,2188,2188,2188,2188,2188,2188,2188,2188,2188,2188,2188,2188,2188,2188,2188,2188,2188,2188,2188,2188,2188,2188,2188,2188,2188,2188,2188,2188,2188,2188,2188,2188,2188,2188,1997,1998,2059,2062,1998,1994,2062,2059,2060,1998,2062,2061,2060,2062,2059,2062,2061,2061,1998,2061,1998,
2062,2059,2060,2060,1994,1998,1994,1994,1998,1998,1994,1998,1998,2061,2062,2059,2060,2061,2060,1998,1998,1994,2062,1995,2188,2188,2188,2188,2188,2188,2188,2188,2188,2188,2188,2188,2188,2188,2188,2188,2188,2188,2188,2188,2188,2188,2188,2188,2188,2188,2188,2188,2188,2188,2188,2188,2188,2188,2188,2188,2188,2188,2188,2188,2188,2188,2188,2188,2188,2188,2188,2188,2188,2188,2188,2188,2188,2188,2188,2062,1994,2062,1994,1998,2062,2061,2059,2060,2062,2061,2060,1998,2060,1998,1998,2060,2059,1994,1998,2061,
1994,2061,2060,2062,2059,2059,2059,2062,2061,1998,2062,2061,2059,2061,2062,2059,2062,2059,1994,1998,1998,2062,2060,2060,1995,2188,2188,2188,2188,2188,2188,2188,2188,2188,2188,2188,2188,2188,2188,2188,2188,2188,2188,2188,2188,2188,2188,2188,2188,2188,2188,2188,2188,2188,2188,2188,2188,2188,2188,2188,2188,2188,2188,2188,2188,2188,2188,2188,2188,2188,2188,2188,2188,2188,2188,2188,2188,2188,1997,1994,1998,1994,2061,2060,2062,1994,2060,2059,1994,1998,1998,2059,2061,1994,1994,2060,1994,1998,2060,2061,
2061,2060,2060,1994,2061,1998,2061,2062,2061,2061,1994,2059,2059,1994,2061,2061,1994,1994,1994,1998,1998,2060,2062,1994,2059,1995,2188,2188,2188,2188,2188,2188,2188,2188,2188,2188,2188,2188,2188,2188,2188,2188,2188,2188,2188,2188,2188,2188,2188,2188,2188,2188,2188,2188,2188,2188,2188,2188,2188,2188,2188,2188,2188,2188,2188,2188,2188,2188,2188,2188,2188,2188,2188,2188,2188,2188,2188,2188,2061,2061,2059,2059,2061,1998,2059,2059,2061,2062,1998,2059,2061,1998,2061,2062,1998,1998,1998,2060,1998,1998,
2059,1998,1994,2061,2061,2062,2062,2062,1994,2059,2062,2059,2061,2062,2062,2059,1998,2060,2059,2061,2061,1998,2059,2062,2062,2059,1995,2188,2188,2188,2188,2188,2188,2188,2188,2188,2188,2188,2188,2188,2188,2188,2188,2188,2188,2188,2188,2188,2188,2188,2188,2188,2188,2188,2188,2188,2188,2188,2188,2188,2188,2188,2188,2188,2188,2188,2188,2188,2188,2188,2188,2188,2188,2188,2188,2188,2188,1997,2061,2059,2061,1998,2059,2059,2062,1998,2059,2061,2061,2062,2062,1994,2061,2061,2062,2059,1998,2062,2062,1998,
2060,2060,1994,1998,2061,2062,2061,2062,2061,1994,1998,2059,1998,1994,2059,1998,2061,2060,2061,2062,2060,2059,2059,2060,2060,2062,2059,1995,2188,2188,2188,2188,2188,2188,2188,2188,2188,2188,2188,2188,2188,2188,2188,2188,2188,2188,2188,2188,2188,2188,2188,2188,2188,2188,2188,2188,2188,2188,2188,2188,2188,2188,2188,2188,2188,2188,2188,2188,2188,2188,2188,2188,2188,2188,2188,2188,1997,2059,2059,1994,2060,2060,2059,2059,1994,2059,2061,1994,2061,2062,2062,1994,2061,2060,1998,2061,2060,2062,2061,1998,
2061,2059,2062,1994,2060,2059,2060,1994,2062,2060,1998,2060,2060,1994,2059,2061,2059,2062,1994,2062,2061,1994,1998,1994,2061,2061,1998,2061,2061,1995,2188,2188,2188,2188,2188,2188,2188,2188,2188,2188,2188,2188,2188,2188,2188,2188,2188,2188,2188,2188,2188,2188,2188,2188,2188,2188,2188,2188,2188,2188,2188,2188,2188,2188,2188,2188,2188,2188,2188,2188,2188,2188,2188,2188,2188,1997,2060,1998,1998,2062,1994,1994,2061,1994,2059,2061,2062,2059,2062,2062,1994,1994,2060,2061,2061,1994,1998,1998,2062,2059,
1998,2060,2061,2060,2060,1998,2062,2060,1998,2062,2059,2061,2061,1998,2060,2062,2061,2061,1998,2062,2061,2059,2061,1994,2061,1998,2061,1998,2062,1994,1995,2188,2188,2188,2188,2188,2188,2188,2188,2188,2188,2188,2188,2188,2188,2188,2188,2188,2188,2188,2188,2188,2188,2188,2188,2188,2188,2188,2188,2188,2188,2188,2188,2188,2188,2188,2188,2188,2188,2188,2188,2188,2188,2188,1997,2062,1998,2059,1998,2059,2061,2060,2060,2060,2061,1994,2060,2059,2061,2062,1998,2062,1994,2059,1994,2060,1994,1994,2062,2062,
2059,2062,2060,2062,2059,2060,1998,2059,2059,1998,2060,2060,2061,2060,2061,1998,2062,2061,1994,2061,1998,1994,2059,2062,2062,2061,1994,2060,2060,1998,2061,2059,1995,2188,2188,2188,2188,2188,2188,2188,2188,2188,2188,2188,2188,2188,2188,2188,2188,2188,2188,2188,2188,2188,2188,2188,2188,2188,2188,2188,2188,2188,2188,2188,2188,2188,2188,2188,2188,2188,2188,2188,1997,2061,1994,2062,2062,1994,2062,2062,2060,1998,2062,2061,1998,2061,2061,1998,1994,2060,2062,1994,1994,2059,1998,2059,1998,2061,2062,2062,
2061,2061,1994,1998,1998,1998,1998,2061,1998,2061,2062,2062,1994,1998,2061,1994,2062,1994,1998,2059,2059,2059,1994,1994,2060,2060,1994,1994,2062,2060,2059,2059,1994,2059,1995,2188,2188,2188,2188,2188,2188,2188,2188,2188,2188,2188,2188,2188,2188,2188,2188,2188,2188,2188,2188,2188,2188,2188,2188,2188,2188,2188,2188,2188,2188,2188,2188,2188,2188,2188,2188,1997,2059,2061,2061,1994,2061,2059,2061,2060,2061,1994,2061,1994,2060,2061,1998,2062,2060,1998,2060,2059,2060,2060,2060,2059,2062,2060,2059,2061,
2062,2062,2062,2061,2062,2061,2062,1994,2061,1998,1998,2060,2062,2059,2062,1998,1994,1994,2061,2060,2059,2060,2062,2061,2060,2059,1994,2061,2061,1994,1998,2061,2061,2061,2060,1998,2062,1995,2188,2188,2188,2188,2188,2188,2188,2188,2188,2188,2188,2188,2188,2188,2188,2188,2188,2188,2188,2188,2188,2188,2188,2188,2188,2188,2188,2188,2188,1997,2062,1994,2061,1998,1994,1994,2059,2061,2062,2061,2060,2059,2060,1998,2061,2061,1998,1998,2062,2060,2061,2062,2061,2061,2062,2062,2061,1994,2059,1994,1994,2062,
2059,2059,2060,1994,2059,2061,1998,1994,1998,2062,1998,2061,2062,2062,2061,2060,2061,2060,2061,2061,2062,2060,2061,1994,1998,2059,1998,2059,1998,1998,2060,1994,1998,1994,1994,2059,2060,2062,2060,2060,2062,1994,2061,2061,1998,1994,1995,2188,2188,2188,2188,2188,2188,2188,2188,2188,2188,2188,1997,2060,2062,2062,2062,1994,1998,1998,2062,2061,1998,2059,1994,2059,2061,2061,1998,1994,2060,2059,1998,2061,1998,2062,1998,2060,1994,2060,2060,2059,2060,2059,1998,2061,2062,2059,2059,2062,2061,2060,2059,2060,
2060,2062,2059,1998,2061,1998,1998,2059,2062,1994,1998,2062,1994,2062,2061,2062,2059,2061,2060,1994,1998,2060,2062,2061,2061,2059,1998,1994,1998,2060,2059,1994,2061,2059,2061,2062,2059,2061,2062,1998,2062,1998,2059,2062,1994,1994,1994,2188,2188,2188,2188,2188,2188,2188,2188,2188,2188,2188,1998,2059,1998,1994,2060,2060,1994,1994,2061,2060,2061,2061,2062,2059,2062,2061,2059,1994,2061,1994,2060,2059,2062,1994,1998,1998,2059,2061,1994,2060,2061,2060,2062,1998,2059,2059,2059,2059,1994,2062,2060,1994,
1994,2062,2061,2060,1994,1994,1994,2061,2060,2060,1994,1994,2060,1994,2061,2061,1998,2059,2062,2062,2061,2061,2061,2060,2059,1998,1994,2062,2060,2061,2059,1998,1994,2062,2062,2062,2060,2059,1998,2062,2062,2060,2059,2059,1994,1994,2060,2188,2188,2188,2188,2188,2188,2188,2188,2188,2188,2188,1934,2059,2061,2060,2061,2062,2060,1994,2061,2061,2062,2059,2059,2060,2061,1994,2062,2061,2061,1994,2059,2062,2062,2062,1998,2060,2059,2061,2060,2060,2062,2059,2062,2060,2060,2059,2061,1998,1994,2059,2059,2059,
2060,2059,2059,2061,1998,2060,1994,2061,2060,2061,2059,2062,2061,1994,2060,2062,2059,1998,2059,2059,2060,2060,1998,1994,2062,2062,2062,2059,1998,1998,2059,2060,1998,2059,1998,2060,1998,1998,1994,2059,1998,2062,2061,2059,2062,1994,1803,2188,2188,2188,2188,2188,2188,2188,2188,2188,2188,2188,2060,2060,2061,2062,1994,1994,2059,2062,2060,2061,2060,2060,2059,1994,2059,2060,2059,2062,2059,2059,2062,2062,2061,2061,2061,1994,2061,1998,2060,2062,2061,2061,2061,2061,1998,2061,1998,2061,2062,2059,1998,1998,
1994,2060,2059,2061,2060,1994,2061,1998,1998,2059,1994,1994,2061,2062,2061,1994,2060,2062,2061,1998,2060,2062,2061,1994,1994,2062,2061,2062,2062,2061,1998,2061,2059,2061,2062,1994,2061,2061,1998,2059,2061,2062,2059,1998,1994,2060,1867,2188,2188,2188,2188,2188,2188,2188,2188,2188,2188,2188,1805,1994,1998,2061,1998,1994,2060,2059,2060,2059,2061,2060,2062,2059,2061,2061,2062,2060,2062,2059,2059,2062,2061,2061,2061,2059,2062,1994,1998,2061,2062,1994,1998,1998,2060,2059,1994,2059,2061,1994,2062,2061,
2061,2062,1998,2060,1994,1994,1994,1994,1994,2061,2061,2062,1994,1998,2062,2062,2060,2060,2062,1998,2061,2059,1998,1994,2061,2059,2059,1994,2060,1994,2061,1998,1994,2060,2060,1998,2062,2060,2062,2059,1994,1998,1998,2061,2060,1930,2188,2188,2188,2188,2188,2188,2188,2188,2188,2188,2188,2188,1869,2061,1994,2059,2061,2061,1994,1998,1994,2060,2062,2060,2060,1994,2060,1994,2059,2060,1998,2061,1994,1998,2060,1994,1998,2059,2060,2061,2060,2060,1994,2059,2059,1998,2059,2059,2059,2061,2061,1998,2059,2062,
2061,1998,1998,2061,1994,1998,1998,2062,2061,1994,2060,2061,2059,2061,2061,2060,2062,2061,1998,2061,2059,2060,2060,2059,2059,1998,2061,2061,2061,2061,2061,2062,2062,1994,2059,2061,2059,1998,1998,2059,2062,1994,2059,2062,2059,2059,2188,2188,2188,2188,2188,2188,2188,2188,2188,2188,2188,2188,2188,1805,2062,1994,1998,2061,2061,2059,1994,2061,2059,1998,2059,2061,2061,1994,1994,2060,1998,2059,2059,2061,2062,1998,2061,1994,2059,2059,2061,1998,2062,1803,1804,1804,1805,1998,2059,2062,2060,1998,2059,1998,
1994,2061,2060,2062,1998,2061,1803,1804,1804,1805,2060,1998,1994,2061,2062,1998,2061,2060,1998,1994,2059,2060,1998,2059,2060,1994,2061,2060,2061,2059,2062,2062,2060,1994,2061,2062,1994,2060,2060,1998,2061,1998,2061,2061,2061,1803,2188,2188,2188,2188,2188,2188,2188,2188,2188,2188,2188,2188,2188,1869,1805,2062,2060,2059,2062,2062,2060,2061,2062,1998,1998,1994,1998,2060,2062,1998,2061,2059,2061,2059,2062,2059,2062,2062,2061,1998,1803,1804,1804,1867,2188,2188,1869,1804,1804,1805,2060,2060,1998,2061,
2061,1994,1998,2059,2059,1803,1867,2188,2188,1869,1804,1805,2062,1998,1994,1998,1998,2062,2060,2061,1994,2059,1994,2060,2062,2062,1994,2061,1994,2060,1994,1998,1998,2061,1998,2061,2061,2059,1994,2062,1998,2059,1998,2061,1803,1867,2188,2188,2188,2188,2188,2188,2188,2188,2188,2188,2188,2188,2188,2188,1869,1805,2060,1994,2060,2061,2059,1994,2062,1998,2059,1994,2062,2060,1994,2061,2059,2059,2061,1994,2060,1998,1998,2059,1803,1804,1867,2188,2188,2188,2188,2188,2188,2188,2188,1869,1994,1998,1994,2059,
2061,1998,2062,2061,1803,1867,2188,2188,2188,2188,2188,1869,1805,1994,2059,2062,1994,2060,2059,1998,2062,2062,2061,1998,2061,1994,1998,2062,2060,1998,2061,1994,2061,2059,2061,1998,2060,2061,2060,1998,1998,1994,2062,2059,1867,2188,2188,2188,2188,2188,2188,2188,2188,2188,2188,2188,2188,2188,2188,2188,2188,1869,1805,2062,2059,1994,2062,2060,2062,1998,1994,2062,2062,2062,1998,1998,1994,1998,1998,2059,2060,2059,2061,1803,1867,2188,2188,2188,2188,2188,2188,2188,2188,2188,2188,2188,1805,2061,1994,2061,
2059,2059,2060,1803,1867,2188,2188,2188,2188,2188,2188,2188,1869,1805,1994,2061,2059,1994,1994,2061,2059,2060,1994,2061,2061,2060,2059,1994,2062,1994,1994,2060,1998,2060,2060,2062,2059,2060,1994,2062,1998,1998,2061,1803,2188,2188,2188,2188,2188,2188,2188,2188,2188,2188,2188,2188,2188,2188,2188,2188,2188,2188,1869,1805,1994,1998,2060,2061,1994,2059,1994,1998,2061,2062,2062,2062,2061,2061,2062,2062,1994,2060,1803,1867,2188,2188,2188,2188,2188,2188,2188,2188,2188,2188,2188,2188,1869,1805,2060,2062,
2059,2062,1998,1867,2188,2188,2188,2188,2188,2188,2188,2188,2188,1869,1804,1804,1804,1804,1804,1804,1804,1804,1804,1804,1804,1804,1804,1804,1804,1804,1804,1804,1804,1804,1804,1804,1804,1804,1804,1804,1804,1804,1804,1867,2188,2188,2188,2188,2188,2188,2188,2188,2188,2188,2188,2188,2188,2188,2188,2188,2188,2188,2188,1869,1805,2059,2061,1994,1994,2061,2060,1994,1994,2060,2059,2062,1998,1994,2060,2060,1994,1803,1867,2188,2188,2188,2188,2188,2188,2188,2188,2188,2188,2188,2188,2188,2188,1869,2061,1998,
1994,2059,1930,2188,2188,2188,2188,2188,2188,2188,2188,2188,2188,2188,2188,2188,2188,2188,2188,2188,2188,2188,2188,2188,2188,2188,2188,2188,2188,2188,2188,2188,2188,2188,2188,2188,2188,2188,2188,2188,2188,2188,2188,2188,2188,2188,2188,2188,2188,2188,2188,2188,2188,2188,2188,2188,2188,2188,2188,2188,2188,2188,2188,2188,1869,1804,1804,1804,1804,1804,1804,1804,1804,1804,1804,1804,1804,1804,1804,1804,1804,1867,2188,2188,2188,2188,2188,2188,2188,2188,2188,2188,2188,2188,2188,2188,2188,2188,1934,1994,
1998,1998,1994,2188,2188,2188,2188,2188,2188,2188,2188,2188,2188,2188,2188,2188,2188,2188,2188,2188,2188,2188,2188,2188,2188,2188,2188,2188,2188,2188,2188,2188,2188,2188,2188,2188,2188,2188,2188,2188,2188,2188,2188,2188,2188,2188,2188,2188,2188,2188,2188,2188,2188,2188,2188,2188,2188,2188,2188,2188,2188,2188,2188,2188,2188,2188,2188,2188,2188,2188,2188,2188,2188,2188,2188,2188,2188,2188,2188,2188,2188,2188,2188,2188,2188,2188,2188,2188,2188,2188,2188,2188,2188,2188,2188,2188,2188,2188,1994,2059,
1998,1994,1803,2188,2188,2188,2188,2188,2188,2188,2188,2188,2188,2188,2188,2188,2188,2188,2188,2188,2188,2188,2188,2188,2188,2188,2188,2188,2188,2188,2188,2188,2188,2188,2188,2188,2188,2188,2188,2188,2188,2188,2188,2188,2188,2188,2188,2188,2188,2188,2188,2188,2188,2188,2188,2188,2188,2188,2188,2188,2188,2188,2188,2188,2188,2188,2188,2188,2188,2188,2188,2188,2188,2188,2188,2188,2188,2188,2188,2188,2188,2188,2188,2188,2188,2188,2188,2188,2188,2188,2188,2188,2188,2188,2188,2188,2188,2188,2059,1998,
2061,1994,1867,2188,2188,2188,2188,2188,2188,2188,2188,2188,2188,2188,2188,2188,2188,2188,2188,2188,2188,2188,2188,2188,2188,2188,2188,2188,2188,2188,2188,2188,2188,2188,2188,2188,2188,2188,2188,2188,2188,2188,2188,2188,2188,2188,2188,2188,2188,2188,2188,2188,2188,2188,2188,2188,2188,2188,2188,2188,2188,2188,2188,2188,2188,2188,2188,2188,2188,2188,2188,2188,2188,2188,2188,2188,2188,2188,2188,2188,2188,2188,2188,2188,2188,2188,2188,2188,2188,2188,2188,2188,2188,2188,2188,2188,2188,1997,2062,2059,
1994,1930,2188,2188,2188,2188,2188,2188,2188,2188,2188,2188,2188,2188,2188,2188,2188,2188,2188,2188,2188,2188,2188,2188,2188,2188,2188,2188,2188,2188,2188,2188,2188,2188,2188,2188,2188,2188,2188,2188,2188,2188,2188,2188,2188,2188,2188,2188,2188,2188,2188,2188,2188,2188,2188,2188,2188,2188,2188,2188,2188,2188,2188,2188,2188,2188,2188,2188,2188,2188,2188,2188,2188,2188,2188,2188,2188,2188,2188,2188,2188,2188,2188,2188,2188,2188,2188,2188,2188,2188,2188,2188,2188,2188,2188,2188,1997,2062,2059,1998,
2059,2059,2188,2188,2188,2188,2188,2188,2188,2188,2188,2188,2188,2188,2188,2188,2188,2188,2188,2188,2188,2188,2188,2188,2188,2188,2188,2188,2188,2188,2188,2188,2188,2188,2188,2188,2188,2188,2188,2188,2188,2188,2188,2188,2188,2188,2188,2188,2188,2188,2188,2188,2188,2188,2188,2188,2188,2188,2188,2188,2188,2188,2188,2188,2188,2188,2188,2188,2188,2188,2188,2188,2188,2188,2188,2188,2188,2188,2188,2188,2188,2188,2188,2188,2188,2188,2188,2188,2188,2188,2188,2188,2188,2188,2188,2188,1998,2062,2060,1994,
2062,1994,2188,2188,2188,2188,2188,2188,2188,2188,2188,2188,2188,2188,2188,2188,2188,2188,2188,2188,2188,2188,2188,2188,2188,2188,2188,2188,2188,2188,2188,2188,2188,2188,2188,2188,2188,2188,2188,2188,2188,2188,2188,2188,2188,2188,2188,2188,2188,2188,2188,2188,2188,2188,2188,2188,2188,2188,2188,2188,2188,2188,2188,2188,2188,2188,2188,2188,2188,2188,2188,2188,2188,2188,2188,2188,2188,2188,2188,2188,2188,2188,2188,2188,2188,2188,2188,2188,2188,2188,2188,2188,2188,2188,2188,1997,1998,2060,2059,2062,
2060,2060,2188,2188,2188,2188,2188,2188,2188,2188,2188,2188,2188,2188,2188,2188,1997,2060,1994,2062,1998,1998,1994,2061,1994,1994,2060,2062,2062,2059,1998,2059,2060,2059,2059,1994,2059,2059,2061,2061,1998,2062,2061,2059,2061,2059,2059,2061,1998,2060,2061,2059,2062,1998,2062,2060,2061,2061,1998,2060,2060,2059,2061,1998,1998,2059,1998,1998,2061,2061,2060,2061,2060,2062,2060,2061,1998,2061,2059,1994,2059,1998,1995,2188,2188,2188,2188,2188,2188,2188,2188,2188,2188,2188,1997,2059,1998,1994,1998,2062,
2062,2062,1995,2188,2188,2188,2188,2188,2188,2188,2188,2188,2188,1997,2062,2059,2059,2060,1998,2059,1994,2062,2062,2062,1994,1998,1998,2061,1998,1994,2059,2062,2059,2061,2061,1998,1998,2062,2059,2061,1994,2060,1998,2062,2062,2062,2060,2062,2062,2060,2059,1998,1994,1998,2060,1998,2061,2059,1998,2062,1994,1998,2059,1994,2061,1994,2060,2062,2062,2061,2059,1994,1994,2060,2059,2060,1998,2061,1998,2061,2059,1994,1994,1995,2188,2188,2188,2188,2188,2188,2188,2188,2188,1997,2061,2060,2061,2059,2059,1998,
2062,1994,2059,2059,1998,2062,2060,1998,2061,2059,1994,2062,2062,2059,1998,2060,2060,2061,2060,2061,1998,2061,2062,1998,2062,2061,1994,2062,2061,2060,2062,1994,2062,2062,1998,2061,2059,2061,2060,2060,2062,1994,2062,2061,1994,2060,1998,2059,2060,1994,2062,2059,2061,1994,2060,2059,2061,2060,2059,2061,2061,1994,1994,2060,2062,1998,2061,1994,2061,2059,2060,1994,2061,2061,2059,2061,2062,2060,1994,1994,2060,2062,2059,1998,1998,2061,1995,2188,2188,2188,2188,2188,1997,1998,2059,2062,1994,2059,2061,2061,
1998,2060,2062,2061,2060,1994,2062,2059,2060,1998,2061,2061,2060,1994,2059,2062,2059,1998,2061,2060,2059,2061,2062,1998,2062,2060,1998,2059,1994,2061,2059,2061,1998,2062,1998,2062,2059,1994,2059,1998,1998,1994,2061,2061,2061,2059,2061,2059,2061,2062,2059,2062,1998,2062,2059,2060,1998,1998,2060,1998,1994,2060,1994,1998,2060,1998,2062,1994,1994,2060,2061,1994,1994,1994,2061,2061,1994,2061,2062,2059,2060,2060,2061,2062,2062,2059,2060,2060,2059,1998,2059,2060,2061,1994,2059,2060,2062,2059,2062,1994,
2059,2062,2059,1998,2061,1994,2059,2060,2059,2060,1994,2060,2059,2060,1994,2061,2061,1994,2062,2062,1994,2059,2059,2062,1998,2059,2061,1998,2062,2060,1994,1998,1998,2059,2062,1998,1994,1994,2060,1998,1998,2061,2060,2062,1998,2061,1998,2062,2062,2061,2059,2062,1994,2060,1998,2059,2062,2061,1994,2059,1994,2061,2062,1998,1994,1998,2061,1994,2060,1998,1994,2061,1994,2059,2061,1994,2059,2062,1994,1998,2061,2061,2061,1994,2061,1994,1998,2059,1998,1998,2061,2059,2061,2061,1994,2060,2061,1998,2062,2061
</data>
 </layer>
 <layer id="6" name="ground_details" width="100" height="100">
  <data encoding="csv">
0,0,0,0,0,0,0,0,0,0,0,0,0,0,0,0,0,0,0,0,0,0,0,0,0,0,0,0,0,0,0,0,0,0,0,0,0,0,0,0,0,0,0,0,0,0,0,0,0,0,0,0,0,0,0,0,0,0,0,0,0,0,0,0,0,0,0,0,0,0,0,0,0,0,0,0,0,0,0,0,0,0,0,0,0,0,0,0,0,0,0,0,0,0,0,0,0,0,0,0,
0,0,0,0,0,0,0,0,0,0,0,0,0,0,0,0,0,0,0,0,0,0,0,0,0,0,0,0,0,0,0,0,0,0,0,0,0,0,0,0,0,0,0,0,0,0,0,0,0,0,0,0,0,0,0,0,0,0,0,0,0,0,0,0,0,0,0,0,0,0,0,0,0,0,0,0,0,0,0,0,0,0,0,0,0,0,0,0,0,0,0,0,0,0,0,0,0,0,0,0,
0,0,0,0,0,0,0,0,0,0,0,0,0,0,0,0,0,0,0,0,0,0,0,0,0,0,0,0,0,0,0,0,0,0,0,0,0,0,0,0,0,0,0,0,0,0,0,0,0,0,0,0,0,0,0,0,0,0,0,0,0,0,0,0,0,0,0,0,0,0,0,0,0,0,0,0,0,0,0,0,0,0,0,0,0,0,0,0,0,0,0,0,0,0,0,0,0,0,0,0,
0,0,0,0,0,0,0,0,0,0,0,0,0,0,0,0,0,0,0,0,0,0,0,0,0,0,0,0,0,0,0,0,0,0,0,0,0,0,0,0,0,0,0,0,0,0,0,0,0,0,0,0,0,0,0,0,0,0,0,0,0,0,0,0,0,0,0,0,0,0,0,0,0,0,0,0,0,0,0,0,0,0,0,0,0,0,0,0,0,0,0,0,0,0,0,0,0,0,0,0,
0,0,0,0,0,0,0,0,0,0,0,0,0,0,0,0,0,0,0,0,0,0,0,0,0,0,0,0,0,0,0,0,0,0,0,0,0,0,0,0,0,0,0,0,0,0,0,0,0,0,0,0,0,0,0,0,0,0,0,0,0,0,0,0,0,0,0,0,0,0,0,0,0,0,0,0,0,0,0,0,0,0,0,0,0,0,0,0,0,0,0,0,0,0,0,0,0,0,0,0,
0,0,0,0,0,0,0,0,0,0,0,0,0,0,0,0,0,0,0,0,0,0,0,0,0,0,0,0,0,0,0,0,0,0,0,0,0,0,0,0,0,0,0,0,0,0,0,0,0,0,0,0,0,0,0,0,0,0,0,0,0,0,0,0,0,0,0,0,0,0,0,0,0,0,0,0,0,0,0,0,0,0,0,0,0,0,0,0,0,0,0,0,0,0,0,0,0,0,0,0,
0,0,0,0,0,0,0,0,0,0,0,0,0,0,0,0,0,0,0,0,0,0,0,0,0,0,0,0,0,0,0,0,0,0,0,0,0,0,0,0,0,0,0,0,0,0,0,0,0,0,0,0,0,0,0,0,0,0,0,0,0,0,0,0,0,0,0,0,0,0,0,0,0,0,0,0,0,0,0,0,0,0,0,0,0,0,0,0,0,0,0,0,0,0,0,0,0,0,0,0,
0,0,0,0,0,0,0,0,0,0,0,0,0,0,0,0,0,0,0,0,0,0,0,0,0,0,0,0,0,0,0,0,0,0,0,0,0,0,0,0,0,0,0,0,0,0,0,0,0,0,0,0,0,0,0,0,0,0,0,0,0,0,0,0,0,0,0,0,0,0,0,0,0,0,0,0,0,0,0,0,0,0,0,0,0,0,0,0,0,0,0,0,0,0,0,0,0,0,0,0,
0,0,0,0,0,0,0,0,0,0,0,0,0,0,0,0,0,0,0,0,0,0,0,0,0,0,0,0,0,0,0,0,0,0,0,0,0,0,0,0,0,0,0,0,0,0,0,0,0,0,0,0,0,0,0,0,0,0,0,0,0,0,0,0,0,0,0,0,0,0,0,0,0,0,0,0,0,0,0,0,0,0,0,0,0,0,0,0,0,0,0,0,0,0,0,0,0,0,0,0,
0,0,0,0,0,0,0,0,0,0,0,0,0,0,0,0,0,0,0,0,0,0,0,0,0,0,0,0,0,0,0,0,0,0,0,0,0,0,0,0,0,0,0,0,0,0,0,0,0,0,0,0,0,0,0,0,0,0,0,0,0,0,0,0,0,0,0,0,0,0,0,0,0,0,0,0,0,0,0,0,0,0,0,0,0,0,0,0,0,0,0,0,0,0,0,0,0,0,0,0,
0,0,0,0,0,0,0,0,0,0,0,0,0,0,0,0,0,0,0,0,0,0,0,0,0,0,0,0,0,0,0,0,0,0,0,0,0,0,0,0,0,0,0,0,0,0,0,0,0,0,0,0,0,0,0,0,0,0,0,0,0,0,0,0,0,0,0,0,0,0,0,0,0,0,0,0,0,0,0,0,0,0,0,0,0,0,0,0,0,0,0,0,0,0,0,0,0,0,0,0,
0,0,0,0,0,0,0,0,0,0,0,0,0,0,0,0,0,0,0,0,0,0,0,0,0,0,0,0,0,0,0,0,0,0,0,0,0,0,0,0,0,0,0,0,0,0,0,0,0,0,0,0,0,0,0,0,0,0,0,0,0,0,0,0,0,0,0,0,0,0,0,0,0,0,0,0,0,0,0,0,0,0,0,0,0,0,0,0,0,0,0,0,0,0,0,0,0,0,0,0,
0,0,0,0,0,0,0,0,0,0,0,0,0,0,0,0,0,0,0,0,0,0,0,0,0,0,0,0,0,0,0,0,0,0,0,0,0,0,0,0,0,0,0,0,0,0,0,0,0,0,0,0,0,0,0,0,0,0,0,0,0,0,0,0,0,0,0,0,0,0,0,0,0,0,0,0,0,0,0,0,0,0,0,0,0,0,0,0,0,0,0,0,0,0,0,0,0,0,0,0,
0,0,0,0,0,0,0,0,0,0,0,0,0,0,0,0,0,0,0,0,0,0,0,0,0,0,0,0,0,0,0,0,0,0,0,0,0,0,0,0,0,0,0,0,0,0,0,0,0,0,0,0,0,0,0,0,0,0,0,0,0,0,0,0,0,0,0,0,0,0,0,0,0,0,0,0,0,0,0,0,0,0,0,0,0,0,0,0,0,0,0,0,0,0,0,0,0,0,0,0,
0,0,0,0,0,0,0,0,0,0,0,0,0,0,0,0,0,0,0,0,0,0,0,0,0,0,0,0,0,0,0,0,0,0,0,0,0,0,0,0,0,0,0,0,0,0,0,0,0,0,0,0,0,0,0,0,0,0,0,0,0,0,0,0,0,0,0,0,0,0,0,0,0,0,0,0,0,0,0,0,0,0,0,0,0,0,0,0,0,0,0,0,0,0,0,0,0,0,0,0,
0,0,0,0,0,0,0,0,0,0,0,0,0,0,0,0,0,0,0,0,0,0,0,0,0,0,0,0,0,0,0,0,0,0,0,0,0,0,0,0,0,0,0,0,0,0,0,0,0,0,0,0,0,0,0,0,0,0,0,0,0,0,0,0,0,0,0,0,0,0,0,0,0,0,0,0,0,0,0,0,0,0,0,0,0,0,0,0,0,0,0,0,0,0,0,0,0,0,0,0,
0,0,0,0,0,0,0,0,0,0,0,0,0,0,0,0,0,0,0,0,0,0,0,0,0,0,0,0,0,0,0,0,0,0,0,0,0,0,0,0,0,0,0,0,0,0,0,0,0,0,0,0,0,0,0,0,0,0,0,0,0,0,0,0,0,0,0,0,0,0,0,0,0,0,0,0,0,0,0,0,0,0,0,0,0,0,0,0,0,0,0,0,0,0,0,0,0,0,0,0,
0,0,0,0,0,0,0,0,0,0,0,0,0,0,0,0,0,0,0,0,0,0,0,0,0,0,0,0,0,0,0,0,0,0,0,0,0,0,0,0,0,0,0,0,0,0,0,0,0,0,0,0,0,0,0,0,0,0,0,0,0,0,0,0,0,0,0,0,0,0,0,0,0,0,0,0,0,0,0,0,0,0,0,0,0,0,0,0,0,0,0,0,0,0,0,0,0,0,0,0,
0,0,0,0,0,0,0,0,0,0,0,0,0,0,0,0,0,0,0,0,0,0,0,0,0,0,0,0,0,0,0,0,0,0,0,0,0,0,0,0,0,0,0,0,0,0,0,0,0,0,0,0,0,0,0,0,0,0,0,0,0,0,0,0,0,0,0,0,0,0,0,0,0,0,0,0,0,0,0,0,0,0,0,0,0,0,0,0,0,0,0,0,0,0,0,0,0,0,0,0,
0,0,0,0,0,0,0,0,0,0,0,0,0,0,0,0,0,0,0,0,0,0,0,0,0,0,0,0,0,0,0,0,0,0,0,0,0,0,0,0,0,0,0,0,0,0,0,0,0,0,0,0,0,0,0,0,0,0,0,0,0,0,0,0,0,0,0,0,0,0,0,0,0,0,0,0,0,0,0,0,0,0,0,0,0,0,0,0,0,0,0,0,0,0,0,0,0,0,0,0,
0,0,0,0,0,0,0,0,0,0,0,0,0,0,0,0,0,0,0,0,0,0,0,0,0,0,0,0,0,0,0,0,0,0,0,0,0,0,0,0,0,0,0,0,0,0,0,0,0,0,0,0,0,0,0,0,0,0,0,0,0,0,0,0,0,0,0,0,0,0,0,0,0,0,0,0,0,0,0,0,0,0,0,0,0,0,0,0,0,0,0,0,0,0,0,0,0,0,0,0,
0,0,0,0,0,0,0,0,0,0,0,0,0,0,0,0,0,0,0,0,0,0,0,0,0,0,0,0,0,0,0,0,0,0,0,0,0,0,0,0,0,0,0,0,0,0,0,0,0,0,0,0,0,0,0,0,0,0,0,0,0,0,0,0,0,0,0,0,0,0,0,0,0,0,0,0,0,0,0,0,0,0,0,0,0,0,0,0,0,0,0,0,0,0,0,0,0,0,0,0,
0,0,0,0,0,0,0,0,0,0,0,0,0,0,0,0,0,0,0,0,0,0,0,0,0,0,0,0,0,0,0,0,0,0,0,0,0,0,0,0,0,0,0,0,0,0,0,0,0,0,0,0,0,0,0,0,0,0,0,0,0,0,0,0,0,0,0,0,0,0,0,0,0,0,0,0,0,0,0,0,0,0,0,0,0,0,0,0,0,0,0,0,0,0,0,0,0,0,0,0,
0,0,0,0,0,0,0,0,0,0,0,0,0,0,0,0,0,0,0,0,0,0,0,0,0,0,0,0,0,0,0,0,0,0,0,0,0,0,0,0,0,0,0,0,0,0,0,0,0,0,0,0,0,0,0,0,0,0,0,0,0,0,0,0,0,0,0,0,0,0,0,0,0,0,0,0,0,0,0,0,0,0,0,0,0,0,0,0,0,0,0,0,0,0,0,0,0,0,0,0,
0,0,0,0,0,0,0,0,0,0,0,0,0,0,0,0,0,0,0,0,0,0,0,0,0,0,0,0,0,0,0,0,0,0,0,0,0,0,0,0,0,0,0,0,0,0,0,0,0,0,0,0,0,0,0,0,0,0,0,0,0,0,0,0,0,0,0,0,0,0,0,0,0,0,0,0,0,0,0,0,0,0,0,0,0,0,0,0,0,0,0,0,0,0,0,0,0,0,0,0,
0,0,0,0,0,0,0,0,0,0,0,0,0,0,0,0,0,0,0,0,0,0,0,0,0,0,0,0,0,0,0,0,0,0,0,0,0,0,0,0,0,0,0,0,0,0,0,0,0,0,0,0,0,0,0,0,0,0,0,0,0,0,0,0,0,0,0,0,0,0,0,0,0,0,0,0,0,0,0,0,0,0,0,0,0,0,0,0,0,0,0,0,0,0,0,0,0,0,0,0,
0,0,0,0,0,0,0,0,0,0,0,0,0,0,0,0,0,0,0,0,0,0,0,0,0,0,0,0,0,0,0,0,0,0,0,0,0,0,0,0,0,0,0,0,0,0,0,0,0,0,0,0,0,0,0,0,0,0,0,0,0,0,0,0,0,0,0,0,0,0,0,0,0,0,0,0,0,0,0,0,0,0,0,0,0,0,0,0,0,0,0,0,0,0,0,0,0,0,0,0,
0,0,0,0,0,0,0,0,0,0,0,0,0,0,0,0,0,0,0,0,0,0,0,0,0,0,0,0,0,0,0,0,0,0,0,0,0,0,0,0,0,0,0,0,0,0,0,0,0,0,0,0,0,0,0,0,0,0,0,0,0,0,0,0,0,0,0,0,0,0,0,0,0,0,0,0,0,0,0,0,0,0,0,0,0,0,0,0,0,0,0,0,0,0,0,0,0,0,0,0,
0,0,0,0,0,0,0,0,0,0,0,0,0,0,0,0,0,0,0,0,0,0,0,0,0,0,0,0,0,0,0,0,0,0,0,0,0,0,0,0,0,0,0,0,0,0,0,0,0,0,0,0,0,0,0,0,0,0,0,0,0,0,0,0,0,0,0,0,0,0,0,0,0,0,0,0,0,0,0,0,0,0,0,0,0,0,0,0,0,0,0,0,0,0,0,0,0,0,0,0,
0,0,0,0,0,0,0,0,0,0,0,0,0,0,0,0,0,0,0,0,0,0,0,0,0,0,0,0,0,0,0,0,0,0,0,0,0,0,0,0,0,0,0,0,0,0,0,0,0,0,0,0,0,0,0,0,0,0,0,0,0,0,0,0,0,0,0,0,0,0,0,0,0,0,0,0,0,0,0,0,0,0,0,0,0,0,0,0,0,0,0,0,0,0,0,0,0,0,0,0,
0,0,0,0,0,0,0,0,0,0,0,0,0,0,0,0,0,0,0,0,0,0,0,0,0,0,0,0,0,0,0,0,0,0,0,0,0,0,0,0,0,0,0,0,0,0,0,0,0,0,0,0,0,0,0,0,0,0,0,0,0,0,0,0,0,0,0,0,0,0,0,0,0,0,0,0,0,0,0,0,0,0,0,0,0,0,0,0,0,0,0,0,0,0,0,0,0,0,0,0,
0,0,0,0,0,0,0,0,0,0,0,0,0,0,0,0,0,0,0,0,0,0,0,0,0,0,0,0,0,0,0,0,0,0,0,0,0,0,0,0,0,0,0,0,0,0,0,0,0,0,0,0,0,0,0,0,0,0,0,0,0,0,0,0,0,0,0,0,0,0,0,0,0,0,0,0,0,0,0,0,0,0,0,0,0,0,0,0,0,0,0,0,0,0,0,0,0,0,0,0,
0,0,0,0,0,0,0,0,0,0,0,0,0,0,0,0,0,0,0,0,0,0,0,0,0,0,0,0,0,0,0,0,0,0,0,0,0,0,0,0,0,0,0,0,0,0,0,0,0,0,0,0,0,0,0,0,0,0,0,0,0,0,0,0,0,0,0,0,0,0,0,0,0,0,0,0,0,0,0,0,0,0,0,0,0,0,0,0,0,0,0,0,0,0,0,0,0,0,0,0,
0,0,0,0,0,0,0,0,0,0,0,0,0,0,0,0,0,0,0,0,0,0,0,0,0,0,0,0,0,0,0,0,0,0,0,0,0,0,0,0,0,0,0,0,0,0,0,0,0,0,0,0,0,0,0,0,0,0,0,0,0,0,0,0,0,0,0,0,0,0,0,0,0,0,0,0,0,0,0,0,0,0,0,0,0,0,0,0,0,0,0,0,0,0,0,0,0,0,0,0,
0,0,0,0,0,0,0,0,0,0,0,0,0,0,0,0,0,0,0,0,0,0,0,0,0,0,0,0,0,0,0,0,0,0,0,0,0,0,0,0,0,0,0,0,0,0,0,0,0,0,0,0,0,0,0,0,0,0,0,0,0,0,0,0,0,0,0,0,0,0,0,0,0,0,0,0,0,0,0,0,0,0,0,0,0,0,0,0,0,0,0,0,0,0,0,0,0,0,0,0,
0,0,0,0,0,0,0,0,0,0,0,0,0,0,0,0,0,0,0,0,0,0,0,0,0,0,0,0,0,0,0,0,0,0,0,0,0,0,0,0,0,0,0,0,0,0,0,0,0,0,0,0,0,0,0,0,0,0,0,0,0,0,0,0,0,0,0,0,0,0,0,0,0,0,0,0,0,0,0,0,0,0,0,0,0,0,0,0,0,0,0,0,0,0,0,0,0,0,0,0,
0,0,0,0,0,0,0,0,0,0,0,0,0,0,0,0,0,0,0,0,0,0,0,0,0,0,0,0,0,0,0,0,0,0,0,0,0,0,0,0,0,0,0,0,0,0,0,0,0,0,0,0,0,0,0,0,0,0,0,0,0,0,0,0,0,0,0,0,0,0,0,0,0,0,0,0,0,0,0,0,0,0,0,0,0,0,0,0,0,0,0,0,0,0,0,0,0,0,0,0,
0,0,0,0,0,0,0,0,0,0,0,0,0,0,0,0,0,0,0,0,0,0,0,0,0,0,0,0,0,0,0,0,0,0,0,0,0,0,0,0,0,0,0,0,0,0,0,0,0,0,0,0,0,0,0,0,0,0,0,0,0,0,0,0,0,0,0,0,0,0,0,0,0,0,0,0,0,0,0,0,0,0,0,0,0,0,0,0,0,0,0,0,0,0,0,0,0,0,0,0,
0,0,0,0,0,0,0,0,0,0,0,0,0,0,0,0,0,0,0,0,0,0,0,0,0,0,0,0,0,0,0,0,0,0,0,0,0,0,0,0,0,0,0,0,0,0,0,0,0,0,0,0,0,0,0,0,0,0,0,0,0,0,0,0,0,0,0,0,0,0,0,0,0,0,0,0,0,0,0,0,0,0,0,0,0,0,0,0,0,0,0,0,0,0,0,0,0,0,0,0,
0,0,0,0,0,0,0,0,0,0,0,0,0,0,0,0,0,0,0,0,0,0,0,0,0,0,0,0,0,0,0,0,0,0,0,0,0,0,0,0,0,0,0,0,0,0,0,0,0,0,0,0,0,0,0,0,0,0,0,0,0,0,0,0,0,0,0,0,0,0,0,0,0,0,0,0,0,0,0,0,0,0,0,0,0,0,0,0,0,0,0,0,0,0,0,0,0,0,0,0,
0,0,0,0,0,0,0,0,0,0,0,0,0,0,0,0,0,0,0,0,0,0,0,0,0,0,0,0,0,0,0,0,0,0,0,0,0,0,0,0,0,0,0,0,0,0,0,0,0,0,0,0,0,0,0,0,0,0,0,0,0,0,0,0,0,0,0,0,0,0,0,0,0,0,0,0,0,0,0,0,0,0,0,0,0,0,0,0,0,0,0,0,0,0,0,0,0,0,0,0,
0,0,0,0,0,0,0,0,0,0,0,0,0,0,0,0,0,0,0,0,0,0,0,0,0,0,0,0,0,0,0,0,0,0,0,0,0,0,0,0,0,0,0,0,0,0,0,0,0,0,0,0,0,0,0,0,0,0,0,0,0,0,0,0,0,0,0,0,0,0,0,0,0,0,0,0,0,0,0,0,0,0,0,0,0,0,0,0,0,0,0,0,0,0,0,0,0,0,0,0,
0,0,0,0,0,0,0,0,0,0,0,0,0,0,0,0,0,0,0,0,0,0,0,0,0,0,0,0,0,0,0,0,0,0,0,0,0,0,0,0,0,0,0,0,0,0,0,0,0,0,0,0,0,0,0,0,0,0,0,0,0,0,0,0,0,0,0,0,0,0,0,0,0,0,0,0,0,0,0,0,0,0,0,0,0,0,0,0,0,0,0,0,0,0,0,0,0,0,0,0,
0,0,0,0,0,0,0,0,0,0,0,0,0,0,0,0,0,0,0,0,0,0,0,0,0,0,0,0,0,0,0,0,0,0,0,0,0,0,0,0,0,0,0,0,0,0,0,0,0,0,0,0,0,0,0,0,0,0,0,0,0,0,0,0,0,0,0,0,0,0,0,0,0,0,0,0,0,0,0,0,0,0,0,0,0,0,0,0,0,0,0,0,0,0,0,0,0,0,0,0,
0,0,0,0,0,0,0,0,0,0,0,0,0,0,0,0,0,0,0,0,0,0,0,0,0,0,0,0,0,0,0,0,0,0,0,0,0,0,0,0,0,0,0,0,0,0,0,0,0,0,0,0,0,0,0,0,0,0,0,0,0,0,0,0,0,0,0,0,0,0,0,0,0,0,0,0,0,0,0,0,0,0,0,0,0,0,0,0,0,0,0,0,0,0,0,0,0,0,0,0,
0,0,0,0,0,0,0,0,0,0,0,0,0,0,0,0,0,0,0,0,0,0,0,0,0,0,0,0,0,0,0,0,0,0,0,0,0,0,0,0,0,0,0,0,0,0,0,0,0,0,0,0,0,0,0,0,0,0,0,0,0,0,0,0,0,0,0,0,0,0,0,0,0,0,0,0,0,0,0,0,0,0,0,0,0,0,0,0,0,0,0,0,0,0,0,0,0,0,0,0,
0,0,0,0,0,0,0,0,0,0,0,0,0,0,0,0,0,0,0,0,0,0,0,0,0,0,0,0,0,0,0,0,0,0,0,0,0,0,0,0,0,0,0,0,0,0,0,0,0,0,0,0,0,0,0,0,0,0,0,0,0,0,0,0,0,0,0,0,0,0,0,0,0,0,0,0,0,0,0,0,0,0,0,0,0,0,0,0,0,0,0,0,0,0,0,0,0,0,0,0,
0,0,0,0,0,0,0,0,0,0,0,0,0,0,0,0,0,0,0,0,0,0,0,0,0,0,0,0,0,0,0,0,0,0,0,0,0,0,0,0,0,0,0,0,0,0,0,0,0,0,0,0,0,0,0,0,0,0,0,0,0,0,0,0,0,0,0,0,0,0,0,0,0,0,0,0,0,0,0,0,0,0,0,0,0,0,0,0,0,0,0,0,0,0,0,0,0,0,0,0,
0,0,0,0,0,0,0,0,0,0,0,0,0,0,0,0,0,0,0,0,0,0,0,0,0,0,0,0,0,0,0,0,0,0,0,0,0,0,0,0,0,0,0,0,0,0,0,0,0,0,0,0,0,0,0,0,0,0,0,0,0,0,0,0,0,0,0,0,0,0,0,0,0,0,0,0,0,0,0,0,0,0,0,0,0,0,0,0,0,0,0,0,0,0,0,0,0,0,0,0,
0,0,0,0,0,0,0,0,0,0,0,0,0,0,0,0,0,0,0,0,0,0,0,0,0,0,0,0,0,0,0,0,0,0,0,0,0,0,0,0,0,0,0,0,0,0,0,0,0,0,0,0,0,0,0,0,0,0,0,0,0,0,0,0,0,0,0,0,0,0,0,0,0,0,0,0,0,0,0,0,0,0,0,0,0,0,0,0,0,0,0,0,0,0,0,0,0,0,0,0,
0,0,0,0,0,0,0,0,0,0,0,0,0,0,0,0,0,0,0,0,0,0,0,0,0,0,0,0,0,0,0,0,0,0,0,0,0,0,0,0,0,0,0,0,0,0,0,0,0,0,0,0,0,0,0,0,0,0,0,0,0,0,0,0,0,0,0,0,0,0,0,0,0,0,0,0,0,0,0,0,0,0,0,0,0,0,0,0,0,0,0,0,0,0,0,0,0,0,0,0,
0,0,0,0,0,0,0,0,0,0,0,0,0,0,0,0,0,0,0,0,0,0,0,0,0,0,0,0,0,0,0,0,0,0,0,0,0,0,0,0,0,0,0,0,0,0,0,0,0,0,0,0,0,0,0,0,0,0,0,0,0,0,0,0,0,0,0,0,0,0,0,0,0,0,0,0,0,0,0,0,0,0,0,0,0,0,0,0,0,0,0,0,0,0,0,0,0,0,0,0,
0,0,0,0,0,0,0,0,0,0,0,0,0,0,0,0,0,0,0,0,0,0,0,0,0,0,0,0,0,0,0,0,0,0,0,0,0,0,0,0,0,0,0,0,0,0,0,0,0,0,0,0,0,0,0,0,0,0,0,0,0,0,0,0,0,0,0,0,0,0,0,0,0,0,0,0,0,0,0,0,0,0,0,0,0,0,0,0,0,0,0,0,0,0,0,0,0,0,0,0,
0,0,0,0,0,0,0,0,0,0,0,0,0,0,0,0,0,0,0,0,0,0,0,0,0,0,0,0,0,0,0,0,0,0,0,0,0,0,0,0,0,0,0,0,0,0,0,0,0,0,0,0,0,0,0,0,0,0,0,0,0,0,0,0,0,0,0,0,0,0,0,0,0,0,0,0,0,0,0,0,0,0,0,0,0,0,0,0,0,0,0,0,0,0,0,0,0,0,0,0,
0,0,0,0,0,0,0,0,0,0,0,0,0,0,0,0,0,0,0,0,0,0,0,0,0,0,0,0,0,0,0,0,0,0,0,0,0,0,0,0,0,0,0,0,0,0,0,0,0,0,0,0,0,0,0,0,0,0,0,0,0,0,0,0,0,0,0,0,0,0,0,0,0,0,0,0,0,0,0,0,0,0,0,0,0,0,0,0,0,0,0,0,0,0,0,0,0,0,0,0,
0,0,0,0,0,0,0,0,0,0,0,0,0,0,0,0,0,0,0,0,0,0,0,0,0,0,0,0,0,0,0,0,0,0,0,0,0,0,0,0,0,0,0,0,0,0,0,0,0,0,0,0,0,0,0,0,0,0,0,0,0,0,0,0,0,0,0,0,0,0,0,0,0,0,0,0,0,0,0,0,0,0,0,0,0,0,0,0,0,0,0,0,0,0,0,0,0,0,0,0,
0,0,0,0,0,0,0,0,0,0,0,0,0,0,0,0,0,0,0,0,0,0,0,0,0,0,0,0,0,0,0,0,0,0,0,0,0,0,0,0,0,0,0,0,0,0,0,0,0,0,0,0,0,0,0,0,0,0,0,0,0,0,0,0,0,0,0,0,0,0,0,0,0,0,0,0,0,0,0,0,0,0,0,0,0,0,0,0,0,0,0,0,0,0,0,0,0,0,0,0,
0,0,0,0,0,0,0,0,0,0,0,0,0,0,0,0,0,0,0,0,0,0,0,0,0,0,0,0,0,0,0,0,0,0,0,0,0,0,0,0,0,0,0,0,0,0,0,0,0,0,0,0,0,0,0,0,0,0,0,0,0,0,0,0,0,0,0,0,0,0,0,0,0,0,0,0,0,0,0,0,0,0,0,0,0,0,0,0,0,0,0,0,0,0,0,0,0,0,0,0,
0,0,0,0,0,0,0,0,0,0,0,0,0,0,0,0,0,0,0,0,0,0,0,0,0,0,0,0,0,0,0,0,0,0,0,0,0,0,0,0,0,0,0,0,0,0,0,0,0,0,0,0,0,0,0,0,0,0,0,0,0,0,0,0,0,0,0,0,0,0,0,0,0,0,0,0,0,0,0,0,0,0,0,0,0,0,0,0,0,0,0,0,0,0,0,0,0,0,0,0,
0,0,0,0,0,0,0,0,0,0,0,0,0,0,0,0,0,0,0,0,0,0,0,0,0,0,0,0,0,0,0,0,0,0,0,0,0,0,0,0,0,0,0,0,0,0,0,0,0,0,0,0,0,0,0,0,0,0,0,0,0,0,0,0,0,0,0,0,0,0,0,0,0,0,0,0,0,0,0,0,0,0,0,0,0,0,0,0,0,0,0,0,0,0,0,0,0,0,0,0,
0,0,0,0,0,0,0,0,0,0,0,0,0,0,0,0,0,0,0,0,0,0,0,0,0,0,0,0,0,0,0,0,0,0,0,0,0,0,0,0,0,0,0,0,0,0,0,0,0,0,0,0,0,0,0,0,0,0,0,0,0,0,0,0,0,0,0,0,0,0,0,0,0,0,0,0,0,0,0,0,0,0,0,0,0,0,0,0,0,0,0,0,0,0,0,0,0,0,0,0,
0,0,0,0,0,0,0,0,0,0,0,0,0,0,0,0,0,0,0,0,0,0,0,0,0,0,0,0,0,0,0,0,0,0,0,0,0,0,0,0,0,0,0,0,0,0,0,0,0,0,0,0,0,0,0,0,0,0,0,0,0,0,0,0,0,0,0,0,0,0,0,0,0,0,0,0,0,0,0,0,0,0,0,0,0,0,0,0,0,0,0,0,0,0,0,0,0,0,0,0,
0,0,0,0,0,0,0,0,0,0,0,0,0,0,0,0,0,0,0,0,0,0,0,0,0,0,0,0,0,0,0,0,0,0,0,0,0,0,0,0,0,0,0,0,0,0,0,0,0,0,0,0,0,0,0,0,0,0,0,0,0,0,0,0,0,0,0,0,0,0,0,0,0,0,0,0,0,0,0,0,0,0,0,0,0,0,0,0,0,0,0,0,0,0,0,0,0,0,0,0,
0,0,0,0,0,0,0,0,0,0,0,0,0,0,0,0,0,0,0,0,0,0,0,0,0,0,0,0,0,0,0,0,0,0,0,0,0,0,0,0,0,0,0,0,0,0,0,0,0,0,0,0,0,0,0,0,0,0,0,0,0,0,0,0,0,0,0,0,0,0,0,0,0,0,0,0,0,0,0,0,0,0,0,0,0,0,0,0,0,0,0,0,0,0,0,0,0,0,0,0,
0,0,0,0,0,0,0,0,0,0,0,0,0,0,0,0,0,0,0,0,0,0,0,0,0,0,0,0,0,0,0,0,0,0,0,0,0,0,0,0,0,0,0,0,0,0,0,0,0,0,0,0,0,0,0,0,0,0,0,0,0,0,0,0,0,0,0,0,0,0,0,0,0,0,0,0,0,0,0,0,0,0,0,0,0,0,0,0,0,0,0,0,0,0,0,0,0,0,0,0,
0,0,0,0,0,0,0,0,0,0,0,0,0,0,0,0,0,0,0,0,0,0,0,0,0,0,0,0,0,0,0,0,0,0,0,0,0,0,0,0,0,0,0,0,0,0,0,0,0,0,0,0,0,0,0,0,0,0,0,0,0,0,0,0,0,0,0,0,0,0,0,0,0,0,0,0,0,0,0,0,0,0,0,0,0,0,0,0,0,0,0,0,0,0,0,0,0,0,0,0,
0,0,0,0,0,0,0,0,0,0,0,0,0,0,0,0,0,0,0,0,0,0,0,0,0,0,0,0,0,0,0,0,0,0,0,0,0,0,0,0,0,0,0,0,0,0,0,0,0,0,0,0,0,0,0,0,0,0,0,0,0,0,0,0,0,0,0,0,0,0,0,0,0,0,0,0,0,0,0,0,0,0,0,0,0,0,0,0,0,0,0,0,0,0,0,0,0,0,0,0,
0,0,0,0,0,0,0,0,0,0,0,0,0,0,0,0,0,0,0,0,0,0,0,0,0,0,0,0,0,0,0,0,0,0,0,0,0,0,0,0,0,0,0,0,0,0,0,0,0,0,0,0,0,0,0,0,0,0,0,0,0,0,0,0,0,0,0,0,0,0,0,0,0,0,0,0,0,0,0,0,0,0,0,0,0,0,0,0,0,0,0,0,0,0,0,0,0,0,0,0,
0,0,0,0,0,0,0,0,0,0,0,0,0,0,0,0,0,0,0,0,0,0,0,0,0,0,0,0,0,0,0,0,0,0,0,0,0,0,0,0,0,0,0,0,0,0,0,0,0,0,0,0,0,0,0,0,0,0,0,0,0,0,0,0,0,0,0,0,0,0,0,0,0,0,0,0,0,0,0,0,0,0,0,0,0,0,0,0,0,0,0,0,0,0,0,0,0,0,0,0,
0,0,0,0,0,0,0,0,0,0,0,0,0,0,0,0,0,0,0,0,0,0,0,0,0,0,0,0,0,0,0,0,0,0,0,0,0,0,0,0,0,0,0,0,0,0,0,0,0,0,0,0,0,0,0,0,0,0,0,0,0,0,0,0,0,0,0,0,0,0,0,0,0,0,0,0,0,0,0,0,0,0,0,0,0,0,0,0,0,0,0,0,0,0,0,0,0,0,0,0,
0,0,0,0,0,0,0,0,0,0,0,0,0,0,0,0,0,0,0,0,0,0,0,0,0,0,0,0,0,0,0,0,0,0,0,0,0,0,0,0,0,0,0,0,0,0,0,0,0,0,0,0,0,0,0,0,0,0,0,0,0,0,0,0,0,0,0,0,0,0,0,0,0,0,0,0,0,0,0,0,0,0,0,0,0,0,0,0,0,0,0,0,0,0,0,0,0,0,0,0,
0,0,0,0,0,0,0,0,0,0,0,0,0,0,0,0,0,0,0,0,0,0,0,0,0,0,0,0,0,0,0,0,0,0,0,0,0,0,0,0,0,0,0,0,0,0,0,0,0,0,0,0,0,0,0,0,0,0,0,0,0,0,0,0,0,0,0,0,0,0,0,0,0,0,0,0,0,0,0,0,0,0,0,0,0,0,0,0,0,0,0,0,0,0,0,0,0,0,0,0,
0,0,0,0,0,0,0,0,0,0,0,0,0,0,0,0,0,0,0,0,0,0,0,0,0,0,0,0,0,0,0,0,0,0,0,0,0,0,0,0,0,0,0,0,0,0,0,0,0,0,0,0,0,0,0,0,0,0,0,0,0,0,0,0,0,0,0,0,0,0,0,0,0,0,0,0,0,0,0,0,0,0,0,0,0,0,0,0,0,0,0,0,0,0,0,0,0,0,0,0,
0,0,0,0,0,0,0,0,0,0,0,0,0,0,0,0,0,0,0,0,0,0,0,0,0,0,0,0,0,0,0,0,0,0,0,0,0,0,0,0,0,0,0,0,0,0,0,0,0,0,0,0,0,0,0,0,0,0,0,0,0,0,0,0,0,0,0,0,0,0,0,0,0,0,0,0,0,0,0,0,0,0,0,0,0,0,0,0,0,0,0,0,0,0,0,0,0,0,0,0,
0,0,0,0,0,0,0,0,0,0,0,0,0,0,0,0,0,0,0,0,0,0,0,0,0,0,0,0,0,0,0,0,0,0,0,0,0,0,0,0,0,0,0,0,0,0,0,0,0,0,0,0,0,0,0,0,0,0,0,0,0,0,0,0,0,0,0,0,0,0,0,0,0,0,0,0,0,0,0,0,0,0,0,0,0,0,0,0,0,0,0,0,0,0,0,0,0,0,0,0,
0,0,0,0,0,0,0,0,0,0,0,0,0,0,0,0,0,0,0,0,0,0,0,0,0,0,0,0,0,0,0,0,0,0,0,0,0,0,0,0,0,0,0,0,0,0,0,0,0,0,0,0,0,0,0,0,0,0,0,0,0,0,0,0,0,0,0,0,0,0,0,0,0,0,0,0,0,0,0,0,0,0,0,0,0,0,0,0,0,0,0,0,0,0,0,0,0,0,0,0,
0,0,0,0,0,0,0,0,0,0,0,0,0,0,0,0,0,0,0,0,0,0,0,0,0,0,0,0,0,0,0,0,0,0,0,0,0,0,0,0,0,0,0,0,0,0,0,0,0,0,0,0,0,0,0,0,0,0,0,0,0,0,0,0,0,0,0,0,0,0,0,0,0,0,0,0,0,0,0,0,0,0,0,0,0,0,0,0,0,0,0,0,0,0,0,0,0,0,0,0,
0,0,0,0,0,0,0,0,0,0,0,0,0,0,0,0,0,0,0,0,0,0,0,0,0,0,0,0,0,0,0,0,0,0,0,0,0,0,0,0,0,0,0,0,0,0,0,0,0,0,0,0,0,0,0,0,0,0,0,0,0,0,0,0,0,0,0,0,0,0,0,0,0,0,0,0,0,0,0,0,0,0,0,0,0,0,0,0,0,0,0,0,0,0,0,0,0,0,0,0,
0,0,0,0,0,0,0,0,0,0,0,0,0,0,0,0,0,0,0,0,0,0,0,0,0,0,0,0,0,0,0,0,0,0,0,0,0,0,0,0,0,0,0,0,0,0,0,0,0,0,0,0,0,0,0,0,0,0,0,0,0,0,0,0,0,0,0,0,0,0,0,0,0,0,0,0,0,0,0,0,0,0,0,0,0,0,0,0,0,0,0,0,0,0,0,0,0,0,0,0,
0,0,0,0,0,0,0,0,0,0,0,0,0,0,0,0,0,0,0,0,0,0,0,0,0,0,0,0,0,0,0,0,0,0,0,0,0,0,0,0,0,0,0,0,0,0,0,0,0,0,0,0,0,0,0,0,0,0,0,0,0,0,0,0,0,0,0,0,0,0,0,0,0,0,0,0,0,0,0,0,0,0,0,0,0,0,0,0,0,0,0,0,0,0,0,0,0,0,0,0,
0,0,0,0,0,0,0,0,0,0,0,0,0,0,0,0,0,0,0,0,0,0,0,0,0,0,0,0,0,0,0,0,0,0,0,0,0,0,0,0,0,0,0,0,0,0,0,0,0,0,0,0,0,0,0,0,0,0,0,0,0,0,0,0,0,0,0,0,0,0,0,0,0,0,0,0,0,0,0,0,0,0,0,0,0,0,0,0,0,0,0,0,0,0,0,0,0,0,0,0,
0,0,0,0,0,0,0,0,0,0,0,0,0,0,0,0,0,0,0,0,0,0,0,0,0,0,0,0,0,0,0,0,0,0,0,0,0,0,0,0,0,0,0,0,0,0,0,0,0,0,0,0,0,0,0,0,0,0,0,0,0,0,0,0,0,0,0,0,0,0,0,0,0,0,0,0,0,0,0,0,0,0,0,0,0,0,0,0,0,0,0,0,0,0,0,0,0,0,0,0,
0,0,0,0,0,0,0,0,0,0,0,0,0,0,0,0,0,0,0,0,0,0,0,0,0,0,0,0,0,0,0,0,0,0,0,0,0,0,0,0,0,0,0,0,0,0,0,0,0,0,0,0,0,0,0,0,0,0,0,0,0,0,0,0,0,0,0,0,0,0,0,0,0,0,0,0,0,0,0,0,0,0,0,0,0,0,0,0,0,0,0,0,0,0,0,0,0,0,0,0,
0,0,0,0,0,0,0,0,0,0,0,0,0,0,0,0,0,0,0,0,0,0,0,0,0,0,0,0,0,0,0,0,0,0,0,0,0,0,0,0,0,0,0,0,0,0,0,0,0,0,0,0,0,0,0,0,0,0,0,0,0,0,0,0,0,0,0,0,0,0,0,0,0,0,0,0,0,0,0,0,0,0,0,0,0,0,0,0,0,0,0,0,0,0,0,0,0,0,0,0,
0,0,0,0,0,0,0,0,0,0,0,0,0,0,0,0,0,0,0,0,0,0,0,0,0,0,0,0,0,0,0,0,0,0,0,0,0,0,0,0,0,0,0,0,0,0,0,0,0,0,0,0,0,0,0,0,0,0,0,0,0,0,0,0,0,0,0,0,0,0,0,0,0,0,0,0,0,0,0,0,0,0,0,0,0,0,0,0,0,0,0,0,0,0,0,0,0,0,0,0,
0,0,0,0,0,0,0,0,0,0,0,0,0,0,0,0,0,0,0,0,0,0,0,0,0,0,0,0,0,0,0,0,0,0,0,0,0,0,0,0,0,0,0,0,0,0,0,0,0,0,0,0,0,0,0,0,0,0,0,0,0,0,0,0,0,0,0,0,0,0,0,0,0,0,0,0,0,0,0,0,0,0,0,0,0,0,0,0,0,0,0,0,0,0,0,0,0,0,0,0,
0,0,0,0,0,0,0,0,0,0,0,0,0,0,0,0,0,0,0,0,0,0,0,0,0,0,0,0,0,0,0,0,0,0,0,0,0,0,0,0,0,0,0,0,0,0,0,0,0,0,0,0,0,0,0,0,0,0,0,0,0,0,0,0,0,0,0,0,0,0,0,0,0,0,0,0,0,0,0,0,0,0,0,0,0,0,0,0,0,0,0,0,0,0,0,0,0,0,0,0,
0,0,0,0,0,0,0,0,0,0,0,0,0,0,0,0,0,0,0,0,0,0,0,0,0,0,0,0,0,0,0,0,0,0,0,0,0,0,0,0,0,0,0,0,0,0,0,0,0,0,0,0,0,0,0,0,0,0,0,0,0,0,0,0,0,0,0,0,0,0,0,0,0,0,0,0,0,0,0,0,0,0,0,0,0,0,0,0,0,0,0,0,0,0,0,0,0,0,0,0,
0,0,0,0,0,0,0,0,0,0,0,0,0,0,0,0,0,0,0,0,0,0,0,0,0,0,0,0,0,0,0,0,0,0,0,0,0,0,0,0,0,0,0,0,0,0,0,0,0,0,0,0,0,0,0,0,0,0,0,0,0,0,0,0,0,0,0,0,0,0,0,0,0,0,0,0,0,0,0,0,0,0,0,0,0,0,0,0,0,0,0,0,0,0,0,0,0,0,0,0,
0,0,0,0,0,0,0,0,0,0,0,0,0,0,0,0,0,0,0,0,0,0,0,0,0,0,0,0,0,0,0,0,0,0,0,0,0,0,0,0,0,0,0,0,0,0,0,0,0,0,0,0,0,0,0,0,0,0,0,0,0,0,0,0,0,0,0,0,0,0,0,0,0,0,0,0,0,0,0,0,0,0,0,0,0,0,0,0,0,0,0,0,0,0,0,0,0,0,0,0,
0,0,0,0,0,0,0,0,0,0,0,0,0,0,0,0,0,0,0,0,0,0,0,0,0,0,0,0,0,0,0,0,0,0,0,0,0,0,0,0,0,0,0,0,0,0,0,0,0,0,0,0,0,0,0,0,0,0,0,0,0,0,0,0,0,0,0,0,0,0,0,0,0,0,0,0,0,0,0,0,0,0,0,0,0,0,0,0,0,0,0,0,0,0,0,0,0,0,0,0,
0,0,0,0,0,0,0,0,0,0,0,0,0,0,0,0,0,0,0,0,0,0,0,0,0,0,0,0,0,0,0,0,0,0,0,0,0,0,0,0,0,0,0,0,0,0,0,0,0,0,0,0,0,0,0,0,0,0,0,0,0,0,0,0,0,0,0,0,0,0,0,0,0,0,0,0,0,0,0,0,0,0,0,0,0,0,0,0,0,0,0,0,0,0,0,0,0,0,0,0,
0,0,0,0,0,0,0,0,0,0,0,0,0,0,0,0,0,0,0,0,0,0,0,0,0,0,0,0,0,0,0,0,0,0,0,0,0,0,0,0,0,0,0,0,0,0,0,0,0,0,0,0,0,0,0,0,0,0,0,0,0,0,0,0,0,0,0,0,0,0,0,0,0,0,0,0,0,0,0,0,0,0,0,0,0,0,0,0,0,0,0,0,0,0,0,0,0,0,0,0,
0,0,0,0,0,0,0,0,0,0,0,0,0,0,0,0,0,0,0,0,0,0,0,0,0,0,0,0,0,0,0,0,0,0,0,0,0,0,0,0,0,0,0,0,0,0,0,0,0,0,0,0,0,0,0,0,0,0,0,0,0,0,0,0,0,0,0,0,0,0,0,0,0,0,0,0,0,0,0,0,0,0,0,0,0,0,0,0,0,0,0,0,0,0,0,0,0,0,0,0,
0,0,0,0,0,0,0,0,0,0,0,0,0,0,0,0,0,0,0,0,0,0,0,0,0,0,0,0,0,0,0,0,0,0,0,0,0,0,0,0,0,0,0,0,0,0,0,0,0,0,0,0,0,0,0,0,0,0,0,0,0,0,0,0,0,0,0,0,0,0,0,0,0,0,0,0,0,0,0,0,0,0,0,0,0,0,0,0,0,0,0,0,0,0,0,0,0,0,0,0,
0,0,0,0,0,0,0,0,0,0,0,0,0,0,0,0,0,0,0,0,0,0,0,0,0,0,0,0,0,0,0,0,0,0,0,0,0,0,0,0,0,0,0,0,0,0,0,0,0,0,0,0,0,0,0,0,0,0,0,0,0,0,0,0,0,0,0,0,0,0,0,0,0,0,0,0,0,0,0,0,0,0,0,0,0,0,0,0,0,0,0,0,0,0,0,0,0,0,0,0,
0,0,0,0,0,0,0,0,0,0,0,0,0,0,0,0,0,0,0,0,0,0,0,0,0,0,0,0,0,0,0,0,0,0,0,0,0,0,0,0,0,0,0,0,0,0,0,0,0,0,0,0,0,0,0,0,0,0,0,0,0,0,0,0,0,0,0,0,0,0,0,0,0,0,0,0,0,0,0,0,0,0,0,0,0,0,0,0,0,0,0,0,0,0,0,0,0,0,0,0,
0,0,0,0,0,0,0,0,0,0,0,0,0,0,0,0,0,0,0,0,0,0,0,0,0,0,0,0,0,0,0,0,0,0,0,0,0,0,0,0,0,0,0,0,0,0,0,0,0,0,0,0,0,0,0,0,0,0,0,0,0,0,0,0,0,0,0,0,0,0,0,0,0,0,0,0,0,0,0,0,0,0,0,0,0,0,0,0,0,0,0,0,0,0,0,0,0,0,0,0,
0,0,0,0,0,0,0,0,0,0,0,0,0,0,0,0,0,0,0,0,0,0,0,0,0,0,0,0,0,0,0,0,0,0,0,0,0,0,0,0,0,0,0,0,0,0,0,0,0,0,0,0,0,0,0,0,0,0,0,0,0,0,0,0,0,0,0,0,0,0,0,0,0,0,0,0,0,0,0,0,0,0,0,0,0,0,0,0,0,0,0,0,0,0,0,0,0,0,0,0,
0,0,0,0,0,0,0,0,0,0,0,0,0,0,0,0,0,0,0,0,0,0,0,0,0,0,0,0,0,0,0,0,0,0,0,0,0,0,0,0,0,0,0,0,0,0,0,0,0,0,0,0,0,0,0,0,0,0,0,0,0,0,0,0,0,0,0,0,0,0,0,0,0,0,0,0,0,0,0,0,0,0,0,0,0,0,0,0,0,0,0,0,0,0,0,0,0,0,0,0
</data>
 </layer>
 <objectgroup id="4" name="objects">
  <object id="57" gid="4103" x="896" y="768" width="32" height="48"/>
  <object id="58" gid="4102" x="1344" y="240" width="18" height="16"/>
  <object id="59" gid="4102" x="208" y="240" width="18" height="16"/>
  <object id="60" gid="4102" x="800" y="544" width="18" height="16"/>
  <object id="61" gid="4102" x="624" y="832" width="18" height="16"/>
  <object id="62" gid="4102" x="1040" y="1008" width="18" height="16"/>
  <object id="63" gid="4102" x="1072" y="592" width="18" height="16"/>
  <object id="64" gid="4102" x="480" y="592" width="18" height="16"/>
  <object id="65" gid="4102" x="736" y="1136" width="18" height="16"/>
  <object id="66" gid="4102" x="1168" y="816" width="18" height="16"/>
  <object id="67" gid="4102" x="752" y="720" width="18" height="16"/>
  <object id="68" gid="4102" x="864" y="928" width="18" height="16"/>
  <object id="69" gid="4102" x="432" y="928" width="18" height="16"/>
  <object id="70" gid="4102" x="960" y="1120" width="18" height="16"/>
  <object id="71" gid="4102" x="1408" y="1456" width="18" height="16"/>
  <object id="72" gid="4102" x="960" y="1472" width="18" height="16"/>
  <object id="73" gid="4102" x="1168" y="1488" width="18" height="16"/>
  <object id="74" gid="4102" x="832" y="1360" width="18" height="16"/>
  <object id="75" gid="4102" x="768" y="1456" width="18" height="16"/>
  <object id="76" gid="4102" x="464" y="1456" width="18" height="16"/>
  <object id="78" x="32" y="1472">
   <polyline points="0,0 0,64 16,80 176,80 192,64 224,64 240,48 1280,48 1312,80 1344,80 1360,96 1440,96 1504,32 1504,16 1536,-16 1536,-64 1504,-96 1504,-112 1488,-128 1456,-128 1440,-144 1408,-144 1392,-128 1360,-128 1344,-112 1328,-112 1264,-48 1008,-48 912,-144 912,-160 896,-176 896,-240 912,-256 1040,-256 1056,-272 1104,-272 1136,-304 1152,-304 1216,-368 1216,-384 1232,-400 1232,-416 1248,-432 1248,-464 1264,-480 1264,-528 1280,-544 1280,-640 1296,-656 1296,-768 1280,-784 1280,-848 1264,-864 1264,-896 1248,-912 1248,-944 1216,-976 1216,-1024 1280,-1088 1312,-1088 1376,-1024 1440,-1024 1456,-1040 1472,-1040 1488,-1056 1488,-1200 1472,-1216 1472,-1248 1456,-1264 1456,-1280 1440,-1296 1440,-1312 1408,-1344 1392,-1344 1360,-1376 1248,-1376 1232,-1360 1216,-1360 1200,-1344 1200,-1328 1184,-1312 1184,-1296 1168,-1280 1168,-1264 1184,-1248 1184,-1216 1200,-1200 1200,-1136 1184,-1120 1168,-1120 1136,-1088 1104,-1088 1088,-1104 1072,-1104 1056,-1120 1040,-1120 1024,-1136 992,-1136 976,-1152 848,-1152 832,-1136 656,-1136 640,-1120 576,-1120 560,-1104 512,-1104 496,-1088 480,-1088 464,-1072 448,-1072 432,-1088 416,-1088 336,-1168 336,-1216 352,-1232 352,-1280 336,-1296 336,-1312 288,-1360 272,-1360 256,-1376 240,-1376 224,-1392 176,-1392 160,-1376 144,-1376 96,-1328 96,-1312 64,-1280 64,-1184 80,-1168 80,-1152 160,-1072 176,-1072 192,-1056 256,-1056 272,-1072 304,-1072 320,-1056 336,-1056 368,-1024 384,-1024 400,-1008 400,-944 384,-928 384,-912 368,-896 368,-864 352,-848 352,-832 336,-816 336,-784 320,-768 320,-720 304,-704 304,-496 320,-480 320,-448 336,-432 336,-416 416,-336 432,-336 464,-304 480,-304 496,-288 512,-288 528,-272 560,-272 576,-256 704,-256 720,-240 720,-192 704,-176 704,-128 672,-96 672,-80 656,-64 192,-64 144,-112 128,-112 112,-128 80,-128 16,-64 16,-16 -9.75,9.25"/>
  </object>
 </objectgroup>
 <objectgroup id="7" name="portals">
  <object id="49" x="64.5455" y="1600.36">
   <properties>
    <property name="targetMap" value="town"/>
    <property name="targetSpawn" value="cave_exit"/>
   </properties>
   <polygon points="0,0 32,0 32.5,-7.625 -0.5,-8.375"/>
  </object>
 </objectgroup>
 <objectgroup id="9" name="collisions"/>
 <objectgroup id="11" name="patrols"/>
 <objectgroup id="8" name="spawns">
  <object id="50" x="78.7841" y="1533.85">
   <properties>
    <property name="spawnId" value="cave_entry"/>
   </properties>
   <point/>
  </object>
 </objectgroup>
</map>
