<?xml version="1.0" encoding="UTF-8"?>
<map version="1.10" tiledversion="1.12.2" orientation="orthogonal" renderorder="right-down" width="30" height="20" tilewidth="16" tileheight="16" infinite="0" nextlayerid="11" nextobjectid="54">
 <tileset firstgid="1" source="../tilesets/sunnysideworld.tsx"/>
 <tileset firstgid="4097" source="../tilesets/props.tsx"/>
 <layer id="1" name="ground" width="30" height="20">
  <data encoding="csv">
1932,1931,1932,1996,1868,1933,1931,1933,1996,1931,1931,1933,1932,1868,1931,1996,1933,1932,1932,1868,1996,1931,1932,1996,1932,1933,1931,1996,1932,1931,
1868,1932,1932,1996,1868,1933,1933,1932,1932,1868,1932,1868,1931,1933,1996,1868,1931,1933,1996,1996,1868,1868,1932,1932,1931,1931,1932,1868,1931,1931,
1996,1932,1932,1868,1932,1868,1996,1931,1996,1931,1931,1868,1996,1868,1932,1868,1931,1932,1996,1933,1932,1868,1933,1931,1868,1933,1933,1868,1931,1932,
1933,1868,1931,1868,1932,1931,1868,1868,1868,1996,1868,1868,1932,1868,1996,1868,1933,1933,1868,1932,1868,1996,1996,1931,1933,1931,1996,1932,1996,1933,
1931,1931,1868,1868,1868,1933,1931,1868,1932,1933,1933,1931,1932,1933,1932,1996,1868,1932,1933,1931,1931,1931,1931,1932,1932,1932,1996,1933,1868,1931,
1996,1931,1996,1868,1932,1931,1932,1931,1868,1996,1933,1868,1932,1932,1931,1868,1868,1868,1868,1931,1868,1932,1933,1932,1931,1931,1868,1868,1996,1931,
1932,1931,1931,1931,1933,1868,1868,1933,1996,1868,1868,1868,1933,1868,1931,1932,1996,1996,1933,1868,1931,1868,1931,1931,1931,1931,1931,1933,1931,1932,
1932,1996,1868,1932,1868,1932,1932,1996,1933,1996,1931,1933,1933,1932,1996,1931,1932,1996,1931,1933,1868,1996,1931,1931,1996,1868,1868,1932,1931,1996,
1868,1868,1932,1996,1996,1933,1933,1996,1931,1996,1996,1933,1996,1996,1933,1932,1996,1931,1868,1932,1996,1996,1996,1932,1996,1996,1996,1931,1996,1933,
1932,1932,1932,1931,1931,1933,1933,1868,1996,1931,1996,1931,1931,1932,1932,1933,1996,1932,1868,1931,1932,1932,1996,1931,1931,1996,1868,1931,1931,1931,
1996,1996,1996,1933,1931,1868,1931,1868,1868,1932,1933,1932,1996,1931,1931,1868,1996,1932,1868,1933,1931,1932,1933,1868,1996,1931,1932,1868,1932,1932,
1931,1932,1932,1932,1868,1931,1931,1868,1931,1931,1933,1868,1932,1996,1868,1933,1932,1931,1931,1868,1931,1933,1931,1933,1868,1868,1996,1932,1933,1868,
1931,1996,1996,1868,1932,1933,1996,1931,1933,1933,1868,1932,1868,1868,1932,1868,1931,1933,1868,1932,1868,1868,1868,1868,1933,1933,1868,1932,1931,1932,
1932,1868,1996,1868,1931,1932,1868,1931,1933,1933,1933,1868,1931,1933,1996,1933,1932,1933,1933,1932,1996,1996,1996,1996,1996,1931,1932,1932,1996,1932,
1868,1996,1996,1932,1933,1868,1996,1868,1868,1932,1932,1932,1933,1868,1931,1933,1931,1868,1933,1868,1932,1932,1932,1933,1868,1932,1932,1933,1868,1932,
1932,1868,1932,1868,1996,1933,1868,1868,1931,1933,1932,1868,1932,1868,1933,1868,1931,1868,1931,1996,1868,1932,1932,1868,1932,1996,1931,1996,1996,1932,
1868,1996,1868,1932,1996,1996,1931,1996,1933,1933,1996,1868,1931,1932,1932,1931,1932,1932,1933,1996,1931,1933,1868,1931,1932,1868,1932,1996,1868,1933,
1933,1868,1996,1932,1933,1933,1931,1933,1932,1996,1933,1996,1996,1933,1996,1932,1932,1931,1868,1932,1868,1931,1868,1868,1933,1931,1932,1996,1932,1932,
1868,1932,1996,1933,1868,1868,1932,1933,1933,1868,1868,1996,1931,1996,1932,1933,1996,1996,1933,1933,1932,1868,1933,1932,1931,1933,1933,1996,1996,1996,
1933,1933,1996,1868,1996,1932,1932,1868,1933,1931,1996,1933,1933,1932,1996,1996,1868,1933,1931,1931,1931,1932,1931,1933,1996,1996,1868,1932,1932,1931
</data>
 </layer>
 <layer id="2" name="walls" width="30" height="20">
  <data encoding="csv">
2061,2062,1998,1998,2061,2059,2061,1994,1998,1998,2062,1994,2062,1994,2062,1994,1998,2062,2062,2060,2062,2060,1998,1994,2059,2061,1998,2060,2062,2060,
2059,2060,2060,1998,1994,1998,2061,1998,2060,2060,1994,1998,1994,2062,2062,2059,2060,1994,1994,1998,2060,2062,2061,2062,2059,2059,2060,2062,2059,1998,
1994,2060,1994,2060,2059,1994,2060,1994,1994,2062,2060,2061,2061,2061,2059,2059,2062,1998,2060,2059,2061,1994,1803,1867,0,0,1869,1805,2062,1994,
2059,2062,1994,2062,2059,2062,1994,2060,2059,2062,2062,2062,2060,2059,1994,2061,2060,2062,2060,2062,1803,1867,0,0,0,0,0,1869,2059,2062,
2061,2060,2059,2061,1998,2061,1994,1994,2062,2060,1998,2060,1998,1998,2059,1994,1998,1994,2062,2062,1867,0,0,0,0,0,0,0,1934,2061,
1998,1994,2062,1994,2059,2059,2062,2059,2061,1994,2059,2062,2060,2059,1998,2059,2061,2061,2059,1930,0,0,0,0,0,0,0,0,1934,2061,
2062,2060,1994,2059,1998,2062,1998,2061,2061,1994,2059,2059,2060,2062,2059,2059,1998,1994,2062,1803,0,0,0,0,0,0,0,0,1934,2062,
1994,2061,2060,2059,2060,2062,2062,2060,2061,2062,2059,2060,1994,1998,1994,2060,2060,2061,1998,1867,0,0,0,0,0,0,0,1997,2059,1998,
1998,2060,1998,1998,1803,1804,1804,1804,1805,2061,2060,2062,1994,2060,1998,2059,2059,2060,1803,0,0,0,0,0,0,0,1997,1998,1994,1998,
2061,2059,2059,1803,1867,0,0,0,1869,1804,1805,2060,2062,1998,2060,2059,2062,1803,1867,0,0,0,0,1997,2061,1998,2059,2061,2059,1994,
1998,1998,1803,1867,0,0,0,0,0,0,1869,1804,1804,1804,1804,1804,1804,1867,0,0,0,0,1997,2060,1994,2060,2062,1994,1998,2061,
2062,1930,1867,0,0,0,0,0,0,0,0,0,0,0,0,0,0,0,0,0,0,0,1805,2062,1994,2061,2060,2062,1994,2061,
2062,1930,0,0,0,0,0,0,0,0,0,0,0,0,0,0,0,0,0,0,0,0,1869,1804,1804,1805,2062,2059,1998,2059,
2059,1998,1995,0,0,0,0,1997,2060,2061,1994,2062,2062,1994,2062,2060,1994,1998,1995,0,0,0,0,0,0,1869,1804,1805,1994,1994,
2061,2060,2060,0,0,0,0,1994,2060,2060,1994,2059,1998,2060,1998,2062,1998,1998,1998,1995,0,0,0,0,0,0,0,1869,1805,2059,
2060,2061,2060,0,0,0,0,1994,2062,2062,2062,1994,1998,2062,2059,2062,2060,1994,1998,1930,0,0,0,0,0,0,0,0,1869,1934,
2062,2059,1998,0,0,0,0,1994,2060,1994,1994,1998,2060,1998,1998,2061,2059,2061,2062,2060,1995,0,0,0,0,0,0,0,0,2061,
1998,1994,1998,1995,0,0,1997,2059,2059,2061,1998,1994,1998,2060,2062,2059,1994,2061,2059,1998,2061,1995,0,0,0,0,0,0,0,2061,
2059,2059,1994,2061,2058,2058,2060,2062,2061,1994,1994,2059,2059,2061,2059,2060,1998,1994,1998,2062,2062,2060,2060,1994,1995,0,0,0,1997,2060,
1998,2062,1994,2062,2061,2060,2062,2062,2062,1998,2061,2062,2062,2060,2060,2059,1994,2062,2061,2059,1994,1998,2061,1998,2062,1994,1994,1994,2062,1998
</data>
 </layer>
 <layer id="6" name="ground_details" width="30" height="20">
  <data encoding="csv">
0,0,0,0,0,0,0,0,0,0,0,0,0,0,0,0,0,0,0,0,0,0,0,0,0,0,0,0,0,0,
0,0,0,0,0,0,0,0,0,0,0,0,0,0,0,0,0,0,0,0,0,0,0,0,0,0,0,0,0,0,
0,0,0,0,0,0,0,0,0,0,0,0,0,0,0,0,0,0,0,0,0,0,0,0,0,0,0,0,0,0,
0,0,0,0,0,0,0,0,0,0,0,0,0,0,0,0,0,0,0,0,0,0,0,0,0,224,0,0,0,0,
0,0,0,0,0,0,0,0,0,0,0,0,0,0,0,0,0,0,0,0,0,0,563,0,0,0,0,0,0,0,
0,0,0,0,0,0,0,0,0,0,0,0,0,0,0,0,0,0,0,0,0,0,0,0,0,0,0,0,0,0,
0,0,0,0,0,0,0,0,0,0,0,0,0,0,0,0,0,0,0,0,0,0,0,0,0,0,563,0,0,0,
0,0,0,0,0,0,0,0,0,0,0,0,0,0,0,0,0,0,0,0,0,0,0,0,0,0,0,0,0,0,
0,0,0,0,0,0,0,0,0,0,0,0,0,0,0,0,0,0,0,0,563,0,0,0,0,0,0,0,0,0,
0,0,0,0,0,0,498,288,0,0,0,0,0,0,0,0,0,0,0,0,0,0,0,0,0,0,0,0,0,0,
0,0,0,0,0,0,0,0,0,498,0,0,0,0,0,0,0,0,0,0,0,0,0,0,0,0,0,0,0,0,
0,0,0,0,0,0,0,0,0,0,0,0,0,0,0,0,289,0,0,0,0,0,0,0,0,0,0,0,0,0,
0,0,0,0,0,0,0,0,498,0,0,0,499,0,0,0,0,562,0,0,0,0,0,0,0,0,0,0,0,0,
0,0,0,563,0,563,0,0,0,0,0,0,0,0,0,0,0,0,0,0,0,0,0,0,0,0,0,0,0,0,
0,0,0,0,0,0,0,0,0,0,0,0,0,0,0,0,0,0,0,0,0,0,0,0,0,0,0,0,0,0,
0,0,0,0,0,0,0,0,0,0,0,0,0,0,0,0,0,0,0,0,0,0,0,0,562,0,0,0,0,0,
0,0,0,0,563,0,0,0,0,0,0,0,0,0,0,0,0,0,0,0,0,0,0,0,0,0,0,0,0,0,
0,0,0,0,0,0,0,0,0,0,0,0,0,0,0,0,0,0,0,0,0,0,0,0,0,290,0,498,0,0,
0,0,0,0,0,0,0,0,0,0,0,0,0,0,0,0,0,0,0,0,0,0,0,0,0,0,0,0,0,0,
0,0,0,0,0,0,0,0,0,0,0,0,0,0,0,0,0,0,0,0,0,0,0,0,0,0,0,0,0,0
</data>
 </layer>
 <objectgroup id="4" name="objects">
  <object id="3" gid="1959" x="416.25" y="231" width="16" height="16"/>
  <object id="8" gid="4102" x="404.25" y="97.75" width="18" height="16"/>
  <object id="9" gid="2147487750" x="343.25" y="83.75" width="18" height="16"/>
  <object id="10" gid="2147487750" x="335.75" y="137.75" width="18" height="16"/>
  <object id="14" gid="4103" x="368" y="112" width="32" height="48"/>
  <object id="15" gid="1961" x="400" y="144" width="16" height="16"/>
  <object id="18" gid="1897" x="400" y="128" width="16" height="16"/>
  <object id="19" gid="1961" x="336" y="112" width="16" height="16"/>
  <object id="20" gid="1961" x="384" y="64" width="16" height="16"/>
  <object id="21" gid="1961" x="368" y="128" width="16" height="16"/>
  <object id="22" gid="1961" x="432" y="112" width="16" height="16"/>
  <object id="25" gid="1961" x="304" y="160" width="16" height="16"/>
  <object id="26" gid="1961" x="336" y="160" width="16" height="16"/>
  <object id="27" gid="1962" x="315.091" y="186.909" width="16" height="16"/>
  <object id="28" gid="1962" x="366.727" y="236.545" width="16" height="16"/>
  <object id="29" gid="1962" x="417.636" y="279.273" width="16" height="16"/>
  <object id="30" gid="1962" x="222" y="200.182" width="16" height="16"/>
  <object id="31" gid="1962" x="372.182" y="143.273" width="16" height="16"/>
  <object id="32" gid="1962" x="365.818" y="65.0909" width="16" height="16"/>
  <object id="33" gid="1962" x="424.182" y="80.3636" width="16" height="16"/>
  <object id="34" gid="1897" x="432" y="96" width="16" height="16"/>
  <object id="35" gid="1897" x="384" y="48" width="16" height="16"/>
  <object id="36" gid="1897" x="368" y="112" width="16" height="16"/>
  <object id="37" gid="1897" x="336" y="96" width="16" height="16"/>
  <object id="38" gid="1897" x="336" y="144" width="16" height="16"/>
  <object id="39" gid="1897" x="304" y="144" width="16" height="16"/>
  <object id="41" gid="4104" x="25.2727" y="208.545" width="32" height="32"/>
  <object id="42" gid="4104" x="69.4545" y="165.091" width="32" height="32"/>
  <object id="45" gid="4104" x="42" y="193.091" width="32" height="32"/>
  <object id="47" gid="4104" x="55.8182" y="178.545" width="32" height="32"/>
 </objectgroup>
 <objectgroup id="7" name="portals">
  <object id="49" x="64.5455" y="320.364">
   <properties>
    <property name="targetMap" value="town"/>
    <property name="targetSpawn" value="cave_exit"/>
   </properties>
   <polygon points="0,0 32,0 32.5,-7.625 -0.5,-8.375"/>
  </object>
 </objectgroup>
 <objectgroup id="9" name="collisions">
  <object id="51" x="64" y="288">
   <polyline points="-0.545455,27.6364 0,0 -16,-16 -16,-64 -32,-80 -32,-96 16,-144 64,-144 80,-128 96,-128 112,-112 208,-112 240,-144 240,-160 256,-176 256,-208 288,-240 304,-240 320,-256 352,-256 384,-224 384,-176 352,-144 320,-144 288,-112 288,-96 304,-80 336,-80 352,-64 368,-64 400,-32 400,0 384,16 336,16 320,0 288,0 256,-32 256,-48 224,-80 64,-80 48,-64 48,-16 32,0 32.3636,22.9091 0.545455,22.7273"/>
  </object>
 </objectgroup>
 <objectgroup id="8" name="spawns">
  <object id="50" x="78.7841" y="253.852">
   <properties>
    <property name="spawnId" value="cave_entry"/>
   </properties>
   <point/>
  </object>
 </objectgroup>
</map>
