<?xml version="1.0" encoding="UTF-8"?>
<map version="1.10" tiledversion="1.12.2" orientation="orthogonal" renderorder="right-down" width="100" height="100" tilewidth="16" tileheight="16" infinite="0" nextlayerid="10" nextobjectid="25">
 <tileset firstgid="1" source="../tilesets/props.tsx"/>
 <tileset firstgid="6" source="../tilesets/sunnysideworld.tsx"/>
 <layer id="1" name="ground" width="100" height="100">
  <data encoding="csv">
71,135,200,72,140,135,135,264,135,205,140,199,264,200,199,139,200,140,264,264,199,198,198,200,139,137,199,205,71,136,71,263,200,136,135,198,138,205,138,200,71,263,137,200,200,138,136,137,140,263,135,198,138,264,136,136,139,205,72,200,139,263,200,205,263,263,138,138,72,198,201,201,201,140,205,136,199,138,136,138,71,263,72,136,264,136,199,263,135,135,71,139,200,139,135,199,200,140,139,263,
138,137,201,135,137,205,263,200,139,263,72,263,140,137,71,137,71,139,72,264,201,264,263,263,136,198,139,201,205,72,199,205,263,140,137,201,136,135,201,138,199,264,200,72,201,264,140,71,138,205,72,71,139,139,140,135,137,205,137,139,199,201,205,264,263,138,135,71,264,139,205,199,140,198,205,135,71,72,140,264,199,264,263,205,205,205,139,264,138,139,205,72,135,198,135,198,263,205,71,137,
199,137,263,201,138,72,263,201,264,205,72,198,136,140,140,200,72,201,201,136,72,201,263,137,139,201,264,199,200,72,263,205,198,136,139,198,136,138,199,137,137,138,200,263,136,135,199,71,199,137,139,199,199,198,137,198,201,201,135,198,72,71,198,72,198,71,136,201,201,199,136,71,199,137,71,71,135,264,138,137,72,137,71,264,264,138,138,71,140,71,200,263,72,135,72,263,139,135,140,140,
135,137,205,135,200,139,263,72,137,71,138,136,205,199,198,135,200,201,264,200,139,71,201,136,136,199,139,205,138,136,135,72,138,264,137,263,201,263,138,205,137,264,136,205,71,138,140,201,199,264,263,199,140,200,72,200,200,264,198,137,140,137,135,72,201,71,72,264,140,264,264,136,136,205,264,135,263,264,138,138,264,139,140,201,263,140,140,205,198,140,200,205,199,72,199,140,263,205,200,72,
137,200,198,200,136,263,198,71,200,137,201,264,137,72,199,139,200,71,135,140,200,137,199,264,205,199,264,205,264,198,205,138,140,200,71,198,140,140,200,140,263,198,72,201,137,198,140,140,71,264,263,72,139,263,200,71,71,137,140,205,201,201,205,201,199,263,201,263,135,198,198,263,135,137,200,136,72,140,72,200,201,263,136,136,72,137,137,263,205,139,201,201,264,140,138,201,137,72,137,72,
201,136,201,140,137,135,135,139,136,263,135,137,139,198,71,137,71,137,205,201,72,263,200,72,71,135,135,140,72,201,201,72,201,199,136,138,136,138,71,137,263,139,137,72,139,263,200,140,72,201,199,138,200,264,139,200,205,136,198,264,205,200,201,205,198,137,200,140,199,199,135,264,72,264,135,138,138,198,200,199,138,200,198,138,71,205,136,263,135,72,137,201,201,201,198,200,139,198,201,198,
205,139,136,205,71,201,135,136,264,135,264,263,139,199,199,140,135,136,71,200,263,139,72,198,205,135,199,139,199,138,198,263,138,201,201,199,205,135,263,136,135,264,138,136,140,135,198,135,205,264,201,71,137,199,137,200,263,198,263,201,136,138,140,71,263,136,199,264,140,201,200,264,264,201,135,264,263,71,138,198,200,72,135,198,199,72,140,201,198,140,140,263,72,71,71,200,139,140,199,201,
71,138,198,135,201,199,199,198,264,263,264,199,139,135,263,136,205,136,201,140,140,198,137,138,72,135,205,135,198,140,135,138,263,137,137,140,201,198,201,72,199,200,137,198,200,199,205,263,138,136,205,263,135,201,201,199,205,71,136,205,140,139,71,264,72,200,138,137,200,137,263,205,135,201,135,199,136,136,140,71,139,138,71,72,136,263,139,263,199,139,201,264,139,140,205,138,136,264,200,135,
136,136,201,136,72,201,200,201,71,200,139,198,201,139,72,135,137,72,264,72,135,201,138,263,140,199,199,137,201,264,72,72,201,72,138,264,71,139,71,140,140,71,135,201,72,264,264,139,205,71,199,263,198,263,72,140,135,201,135,263,140,263,264,264,205,205,200,139,200,264,71,201,263,136,200,136,205,198,199,137,205,140,135,71,201,137,71,140,138,205,135,135,137,136,135,137,72,264,137,198,
72,198,137,136,198,201,205,199,198,71,135,199,264,264,135,201,263,140,205,205,139,137,199,136,199,205,71,201,138,200,200,264,135,72,200,201,139,201,199,72,264,199,136,72,72,199,199,201,72,205,263,263,136,72,135,135,200,138,198,135,200,198,201,140,137,200,263,201,198,139,72,205,72,205,137,135,72,205,137,140,205,200,139,198,137,264,264,136,71,200,198,71,139,199,201,205,201,137,140,72,
139,205,140,135,205,201,137,136,264,199,137,200,139,201,137,71,137,135,205,263,72,200,72,198,200,71,137,137,71,264,199,135,199,71,198,263,135,138,71,140,71,199,139,139,201,263,139,136,200,140,72,135,201,140,264,135,198,140,72,137,199,72,135,138,199,135,199,138,200,139,72,138,135,137,199,201,200,135,139,138,135,71,200,136,263,72,263,200,137,135,200,138,205,135,198,205,263,201,140,140,
264,264,136,138,138,71,71,201,205,140,263,205,135,198,198,71,201,138,72,137,201,264,139,200,71,135,199,198,72,138,199,138,139,140,201,200,263,136,264,136,263,139,198,264,264,199,72,263,200,139,135,199,138,139,200,140,138,135,205,138,135,136,263,71,200,264,264,71,139,198,205,140,137,135,198,139,137,205,199,205,198,138,263,263,136,264,135,205,264,136,72,136,198,200,138,140,264,72,71,139,
199,139,136,201,140,137,139,135,138,71,198,135,137,139,200,264,201,200,136,200,198,263,137,136,200,205,205,263,71,264,205,199,198,140,136,138,263,201,135,139,140,136,139,72,201,201,72,139,136,135,140,199,198,263,71,201,71,137,139,200,72,263,135,137,72,263,205,138,205,136,199,205,205,199,137,199,264,139,138,199,264,264,264,138,263,71,139,136,201,139,264,199,138,264,201,201,205,138,137,198,
72,135,205,71,264,199,200,264,135,72,139,205,264,198,136,135,139,201,139,205,263,135,139,264,201,138,136,199,137,138,205,205,137,205,72,139,136,140,137,71,198,140,140,137,263,71,140,201,71,72,201,140,264,201,136,200,139,198,135,71,72,263,71,136,136,137,138,139,71,71,205,136,135,136,71,136,198,135,205,72,205,200,71,140,201,264,199,264,263,136,138,71,205,71,71,263,72,138,201,136,
138,136,135,264,263,136,72,139,201,198,264,264,199,139,200,199,139,137,135,72,72,205,137,263,264,140,205,199,137,136,264,71,135,140,201,137,198,205,264,135,138,263,205,72,200,139,263,200,71,140,137,263,140,72,138,201,198,201,205,135,198,135,199,198,263,136,135,263,264,136,139,198,140,137,138,135,200,263,201,71,264,199,140,205,264,135,264,72,199,137,200,138,198,71,205,205,137,200,136,136,
205,139,263,199,263,138,139,199,201,198,138,137,72,205,71,138,264,205,263,140,138,199,263,137,136,264,198,72,72,136,135,135,200,263,264,198,201,205,198,138,136,140,264,205,199,205,71,136,136,199,136,136,198,72,139,205,138,264,264,199,72,201,140,263,199,137,205,198,264,264,135,137,72,201,140,198,264,137,264,263,264,201,135,138,264,205,137,199,263,205,264,139,200,205,138,139,138,138,72,72,
135,263,71,135,263,264,140,140,205,139,137,140,140,263,264,71,200,201,71,138,199,198,264,201,199,139,140,263,135,138,264,136,137,137,199,263,198,137,72,140,71,136,201,205,71,71,72,72,201,199,137,140,264,138,137,137,263,264,263,201,139,200,137,264,138,138,139,200,138,263,263,201,205,138,137,71,139,199,71,198,201,72,72,139,135,205,135,71,200,72,264,138,137,136,72,200,135,199,199,71,
264,264,72,136,201,135,138,201,198,264,201,140,71,205,200,135,72,140,198,135,71,198,139,135,198,264,199,71,264,137,198,198,135,71,200,198,205,263,138,136,138,205,264,139,263,139,138,199,136,200,135,205,136,264,137,205,264,137,263,263,264,199,140,71,71,264,264,140,136,138,72,72,200,138,137,199,201,205,200,264,264,140,205,135,140,136,264,198,72,135,205,200,201,199,199,199,201,136,138,71,
72,135,200,136,138,139,264,71,137,264,263,201,139,199,201,137,139,200,72,199,138,135,205,198,200,140,136,200,263,71,199,137,139,199,135,136,263,138,136,198,137,199,201,137,136,263,137,136,205,199,71,138,135,138,135,198,140,138,263,200,199,263,198,135,138,263,198,135,135,263,264,264,138,139,72,139,198,199,138,198,201,263,136,135,205,198,71,264,72,263,198,201,71,136,135,139,198,264,199,205,
72,139,71,200,198,72,264,71,201,199,135,199,198,264,199,139,198,72,72,264,138,199,139,71,71,71,199,137,264,263,136,205,71,71,140,139,198,137,138,135,205,140,72,199,264,264,263,71,140,135,201,201,201,136,200,138,137,200,264,140,71,135,135,140,72,200,263,201,138,139,136,205,72,140,72,199,201,198,71,199,136,205,135,135,135,137,199,201,137,139,71,198,263,138,139,200,200,263,263,263,
199,140,137,199,198,200,136,200,139,71,71,264,263,138,138,135,136,264,201,137,135,200,198,139,263,140,135,201,198,201,139,201,200,71,263,200,200,139,139,136,264,199,71,200,199,199,200,72,71,205,205,138,139,137,138,137,200,140,199,136,138,139,140,201,72,72,205,72,136,264,140,264,137,198,198,72,140,201,135,263,139,72,136,137,205,71,135,138,264,263,140,205,135,264,200,138,200,72,137,199,
200,140,198,201,138,139,72,137,198,198,263,71,205,139,140,199,199,139,136,137,201,264,200,140,136,205,72,138,201,140,198,140,139,199,137,199,200,138,71,263,198,136,137,72,71,135,263,264,72,264,200,136,72,137,205,138,198,139,137,264,264,201,205,200,264,200,71,71,201,264,136,205,135,138,198,263,201,137,263,139,264,136,199,138,71,140,139,263,205,71,72,264,199,136,140,200,264,137,72,71,
264,199,205,71,201,139,138,264,199,136,140,139,199,264,139,205,205,205,200,136,199,201,72,264,263,139,71,138,201,71,71,199,139,137,136,198,136,140,264,264,136,138,205,198,198,139,205,72,205,198,139,201,139,198,72,137,135,205,137,200,199,201,72,136,264,201,199,72,205,71,136,205,263,200,138,263,198,198,205,263,71,140,264,263,140,264,198,264,200,72,139,138,137,136,136,135,140,201,198,140,
138,138,201,137,205,136,137,139,263,205,198,139,71,205,137,72,71,263,200,200,199,72,71,263,71,71,198,71,198,72,264,205,264,198,140,205,136,140,200,200,140,201,205,72,139,135,138,139,136,138,263,201,199,140,139,263,135,139,200,139,72,135,72,136,264,135,139,136,139,135,140,201,201,201,140,200,198,72,139,137,200,135,264,137,199,205,137,136,72,71,136,135,139,199,135,135,201,136,264,71,
201,263,137,135,137,205,264,200,138,137,135,205,198,135,263,140,200,205,139,136,205,138,136,198,264,263,205,140,200,140,138,201,198,72,264,205,200,136,135,199,135,140,72,200,140,71,72,264,135,135,200,264,72,201,263,199,71,137,136,71,72,137,136,139,264,198,264,72,200,138,140,264,205,199,136,137,201,139,139,264,198,140,205,200,198,201,140,205,205,72,201,137,71,263,263,137,264,205,137,263,
201,264,137,137,198,200,198,71,199,264,263,263,198,201,137,264,198,137,205,201,136,201,136,200,140,137,135,200,199,135,199,264,136,136,264,71,198,264,199,205,136,200,200,201,201,135,139,263,200,135,140,71,200,199,140,139,140,72,140,135,136,200,200,136,199,264,199,201,140,135,138,199,139,140,138,71,71,140,138,198,135,263,71,264,200,72,136,199,135,199,264,198,139,139,136,200,139,198,199,198,
200,137,198,263,135,199,136,72,72,205,71,71,199,136,72,200,198,71,201,71,263,201,139,205,136,200,140,72,136,71,137,139,135,205,200,199,138,135,264,71,72,198,138,140,199,71,264,140,135,198,135,137,198,140,138,71,137,198,139,136,198,205,263,72,263,264,198,138,264,72,135,199,140,71,263,198,139,139,263,263,140,138,201,198,201,263,135,135,264,263,139,264,263,200,263,200,205,263,138,198,
135,201,135,139,199,205,137,136,201,199,135,71,263,71,138,264,140,71,136,138,137,71,201,71,201,198,137,139,135,264,198,140,200,72,139,263,71,72,201,205,205,135,139,201,136,72,137,264,71,264,138,199,201,140,263,198,201,139,201,201,140,205,135,264,137,200,72,135,200,264,137,198,72,136,199,200,201,200,198,137,201,71,263,199,138,137,136,71,72,199,198,139,205,71,137,140,199,198,136,139,
138,136,140,205,135,200,137,198,198,72,138,264,137,198,136,201,198,71,139,138,201,264,198,139,200,201,264,263,135,138,200,137,138,138,200,139,136,198,71,263,136,71,71,198,264,264,205,139,201,139,72,135,199,71,199,136,199,200,200,135,205,263,201,199,199,198,136,263,139,198,139,137,199,140,198,198,137,199,198,140,205,263,71,200,136,139,263,205,201,136,137,198,137,71,138,139,72,72,201,137,
139,139,72,200,72,263,199,198,135,140,137,140,264,137,71,201,71,199,201,135,137,198,263,199,198,72,199,135,205,71,139,72,137,140,137,200,136,263,135,198,205,264,201,71,263,138,200,263,135,137,137,139,71,71,205,199,71,199,263,201,137,264,138,136,137,137,137,263,263,137,205,140,198,138,263,199,137,135,263,71,72,205,140,264,205,198,139,198,137,140,264,136,135,138,138,198,264,201,72,71,
200,264,263,200,137,138,140,263,200,264,201,198,199,140,140,199,138,201,201,72,140,199,140,71,264,200,263,137,264,199,138,137,140,199,140,199,137,200,263,135,200,201,200,198,263,264,263,201,199,201,138,263,205,201,200,72,263,140,198,205,205,200,199,198,137,140,136,140,139,137,71,139,201,135,71,138,199,201,136,71,139,263,136,135,136,137,200,198,139,198,136,72,72,140,137,137,137,137,137,138,
140,201,135,138,139,263,201,135,135,205,200,138,200,136,139,205,138,200,72,71,205,263,135,200,139,201,199,136,135,136,72,71,199,138,198,136,137,72,136,140,264,71,264,72,199,198,139,136,200,71,72,138,199,71,72,71,205,140,137,136,72,135,263,198,199,205,201,140,71,72,140,140,200,135,198,263,135,200,205,200,135,138,199,71,200,140,201,199,135,135,137,140,71,139,264,71,198,199,136,138,
140,138,140,200,201,264,199,201,264,200,205,71,201,72,200,263,136,135,205,199,199,264,139,138,139,199,205,137,139,139,205,264,72,72,72,139,140,201,263,137,136,200,138,198,264,263,199,205,199,135,138,263,139,72,71,200,264,198,139,135,201,72,200,264,135,71,138,136,201,263,136,138,198,264,199,264,264,201,136,135,264,264,198,264,198,138,140,264,264,71,136,198,135,139,199,198,136,139,136,264,
136,264,201,72,72,136,263,201,263,199,201,200,136,200,140,205,263,135,198,198,137,138,136,200,71,264,138,71,135,139,137,264,263,71,199,201,72,198,264,137,136,140,72,201,140,139,135,201,200,263,263,71,198,136,72,135,199,201,137,72,205,135,200,264,199,138,199,135,205,205,205,198,199,198,138,71,264,139,139,137,135,71,205,198,72,205,199,198,72,71,72,264,263,140,135,140,201,205,138,201,
199,263,263,138,264,135,200,200,200,263,140,136,205,200,205,264,199,200,198,137,72,136,72,205,72,71,205,137,205,198,71,137,200,136,198,198,138,201,201,135,263,264,201,205,264,200,200,138,199,201,72,72,199,199,200,205,138,198,264,264,199,199,137,140,71,138,198,138,263,136,136,264,136,71,137,199,136,139,198,200,139,201,138,136,135,199,72,199,199,200,201,71,138,140,71,138,71,263,264,137,
263,71,198,205,139,140,263,139,135,136,137,200,140,263,200,199,198,72,139,72,198,139,264,198,139,201,198,199,135,199,139,140,139,72,72,198,199,264,199,198,264,200,201,139,135,201,201,135,72,200,136,264,199,140,71,137,137,135,200,138,71,140,198,201,199,72,71,205,200,72,199,71,205,135,200,201,71,137,138,71,139,263,263,138,198,140,200,136,139,199,135,263,138,264,263,264,264,135,72,200,
138,137,139,136,137,264,140,72,139,135,135,135,200,201,135,201,140,264,140,136,205,139,135,199,137,137,72,140,137,205,135,71,138,72,137,139,138,200,138,136,264,199,200,135,71,198,138,135,263,71,135,137,135,205,72,135,72,198,199,138,72,264,72,198,135,138,71,135,201,137,199,264,140,200,201,264,199,135,199,264,200,201,72,263,199,264,205,136,205,71,198,199,140,264,137,72,139,200,137,138,
200,137,71,135,263,263,263,138,137,139,138,136,138,140,263,200,263,264,139,71,138,136,201,135,139,264,135,264,198,264,140,140,139,71,135,138,201,136,199,139,135,264,263,205,140,198,71,71,137,136,136,200,72,140,263,71,201,200,263,140,137,201,198,205,205,263,140,140,140,200,72,140,205,139,264,135,198,264,139,72,138,135,199,201,72,264,199,264,72,136,201,140,198,205,71,199,199,205,138,135,
139,263,198,264,205,137,71,201,263,205,205,139,138,140,201,72,71,138,200,198,201,72,205,201,198,136,200,136,200,263,264,71,139,139,139,137,199,205,136,138,198,71,139,139,198,71,138,139,264,140,205,135,135,136,136,71,71,263,72,135,201,136,198,72,201,200,199,137,137,198,139,135,200,139,198,138,198,140,139,264,198,198,71,264,139,136,140,263,205,198,71,140,137,139,198,198,72,201,139,72,
137,139,140,201,72,71,138,135,263,72,137,199,264,205,72,136,138,199,264,200,140,139,135,135,200,72,71,264,137,137,138,263,136,135,199,205,205,137,198,137,263,71,71,139,199,263,199,140,139,137,71,264,205,136,198,199,263,138,201,205,135,264,136,72,139,138,264,135,138,198,140,264,136,198,264,205,140,136,138,263,139,138,198,138,198,71,139,136,138,200,72,139,140,135,136,198,264,72,263,139,
136,200,137,200,140,72,137,198,139,135,138,135,138,135,264,135,71,263,201,263,139,201,135,135,199,136,136,135,139,139,138,140,205,138,140,139,136,140,205,72,71,200,135,139,138,71,205,205,205,136,71,198,71,264,139,135,264,200,140,201,72,201,200,138,135,205,140,138,264,200,138,200,205,199,136,263,139,205,136,199,263,135,135,199,140,200,205,138,71,199,137,71,198,201,71,137,205,135,135,199,
139,263,139,71,72,136,138,136,136,263,201,201,140,263,200,140,264,136,198,140,137,135,136,205,140,136,264,135,205,198,198,201,135,138,264,264,136,138,138,198,71,263,140,140,264,205,205,201,71,198,199,201,72,72,72,198,200,137,72,201,135,140,137,137,135,135,199,264,71,138,200,199,137,200,201,200,200,198,201,140,200,71,264,201,263,135,72,140,71,200,263,137,136,139,139,198,136,71,200,140,
139,138,139,136,140,264,136,135,140,138,138,199,139,263,137,136,264,136,136,205,72,198,263,263,71,135,136,205,198,205,139,72,72,198,201,263,200,139,263,140,139,263,140,199,71,140,198,198,135,201,137,205,263,263,263,201,140,201,135,205,135,199,264,140,136,264,136,200,198,140,263,135,140,137,199,200,205,264,198,263,205,137,201,138,200,200,136,199,263,205,264,139,71,263,199,198,136,139,138,140,
205,71,264,140,205,140,140,139,139,199,264,199,71,140,205,140,72,263,199,137,140,264,201,264,138,205,264,264,138,139,137,135,72,136,205,138,199,72,198,136,201,199,264,201,72,201,198,198,139,135,135,200,137,71,71,136,205,72,205,137,72,136,201,136,201,199,201,72,140,135,201,263,136,140,72,201,198,201,71,140,140,137,139,198,198,201,205,71,139,201,136,136,137,135,137,205,71,205,263,205,
199,139,263,140,71,72,72,135,137,136,140,140,205,263,71,263,201,201,72,136,71,205,137,199,140,71,198,138,264,137,135,71,264,205,135,138,139,199,72,263,198,140,198,200,137,139,201,200,140,138,140,263,205,137,72,71,71,138,136,205,140,263,198,138,201,264,138,138,200,200,205,72,71,199,139,198,137,72,140,264,135,137,72,135,263,264,137,138,140,200,137,200,199,200,71,137,139,264,139,201,
140,140,199,136,264,200,200,138,200,135,72,264,264,264,135,138,200,264,71,200,72,140,201,201,264,71,139,198,200,72,137,140,205,137,199,200,136,199,72,136,136,199,137,137,136,71,72,72,137,140,263,198,139,201,200,200,263,263,199,264,263,137,138,135,71,198,201,198,199,200,135,137,199,135,264,205,200,198,198,199,198,71,198,198,200,136,140,198,199,137,198,263,198,201,136,205,71,205,200,135,
72,263,200,263,198,140,71,137,201,138,140,205,198,199,140,135,198,140,136,264,135,199,139,205,137,200,263,205,198,200,205,71,205,263,200,137,135,71,136,135,198,137,137,136,201,72,72,140,136,136,72,140,72,201,137,138,201,137,140,136,200,136,263,72,200,264,139,198,198,264,205,138,263,140,264,140,205,72,135,263,205,140,205,136,135,138,139,140,198,135,135,140,205,264,198,136,71,140,200,198,
201,198,264,200,139,138,201,264,136,199,71,140,71,199,201,71,138,200,72,201,135,135,136,200,71,138,199,139,199,72,136,264,205,205,200,263,71,72,138,198,199,263,72,199,198,137,71,198,135,263,199,136,199,264,137,200,139,139,137,138,263,140,199,136,198,198,139,71,72,263,71,198,139,140,71,263,72,199,263,140,139,198,135,201,201,139,136,71,200,72,263,198,201,201,200,198,198,137,264,201,
199,71,201,135,138,136,198,199,139,199,140,205,138,137,72,200,138,201,263,140,72,136,200,138,71,138,136,137,140,135,139,139,205,263,263,140,135,200,200,205,138,139,135,198,140,198,264,200,199,201,136,137,205,200,201,263,263,140,264,135,200,140,139,138,71,198,201,140,138,264,199,72,138,263,137,199,205,135,71,199,199,71,137,72,199,139,138,72,200,201,138,200,138,136,136,137,139,201,138,139,
205,135,201,71,135,136,201,72,263,140,199,263,135,137,200,200,135,137,263,137,198,198,200,136,138,205,136,138,140,264,199,135,71,201,135,72,199,139,140,137,199,201,205,71,71,138,140,264,264,205,200,140,72,201,263,140,263,264,138,264,137,198,198,140,205,138,138,264,201,199,199,138,140,198,200,72,205,263,136,139,201,263,136,264,140,200,205,71,264,72,72,138,263,135,139,71,140,136,140,199,
264,137,135,201,137,263,198,198,139,263,199,138,198,136,71,139,199,140,72,71,200,136,137,199,140,72,264,263,263,200,263,201,72,201,137,205,71,201,138,199,205,198,200,136,198,200,136,200,264,138,135,205,72,263,72,205,263,140,263,71,135,139,139,136,205,139,71,71,140,201,138,137,71,136,263,198,135,140,135,199,199,136,137,263,72,263,198,198,199,200,200,201,264,135,200,139,201,200,198,264,
201,201,136,140,136,200,137,138,201,200,264,135,139,137,263,137,139,136,198,205,205,140,72,200,201,201,200,205,264,72,199,72,135,138,71,201,200,71,138,139,199,138,71,199,138,140,137,139,72,200,135,137,205,263,201,264,264,139,263,263,205,138,138,138,135,136,72,201,138,72,139,198,72,71,200,135,199,205,199,264,201,71,137,201,264,264,200,198,205,137,199,200,199,201,139,199,200,205,263,263,
139,201,200,205,137,140,205,140,198,198,72,198,201,201,200,139,137,140,199,138,135,199,205,136,138,72,140,137,135,264,198,198,263,140,140,136,135,139,264,199,72,200,205,264,139,136,264,139,198,201,201,136,72,71,205,198,72,71,136,205,139,205,200,137,198,263,264,198,140,205,135,199,199,135,138,137,200,72,135,205,137,263,140,199,71,199,264,205,264,140,71,201,139,200,136,71,205,205,140,263,
201,201,198,263,199,205,138,138,140,139,198,138,201,71,72,135,72,201,72,201,135,72,205,71,264,71,139,205,205,199,139,136,136,139,201,135,199,201,264,200,199,264,264,140,71,136,201,138,135,136,71,199,136,72,72,264,71,136,139,136,198,200,264,199,136,139,139,139,140,198,139,199,140,72,263,72,138,138,139,140,140,264,264,136,72,198,199,200,140,263,135,136,264,136,72,200,71,198,201,200,
136,135,136,72,138,198,200,135,201,140,137,263,200,140,140,140,135,136,264,136,200,198,140,136,139,136,72,136,198,72,198,72,138,135,264,72,136,137,263,72,72,137,137,137,198,199,137,71,135,71,139,263,137,136,72,139,264,201,201,140,139,140,264,136,135,199,137,136,135,140,198,139,139,137,139,263,140,140,199,137,136,72,200,205,72,200,140,263,140,199,135,198,198,138,263,71,136,198,263,264,
199,136,138,139,264,139,71,137,263,263,199,136,72,200,137,205,136,71,198,138,199,139,71,135,139,138,263,199,135,71,140,205,72,72,205,72,140,200,264,71,71,71,71,205,140,263,71,201,135,200,200,200,201,140,140,201,71,137,199,136,199,137,264,263,263,138,72,263,199,201,71,199,200,138,199,199,71,264,201,201,140,137,140,136,72,140,198,199,199,200,138,135,201,137,72,205,198,200,198,205,
198,264,198,201,205,137,263,72,136,138,140,201,200,138,136,72,137,72,72,264,135,263,200,135,71,263,72,205,135,200,201,201,138,264,136,264,263,136,140,199,201,199,72,139,136,205,205,263,72,136,205,135,138,136,200,71,136,135,263,200,198,201,263,263,71,201,199,205,136,205,71,72,205,205,135,135,72,198,139,140,140,263,138,135,138,135,135,201,263,198,71,199,263,137,136,140,263,72,139,138,
71,198,201,136,72,201,198,264,136,205,136,135,264,136,136,199,72,135,138,264,263,135,200,137,137,137,137,137,138,264,198,139,137,136,139,135,72,139,139,201,139,264,139,135,200,139,135,137,140,263,200,263,138,135,139,201,140,201,136,138,139,137,72,72,71,264,71,264,263,263,71,263,200,135,137,135,140,72,264,71,205,140,136,199,205,136,205,138,137,140,205,135,205,136,201,200,201,198,199,71,
205,199,137,200,140,139,205,263,72,205,200,140,137,205,71,137,72,201,263,137,72,263,198,138,264,205,138,136,72,201,263,264,71,199,199,138,137,263,198,201,205,135,200,140,135,205,140,264,264,135,72,138,200,140,201,263,140,205,264,140,140,72,200,199,198,72,137,135,140,138,200,201,201,205,71,264,139,138,140,135,140,201,135,200,205,138,201,139,205,71,138,72,135,136,263,264,137,135,72,198,
205,135,199,205,71,201,138,139,72,205,137,198,72,198,199,139,135,138,198,137,200,139,199,140,205,135,135,140,199,139,71,205,139,136,139,135,200,201,205,198,135,137,139,199,264,199,205,201,71,71,71,199,135,136,264,199,72,135,136,264,263,263,200,71,263,140,72,138,264,136,137,136,200,138,135,199,201,138,140,140,72,135,140,263,198,201,200,200,71,136,138,198,138,140,198,263,136,135,140,199,
138,201,136,135,139,205,198,205,201,198,72,198,201,205,140,199,137,139,138,200,140,199,198,264,138,263,135,199,71,72,140,72,140,205,264,72,137,137,139,199,199,137,135,200,136,135,137,135,205,135,140,140,136,263,140,205,137,199,264,201,264,136,72,138,140,201,135,198,263,138,71,140,136,139,200,264,72,199,135,200,263,205,264,201,136,264,72,139,201,139,264,199,72,72,205,263,72,71,138,264,
200,198,140,200,139,139,263,201,140,139,263,198,201,200,205,263,199,201,198,198,201,137,140,201,71,72,263,136,135,205,205,137,139,138,205,136,140,199,264,140,138,137,139,138,139,138,198,263,200,137,201,140,198,205,264,139,205,264,139,205,136,201,200,205,200,140,135,201,200,264,201,205,72,263,198,137,198,264,264,205,263,72,72,71,140,138,263,71,200,263,198,140,138,264,136,138,136,201,264,205,
138,200,263,201,264,71,200,205,138,135,138,136,201,205,205,201,199,199,263,138,263,136,139,205,135,264,264,264,138,264,138,136,263,198,139,136,139,140,137,263,135,72,138,140,72,264,264,71,72,199,264,137,205,140,264,135,205,138,201,200,201,138,199,140,135,199,140,71,135,200,138,200,200,263,140,205,72,135,137,71,264,139,138,205,205,198,200,264,137,198,200,135,135,138,198,205,264,201,140,135,
201,140,198,201,135,136,200,137,139,135,205,263,137,263,263,138,135,140,140,201,201,205,264,136,136,135,198,263,139,72,71,200,140,140,136,263,198,199,72,205,263,71,135,140,137,198,199,140,200,205,200,200,135,71,263,136,136,71,135,205,198,71,264,136,139,137,198,137,199,264,201,205,139,138,201,199,205,71,136,264,138,71,138,136,264,138,139,136,201,138,199,136,135,138,201,71,198,264,138,263,
139,136,205,140,137,136,138,263,198,135,138,200,263,72,201,264,198,264,205,139,136,137,72,264,201,263,198,137,139,139,138,135,198,139,140,72,140,138,201,198,139,135,137,139,136,200,140,198,263,205,136,205,198,200,139,264,72,137,138,71,71,136,264,140,264,72,201,263,137,71,263,201,201,263,140,138,72,138,72,264,138,200,140,71,264,263,140,199,137,71,136,263,71,205,137,136,72,199,136,137,
136,140,138,137,263,201,200,138,139,201,198,72,72,71,138,201,135,139,140,199,205,199,139,137,200,198,71,139,205,138,199,72,137,71,201,140,205,199,200,135,264,199,137,140,263,137,138,71,139,200,199,140,205,199,135,136,199,200,136,72,72,72,136,135,205,263,199,138,139,263,136,71,135,71,135,198,200,140,140,72,200,263,138,201,137,263,138,199,138,72,263,136,139,139,139,140,201,135,140,139,
201,200,138,264,264,137,72,72,205,139,199,205,140,201,136,136,72,140,205,136,138,137,263,72,199,140,135,140,205,201,264,199,135,264,136,140,264,263,201,263,135,140,263,139,205,135,199,205,137,140,72,198,140,139,72,136,200,140,199,138,138,137,205,136,140,139,199,263,72,263,198,200,135,71,198,139,263,263,199,263,264,135,205,199,200,138,264,138,139,137,201,72,263,198,199,139,201,138,205,135,
135,138,71,72,71,71,137,198,137,135,137,136,139,135,198,135,201,200,205,201,140,135,264,264,138,199,135,137,264,139,139,139,71,135,200,138,198,140,139,264,201,135,135,140,72,72,264,72,205,71,135,205,199,263,140,205,140,140,199,140,199,72,136,137,137,138,263,199,205,140,136,198,138,199,137,198,199,200,205,200,205,200,140,72,199,200,72,263,201,135,264,72,200,138,198,199,140,136,199,201,
140,139,198,140,72,72,198,201,264,137,200,136,139,71,137,263,135,264,139,205,140,136,137,139,71,264,201,198,264,200,200,138,137,205,136,139,71,139,138,140,139,199,135,199,72,137,199,199,140,264,140,137,135,138,71,200,140,139,205,198,139,200,198,205,71,139,136,198,135,140,264,140,137,72,199,136,140,72,263,198,139,136,201,264,139,263,135,72,136,137,71,200,138,138,138,135,136,72,138,201,
135,139,71,71,135,205,263,264,140,198,263,71,137,137,136,199,263,136,72,137,137,136,264,71,136,201,200,135,264,264,135,198,136,138,135,72,137,264,135,201,139,199,139,201,140,200,72,200,200,137,71,205,201,264,135,205,140,264,136,200,72,205,201,140,263,205,140,201,201,72,135,138,135,71,136,263,140,263,138,201,264,201,71,199,136,72,140,137,200,200,140,139,205,137,71,136,139,72,138,200,
200,198,198,71,72,263,72,205,135,200,138,264,137,205,264,137,71,138,205,139,205,205,199,201,140,264,263,136,136,199,140,138,136,264,140,71,72,140,135,136,137,139,136,137,201,72,198,139,201,135,71,137,72,71,72,139,138,72,135,200,264,138,198,137,136,137,135,263,137,199,72,135,139,263,200,138,140,201,263,263,264,140,137,201,137,135,136,135,71,201,263,137,199,263,137,140,137,264,140,199,
201,201,205,138,205,198,138,137,136,264,140,205,137,136,201,199,205,135,264,199,138,71,71,71,137,71,139,71,136,139,140,136,72,201,140,264,200,135,205,137,135,137,205,139,136,71,263,263,199,205,205,138,72,201,136,198,137,198,264,205,140,199,205,138,264,201,140,205,205,137,205,264,138,72,199,198,198,140,138,135,264,137,137,140,198,198,140,201,264,264,264,199,139,72,199,198,135,139,137,201,
139,72,138,201,137,71,200,205,139,135,201,138,71,264,139,199,136,263,263,71,200,138,136,136,137,136,135,198,198,139,135,136,139,201,199,136,140,205,199,72,135,135,200,264,199,139,135,137,264,137,139,201,138,264,201,72,198,264,263,198,72,201,72,199,136,137,139,205,138,137,199,205,205,71,264,200,201,264,137,264,72,72,136,199,137,200,137,72,138,135,198,199,139,205,135,135,72,201,135,205,
199,198,201,200,199,138,205,139,135,198,138,198,72,140,205,136,198,136,139,205,137,205,139,136,135,263,263,264,201,136,139,199,138,263,138,199,263,135,138,72,200,140,201,140,135,199,201,137,205,201,72,264,71,205,138,205,199,200,201,198,137,135,199,201,138,201,71,139,136,138,198,199,136,264,200,136,135,140,136,199,198,137,139,138,140,198,140,136,137,137,140,201,135,72,199,71,139,71,198,72,
264,200,72,263,200,139,199,200,198,205,137,263,138,201,140,139,138,264,71,138,199,137,200,71,263,264,201,136,135,138,71,199,205,71,137,205,205,198,201,72,264,72,200,263,264,201,139,201,199,137,198,140,205,264,136,205,136,136,138,136,138,199,199,138,199,138,205,198,139,137,205,263,140,72,135,72,264,199,264,263,71,137,200,198,205,199,137,139,138,139,264,135,72,135,72,137,72,264,71,137,
198,199,199,205,71,198,71,201,139,200,200,136,201,201,137,264,136,199,201,205,138,135,201,199,264,71,199,137,138,199,198,140,138,139,137,72,263,263,72,71,201,136,72,136,136,71,140,205,135,71,198,140,137,139,264,199,138,140,138,200,198,140,264,264,72,263,138,71,263,201,71,205,200,137,200,264,205,199,136,263,72,139,135,72,138,201,198,140,72,136,198,140,72,139,198,136,140,136,137,71,
263,198,71,135,205,263,263,136,137,138,137,138,137,264,136,138,140,205,200,72,135,138,198,135,263,139,199,263,198,139,199,199,200,137,136,198,139,263,135,205,200,138,263,136,140,200,201,264,137,72,71,137,264,199,201,138,263,135,71,137,71,136,199,263,201,135,198,72,205,198,201,139,140,198,263,71,264,201,205,138,135,198,136,140,263,135,138,205,137,264,136,199,200,263,135,205,199,71,135,72,
71,72,139,139,198,264,136,199,198,135,140,72,136,200,200,264,72,138,198,138,205,71,140,72,199,199,71,138,205,263,140,136,140,71,263,140,205,137,135,136,72,198,136,140,198,136,137,264,205,199,137,135,72,263,205,263,205,137,135,71,139,199,201,138,137,140,199,199,71,138,139,137,199,138,139,199,263,198,198,135,72,199,205,205,140,135,72,139,72,263,263,139,201,137,199,71,137,199,139,140,
264,205,135,135,136,198,137,135,200,71,139,138,72,263,264,199,199,198,198,140,199,201,263,72,264,200,201,205,201,139,263,138,135,139,199,201,198,263,135,139,140,198,72,198,138,139,201,264,263,199,205,201,138,138,140,72,135,139,264,140,200,200,137,135,72,199,140,72,135,201,138,71,72,200,200,263,137,138,198,201,139,205,200,199,205,205,135,140,200,205,136,201,140,199,140,72,139,72,138,140,
135,205,198,139,200,72,136,138,264,139,140,71,139,205,263,199,137,138,139,201,263,136,198,205,200,263,71,71,138,201,137,135,139,198,137,263,137,140,201,264,138,264,264,137,71,200,71,71,199,201,135,264,136,205,135,140,136,199,263,200,137,199,264,205,200,264,199,138,263,201,199,263,71,201,135,200,138,137,198,264,200,138,71,200,72,140,136,71,135,72,139,137,137,72,201,135,263,199,199,140,
264,72,137,71,71,137,200,137,200,136,71,71,200,135,135,139,139,72,72,138,199,138,201,200,71,200,263,135,205,140,72,198,201,205,205,263,72,199,264,263,135,198,138,72,199,136,263,200,264,140,138,136,138,138,140,72,137,138,139,72,139,264,263,264,72,135,137,140,140,198,137,198,200,71,72,198,136,139,201,72,200,263,138,263,72,71,199,136,72,201,71,138,205,199,135,136,205,71,199,200,
135,263,264,200,71,137,264,71,198,135,138,198,139,205,72,136,200,139,201,198,136,72,136,139,137,135,139,198,264,136,136,140,198,198,205,199,263,264,205,201,199,139,201,205,71,200,140,140,139,264,135,201,200,139,135,135,205,200,136,138,264,263,199,138,71,198,201,200,263,71,201,137,135,200,72,205,140,140,263,200,71,140,136,138,140,205,139,140,138,205,264,199,264,198,136,198,71,264,138,263,
135,137,135,264,264,137,205,138,199,138,140,136,138,138,136,140,71,140,205,135,137,263,139,140,140,135,71,136,72,71,198,140,263,72,140,139,201,263,199,200,200,139,200,72,137,136,137,198,200,72,263,136,205,201,200,200,139,71,140,71,198,139,137,200,71,140,138,201,136,137,205,137,264,205,205,198,72,139,201,199,264,205,136,137,137,199,72,138,71,198,264,263,205,199,136,135,263,139,138,263,
71,72,199,135,201,201,136,201,136,200,264,137,139,200,198,198,71,71,139,200,139,198,264,135,263,72,199,140,138,71,138,136,199,205,263,200,138,205,205,198,200,200,138,139,263,72,72,263,72,140,71,135,71,201,263,135,199,201,201,263,205,200,138,139,137,198,138,199,205,139,205,263,205,71,137,72,264,205,264,136,137,198,201,201,72,201,139,264,140,72,138,135,140,135,71,201,72,139,198,263,
139,205,201,199,72,140,263,137,139,201,136,205,71,198,198,136,199,137,138,72,139,72,205,205,139,198,198,201,140,140,138,264,136,200,263,263,263,205,200,72,139,135,139,140,140,139,199,139,200,140,138,200,72,135,137,264,264,139,205,264,199,137,72,199,137,72,140,205,199,72,199,140,264,71,137,140,71,71,136,137,138,198,136,198,138,71,200,201,198,199,264,137,72,205,263,200,135,205,72,136,
199,137,263,201,205,263,199,140,205,200,198,201,72,198,140,263,139,72,137,138,140,136,263,264,72,138,136,201,201,138,72,264,199,137,136,263,135,138,71,199,138,139,201,136,264,199,140,200,201,140,263,138,264,137,71,198,135,200,264,140,264,198,138,71,199,263,138,136,199,205,138,200,200,72,72,198,199,139,199,71,198,201,135,140,199,139,201,72,205,140,71,205,137,199,71,137,137,72,201,263,
200,200,72,139,136,263,263,200,71,140,205,201,136,201,264,198,136,263,263,198,137,198,200,135,201,200,263,205,200,263,136,200,264,135,140,199,72,137,201,264,200,136,72,139,199,137,205,264,139,136,199,140,72,264,71,136,138,137,201,71,264,205,205,205,140,71,136,264,199,263,201,205,135,205,198,135,140,135,199,263,205,135,136,136,264,201,264,71,71,205,139,199,264,139,198,201,71,263,200,205,
136,200,72,198,263,263,72,136,72,205,264,72,199,136,199,263,198,200,138,139,198,72,138,263,72,137,201,139,263,71,135,136,138,137,199,263,138,136,200,199,135,140,205,199,138,198,72,135,72,263,198,72,71,198,198,198,139,200,205,135,199,135,200,138,139,137,198,200,263,72,200,198,137,201,136,72,201,205,200,200,198,136,200,136,139,136,135,199,137,205,139,137,139,72,140,205,137,72,263,138,
72,140,139,135,135,71,137,198,135,263,135,72,199,201,72,138,198,140,200,138,139,205,139,205,137,198,72,139,137,135,137,136,136,199,201,201,201,199,72,135,71,264,201,264,201,135,72,71,139,138,72,205,136,199,139,198,201,71,137,139,205,264,200,198,198,140,263,71,139,200,137,136,135,198,264,140,72,136,138,135,139,139,205,139,201,205,136,199,137,140,138,263,138,201,201,264,201,263,71,264,
136,200,71,263,199,140,264,140,135,72,201,140,264,71,201,138,139,264,205,72,135,140,139,139,264,140,136,138,71,263,140,199,264,200,71,137,264,139,135,201,136,138,198,205,136,201,139,137,71,201,264,263,140,136,136,72,137,140,198,140,198,263,135,201,263,135,264,198,136,201,264,136,200,200,264,263,135,138,200,71,137,140,200,264,264,198,139,201,138,198,199,136,140,138,199,200,200,199,72,140,
263,140,139,139,264,140,263,199,137,71,72,136,137,137,140,263,136,198,201,137,136,205,264,139,198,263,263,264,264,205,71,200,201,139,201,135,205,135,201,198,205,263,264,198,72,201,72,264,71,135,139,199,201,205,200,136,264,140,71,136,136,263,71,140,199,71,137,264,136,136,136,140,136,198,72,72,198,72,137,263,201,198,137,135,135,263,200,139,135,140,137,264,205,199,263,199,136,205,205,138,
201,199,135,72,136,135,136,198,135,205,263,198,140,140,205,139,199,135,139,200,138,263,140,136,136,136,72,200,136,198,201,135,264,136,199,140,135,200,136,71,137,198,137,199,199,136,136,201,139,264,71,198,135,139,201,199,201,137,138,140,264,136,200,71,263,138,72,136,135,200,199,139,72,200,205,201,264,140,72,136,200,264,137,198,139,205,198,263,140,205,263,198,200,263,72,264,263,201,264,140,
72,201,138,205,199,138,201,200,205,205,264,264,198,198,137,135,205,198,138,199,140,71,136,263,198,263,201,199,71,199,138,205,139,205,135,137,198,138,71,135,199,137,135,139,72,136,198,263,198,136,71,199,139,137,138,200,136,138,72,136,138,199,263,72,137,136,201,72,198,200,136,139,72,205,199,263,71,201,137,138,137,135,200,199,139,140,139,72,139,263,200,72,136,205,205,138,72,199,199,198,
136,201,139,71,263,136,205,72,200,199,200,263,264,136,136,264,200,200,137,201,140,136,71,263,200,199,136,71,198,198,71,199,205,138,139,201,200,136,201,263,137,199,72,201,140,198,71,198,205,263,139,138,135,137,264,201,137,199,263,71,137,263,72,71,198,139,201,135,135,139,138,263,137,136,264,199,136,200,198,140,201,205,199,205,71,135,137,72,71,136,264,201,201,139,198,138,138,139,72,139,
138,72,136,140,139,200,138,205,137,71,72,264,198,264,263,201,200,200,139,71,139,71,140,136,140,71,139,137,263,201,140,264,263,198,135,140,205,71,136,264,198,136,198,200,200,205,139,199,137,199,72,198,138,264,136,139,138,263,71,264,199,140,135,135,263,72,72,136,71,198,264,200,198,71,140,205,138,198,199,72,198,201,199,71,205,140,200,71,72,263,72,140,264,200,138,137,136,201,138,205,
199,72,205,71,138,200,140,198,136,199,263,200,264,201,72,71,137,140,139,201,264,200,136,201,136,136,139,139,200,199,135,264,140,139,72,72,140,264,263,198,137,199,201,199,264,263,263,263,199,199,137,137,201,72,205,205,137,201,264,140,71,137,201,137,200,135,136,199,205,71,135,137,205,263,135,71,205,140,138,138,137,201,199,199,198,205,198,135,139,263,201,136,135,205,72,200,264,138,138,136,
135,135,264,138,205,263,136,201,198,198,139,205,264,201,205,200,138,205,71,138,72,71,200,263,138,198,137,137,71,201,200,71,138,264,201,138,135,139,135,138,263,263,264,205,200,264,205,200,139,72,199,72,199,139,198,135,139,138,198,205,198,136,139,205,135,200,263,72,264,200,72,135,205,139,263,139,137,205,199,136,205,205,135,263,199,71,139,139,201,137,264,200,138,138,137,205,199,139,198,199,
201,138,138,199,137,140,71,137,138,72,137,139,140,72,263,137,136,137,72,135,135,263,199,139,199,137,135,264,201,198,135,205,264,200,135,136,138,139,264,205,264,205,71,136,137,263,205,200,71,263,138,135,138,264,198,198,139,138,140,200,201,199,200,135,201,137,137,201,135,198,71,136,138,199,71,264,72,71,71,200,201,198,71,200,199,200,71,135,200,136,138,200,137,200,263,200,135,200,72,198,
201,264,140,139,139,198,263,72,135,72,205,201,201,135,263,205,201,263,199,263,200,263,205,71,263,136,198,137,200,140,201,135,71,263,199,138,138,71,199,71,205,200,199,199,137,198,137,138,72,199,138,137,264,138,71,138,136,136,136,138,140,140,205,263,263,140,199,139,201,71,137,72,139,72,139,139,137,263,139,137,200,136,139,140,140,263,201,199,135,263,140,205,199,72,263,198,198,139,199,205,
140,263,138,200,137,139,136,199,72,200,140,136,71,200,71,263,138,71,264,140,140,137,135,263,137,201,264,138,198,264,205,264,135,200,205,200,138,71,264,137,71,139,198,263,200,198,136,71,137,72,198,200,140,201,71,200,140,201,135,71,198,198,205,138,140,198,139,138,72,135,71,199,71,140,198,138,198,139,263,201,139,201,264,205,72,201,138,139,71,201,138,136,139,264,71,199,135,199,138,71
</data>
 </layer>
 <layer id="2" name="ground_details" width="100" height="100">
  <data encoding="csv">
0,0,0,0,0,0,0,0,0,0,0,0,0,0,0,0,0,0,0,0,0,0,0,0,0,0,0,0,0,0,0,0,0,0,0,0,0,0,0,0,0,0,0,0,0,0,0,0,0,0,0,0,0,0,0,0,0,0,0,0,0,0,0,0,0,0,0,0,0,0,0,0,0,0,0,0,0,0,0,0,0,0,0,0,0,0,0,0,0,0,0,0,0,0,0,0,0,0,0,0,
0,0,0,0,0,0,0,0,0,0,0,0,0,0,0,0,0,0,0,0,0,0,0,0,0,0,0,0,0,0,0,0,0,0,0,0,0,0,0,0,0,0,0,0,0,0,0,0,0,0,0,0,0,0,0,0,0,0,0,0,0,0,0,0,0,0,0,0,0,0,0,0,0,0,0,0,0,0,0,0,0,0,0,0,0,0,0,0,0,0,0,0,0,0,0,0,0,0,0,0,
0,0,0,0,0,0,0,0,0,0,0,0,0,0,0,0,0,0,0,0,0,0,0,0,0,0,0,0,0,0,0,0,0,0,0,0,0,0,0,0,0,0,0,0,0,0,0,0,0,0,0,0,0,0,0,0,0,0,0,0,0,0,0,0,0,0,0,0,0,0,0,0,0,0,0,0,0,0,0,0,0,0,0,0,0,0,0,0,0,0,0,0,0,0,0,0,0,0,0,0,
0,0,0,0,0,0,0,0,0,0,0,0,0,0,0,0,0,0,0,0,0,0,0,0,0,0,0,0,0,0,0,0,0,0,0,0,0,0,0,0,0,0,0,0,0,0,0,0,0,0,0,0,0,0,0,0,0,0,0,0,0,0,0,0,0,0,0,0,0,0,0,0,0,0,0,0,0,0,0,0,0,0,0,0,0,0,0,0,0,0,0,0,0,0,0,0,0,0,0,0,
0,0,0,0,0,0,0,0,0,0,0,0,0,0,0,0,0,0,0,0,0,0,0,0,0,0,0,0,0,0,0,0,0,0,0,0,0,0,0,0,0,0,0,0,0,0,0,0,0,0,0,0,0,0,0,0,0,0,0,0,0,0,0,0,0,0,0,0,0,0,0,0,0,0,0,0,0,0,0,0,0,0,0,0,0,0,0,0,0,0,0,0,0,0,0,0,0,0,0,0,
0,0,0,0,0,0,0,0,0,0,0,0,0,0,0,0,0,0,0,0,0,0,0,0,0,0,0,0,0,0,0,0,0,0,0,0,0,0,0,0,0,0,0,0,0,0,0,0,0,0,0,0,0,0,0,0,0,0,0,0,0,0,0,0,0,0,0,0,0,0,0,0,0,0,0,0,0,0,0,0,0,0,0,0,0,0,0,0,0,0,0,0,0,0,0,0,0,0,0,0,
0,0,0,0,0,0,0,0,0,0,0,0,0,0,0,0,0,0,0,0,0,0,0,0,0,0,0,0,0,0,0,0,0,0,0,0,0,0,0,0,0,0,0,0,0,0,0,0,0,0,0,0,0,0,0,0,0,0,0,0,0,0,0,0,0,0,0,0,0,0,0,0,0,0,0,0,0,0,0,0,0,0,0,0,0,0,0,0,0,0,0,0,0,0,0,0,0,0,0,0,
0,0,0,0,0,0,0,0,0,0,0,0,0,0,0,0,0,0,0,0,0,0,0,0,0,0,0,0,0,0,0,0,0,0,0,0,0,0,0,0,0,0,0,0,0,0,0,0,0,0,0,0,0,0,0,0,0,0,0,0,0,0,0,0,0,0,0,0,0,0,0,0,0,0,0,0,0,0,0,0,0,0,0,0,0,0,0,0,0,0,0,0,0,0,0,0,0,0,0,0,
0,0,0,0,0,0,0,0,0,0,0,0,0,0,0,0,0,0,0,0,0,0,0,0,0,0,0,0,0,0,0,0,0,0,0,0,0,0,0,0,0,0,0,0,0,0,0,0,0,0,0,0,0,0,0,0,0,0,0,0,0,0,0,0,0,0,0,0,0,0,0,0,0,0,0,0,0,0,0,0,0,0,0,0,0,0,0,0,0,0,0,0,0,0,0,0,0,0,0,0,
0,0,0,0,0,0,0,0,0,0,0,0,0,0,0,0,0,0,0,0,0,0,0,0,0,0,0,0,0,0,0,0,0,0,0,0,0,0,0,0,0,0,0,0,0,0,0,0,0,0,0,0,0,0,0,0,0,0,0,0,0,0,0,0,0,0,0,0,0,0,0,0,0,0,0,0,0,0,0,0,0,0,0,0,0,0,0,0,0,0,0,0,0,0,0,0,0,0,0,0,
0,0,0,0,0,0,0,0,0,0,0,0,0,0,0,0,0,0,0,0,0,0,0,0,0,0,0,0,0,0,0,0,0,0,0,0,0,0,0,0,0,0,0,0,0,0,0,0,0,0,0,0,0,0,0,0,0,0,0,0,0,0,0,0,0,0,0,0,0,0,0,0,0,0,0,0,0,0,0,0,0,0,0,0,0,0,0,0,0,0,0,0,0,0,0,0,0,0,0,0,
0,0,0,0,0,0,0,0,0,0,0,0,0,0,0,0,0,0,0,0,0,0,0,0,0,0,0,0,0,0,0,0,0,0,0,0,0,0,0,0,0,0,0,0,0,0,0,0,0,0,0,0,0,0,0,0,0,0,0,0,0,0,0,0,0,0,0,0,0,0,0,0,0,0,0,0,0,0,0,0,0,0,0,0,0,0,0,0,0,0,0,0,0,0,0,0,0,0,0,0,
0,0,0,0,0,0,0,0,0,0,0,0,0,0,0,0,0,0,0,0,0,0,0,0,0,0,0,0,0,0,0,0,0,0,0,0,0,0,0,0,0,0,0,0,0,0,0,0,0,0,0,0,0,0,0,0,0,0,0,0,0,0,0,0,0,0,0,0,0,0,0,0,0,0,0,0,0,0,0,0,0,0,0,0,0,0,0,0,0,0,0,0,0,0,0,0,0,0,0,0,
0,0,0,0,0,0,0,0,0,0,0,0,0,0,0,0,0,0,0,0,0,0,0,0,0,0,0,0,0,0,0,0,0,0,0,0,0,0,0,0,0,0,0,0,0,0,0,0,0,0,0,0,0,0,0,0,0,0,0,0,0,0,0,0,0,0,0,0,0,0,0,0,0,0,0,0,0,0,0,0,0,0,0,0,0,0,0,0,0,0,0,0,0,0,0,0,0,0,0,0,
0,0,0,0,0,0,0,0,0,0,0,0,0,0,0,0,0,0,0,0,0,0,0,0,0,0,0,0,0,0,0,0,0,0,0,0,0,0,0,0,0,0,0,0,0,0,0,0,0,0,0,0,0,0,0,0,0,0,0,0,0,0,0,0,0,0,0,0,0,0,0,0,0,0,0,0,0,0,0,0,0,0,0,0,0,0,0,0,0,0,0,0,0,0,0,0,0,0,0,0,
0,0,0,0,0,0,0,0,0,0,0,0,0,0,0,0,0,0,0,0,0,0,0,0,0,0,0,0,0,0,0,0,0,0,0,0,0,0,0,0,0,0,0,0,0,0,0,0,0,0,0,0,0,0,0,0,0,0,0,0,0,0,0,0,0,0,0,0,0,0,0,0,0,0,0,0,0,0,0,0,0,0,0,0,0,0,0,0,0,0,0,0,0,0,0,0,0,0,0,0,
0,0,0,0,0,0,0,0,0,0,0,0,0,0,0,0,0,0,0,0,0,0,0,0,0,0,0,0,0,0,0,0,0,0,0,0,0,0,0,0,0,0,0,0,0,0,0,0,0,0,0,0,0,0,0,0,0,0,0,0,0,0,0,0,0,0,0,0,0,0,0,0,0,0,0,0,0,0,0,0,0,0,0,0,0,0,0,0,0,0,0,0,0,0,0,0,0,0,0,0,
0,0,0,0,0,0,0,0,0,0,0,0,0,0,0,0,0,0,0,0,0,0,0,0,0,0,0,0,0,0,0,0,0,0,0,0,0,0,0,0,0,0,0,0,0,0,0,0,0,0,0,0,0,0,0,0,0,0,0,0,0,0,0,0,0,0,0,0,0,0,0,0,0,0,0,0,0,0,0,0,0,0,0,0,0,0,0,0,0,0,0,0,0,0,0,0,0,0,0,0,
0,0,0,0,0,0,0,0,0,0,0,0,0,0,0,0,0,0,0,0,0,0,0,0,0,0,0,0,0,0,0,0,0,0,0,0,0,0,0,0,0,0,0,0,0,0,0,0,0,0,0,0,0,0,0,0,0,0,0,0,0,0,0,0,0,0,0,0,0,0,0,0,0,0,0,0,0,0,0,0,0,0,0,0,0,0,0,0,0,0,0,0,0,0,0,0,0,0,0,0,
0,0,0,0,0,0,0,0,0,0,0,0,0,0,0,0,0,0,0,0,0,0,0,0,0,0,0,0,0,0,0,0,0,0,0,0,0,0,0,0,0,0,0,0,0,0,0,0,0,0,0,0,0,0,0,0,0,0,0,0,0,0,0,0,0,0,0,0,0,0,0,0,0,0,0,0,0,0,0,0,0,0,0,0,0,0,0,0,0,0,0,0,0,0,0,0,0,0,0,0,
0,0,0,0,0,0,0,0,0,0,0,0,0,0,0,0,0,0,0,0,0,0,0,0,0,0,0,0,0,0,0,0,0,0,0,0,0,0,0,0,0,0,0,0,0,0,0,0,0,0,0,0,0,0,0,0,0,0,0,0,0,0,0,0,0,0,0,0,0,0,0,0,0,0,0,0,0,0,0,0,0,0,0,0,0,0,0,0,0,0,0,0,0,0,0,0,0,0,0,0,
0,0,0,0,0,0,0,0,0,0,0,0,0,0,0,0,0,0,0,0,0,0,0,0,0,0,0,0,0,0,0,0,0,0,0,0,0,0,0,0,0,0,0,0,0,0,0,0,0,0,0,0,0,0,0,0,0,0,0,0,0,0,0,0,0,0,0,0,0,0,0,0,0,0,0,0,0,0,0,0,0,0,0,0,0,0,0,0,0,0,0,0,0,0,0,0,0,0,0,0,
0,0,0,0,0,0,0,0,0,0,0,0,0,0,0,0,0,0,0,0,0,0,0,0,0,0,0,0,0,0,0,0,0,0,0,0,0,0,0,0,0,0,0,0,0,0,0,0,0,0,0,0,0,0,0,0,0,0,0,0,0,0,0,0,0,0,0,0,0,0,0,0,0,0,0,0,0,0,0,0,0,0,0,0,0,0,0,0,0,0,0,0,0,0,0,0,0,0,0,0,
0,0,0,0,0,0,0,0,0,0,0,0,0,0,0,0,0,0,0,0,0,0,0,0,0,0,0,0,0,0,0,0,0,0,0,0,0,0,0,0,0,0,0,0,0,0,0,0,0,0,0,0,0,0,0,0,0,0,0,0,0,0,0,0,0,0,0,0,0,0,0,0,0,0,0,0,0,0,0,0,0,0,0,0,0,0,0,0,0,0,0,0,0,0,0,0,0,0,0,0,
0,0,0,0,0,0,0,0,0,0,0,0,0,0,0,0,0,0,0,0,0,0,0,0,0,0,0,0,0,0,0,0,0,0,0,0,0,0,0,0,0,0,0,0,0,0,0,0,0,0,0,0,0,0,0,0,0,0,0,0,0,0,0,0,0,0,0,0,0,0,0,0,0,0,0,0,0,0,0,0,0,0,0,0,0,0,0,0,0,0,0,0,0,0,0,0,0,0,0,0,
0,0,0,0,0,0,0,0,0,0,0,0,0,0,0,0,0,0,0,0,0,0,0,0,0,0,0,0,0,0,0,0,0,0,0,0,0,0,0,0,0,0,0,0,0,0,0,0,0,0,0,0,0,0,0,0,0,0,0,0,0,0,0,0,0,0,0,0,0,0,0,0,0,0,0,0,0,0,0,0,0,0,0,0,0,0,0,0,0,0,0,0,0,0,0,0,0,0,0,0,
0,0,0,0,0,0,0,0,0,0,0,0,0,0,0,0,0,0,0,0,0,0,0,0,0,0,0,0,0,0,0,0,0,0,0,0,0,0,0,0,0,0,0,0,0,0,0,0,0,0,0,0,0,0,0,0,0,0,0,0,0,0,0,0,0,0,0,0,0,0,0,0,0,0,0,0,0,0,0,0,0,0,0,0,0,0,0,0,0,0,0,0,0,0,0,0,0,0,0,0,
0,0,0,0,0,0,0,0,0,0,0,0,0,0,0,0,0,0,0,0,0,0,0,0,0,0,0,0,0,0,0,0,0,0,0,0,0,0,0,0,0,0,0,0,0,0,0,0,0,0,0,0,0,0,0,0,0,0,0,0,0,0,0,0,0,0,0,0,0,0,0,0,0,0,0,0,0,0,0,0,0,0,0,0,0,0,0,0,0,0,0,0,0,0,0,0,0,0,0,0,
0,0,0,0,0,0,0,0,0,0,0,0,0,0,0,0,0,0,0,0,0,0,0,0,0,0,0,0,0,0,0,0,0,0,0,0,0,0,0,0,0,0,0,0,0,0,0,0,0,0,0,0,0,0,0,0,0,0,0,0,0,0,0,0,0,0,0,0,0,0,0,0,0,0,0,0,0,0,0,0,0,0,0,0,0,0,0,0,0,0,0,0,0,0,0,0,0,0,0,0,
0,0,0,0,0,0,0,0,0,0,0,0,0,0,0,0,0,0,0,0,0,0,0,0,0,0,0,0,0,0,0,0,0,0,0,0,0,0,0,0,0,0,0,0,0,0,0,0,0,0,0,0,0,0,0,0,0,0,0,0,0,0,0,0,0,0,0,0,0,0,0,0,0,0,0,0,0,0,0,0,0,0,0,0,0,0,0,0,0,0,0,0,0,0,0,0,0,0,0,0,
0,0,0,0,0,0,0,0,0,0,0,0,0,0,0,0,0,0,0,0,0,0,0,0,0,0,0,0,0,0,0,0,0,0,0,0,0,0,0,0,0,0,0,0,0,0,0,0,0,0,0,0,0,0,0,0,0,0,0,0,0,0,0,0,0,0,0,0,0,0,0,0,0,0,0,0,0,0,0,0,0,0,0,0,0,0,0,0,0,0,0,0,0,0,0,0,0,0,0,0,
0,0,0,0,0,0,0,0,0,0,0,0,0,0,0,0,0,0,0,0,0,0,0,0,0,0,0,0,0,0,0,0,0,0,0,0,0,0,0,0,0,0,0,0,0,0,0,0,0,0,0,0,0,0,0,0,0,0,0,0,0,0,0,0,0,0,0,0,0,0,0,0,0,0,0,0,0,0,0,0,0,0,0,0,0,0,0,0,0,0,0,0,0,0,0,0,0,0,0,0,
0,0,0,0,0,0,0,0,0,0,0,0,0,0,0,0,0,0,0,0,0,0,0,0,0,0,0,0,0,0,0,0,0,0,0,0,0,0,0,0,0,0,0,0,0,0,0,0,0,0,0,0,0,0,0,0,0,0,0,0,0,0,0,0,0,0,0,0,0,0,0,0,0,0,0,0,0,0,0,0,0,0,0,0,0,0,0,0,0,0,0,0,0,0,0,0,0,0,0,0,
0,0,0,0,0,0,0,0,0,0,0,0,0,0,0,0,0,0,0,0,0,0,0,0,0,0,0,0,0,0,0,0,0,0,0,0,0,0,0,0,0,0,0,0,0,0,0,0,0,0,0,0,0,0,0,0,0,0,0,0,0,0,0,0,0,0,0,0,0,0,0,0,0,0,0,0,0,0,0,0,0,0,0,0,0,0,0,0,0,0,0,0,0,0,0,0,0,0,0,0,
0,0,0,0,0,0,0,0,0,0,0,0,0,0,0,0,0,0,0,0,0,0,0,0,0,0,0,0,0,0,0,0,0,0,0,0,0,0,0,0,0,0,0,0,0,0,0,0,0,0,0,0,0,0,0,0,0,0,0,0,0,0,0,0,0,0,0,0,0,0,0,0,0,0,0,0,0,0,0,0,0,0,0,0,0,0,0,0,0,0,0,0,0,0,0,0,0,0,0,0,
0,0,0,0,0,0,0,0,0,0,0,0,0,0,0,0,0,0,0,0,0,0,0,0,0,0,0,0,0,0,0,0,0,0,0,0,0,0,0,0,0,0,0,0,0,0,0,0,0,0,0,0,0,0,0,0,0,0,0,0,0,0,0,0,0,0,0,0,0,0,0,0,0,0,0,0,0,0,0,0,0,0,0,0,0,0,0,0,0,0,0,0,0,0,0,0,0,0,0,0,
0,0,0,0,0,0,0,0,0,0,0,0,0,0,0,0,0,0,0,0,0,0,0,0,0,0,0,0,0,0,0,0,0,0,0,0,0,0,0,0,0,0,0,0,0,0,0,0,0,0,0,0,0,0,0,0,0,0,0,0,0,0,0,0,0,0,0,0,0,0,0,0,0,0,0,0,0,0,0,0,0,0,0,0,0,0,0,0,0,0,0,0,0,0,0,0,0,0,0,0,
0,0,0,0,0,0,0,0,0,0,0,0,0,0,0,0,0,0,0,0,0,0,0,0,0,0,0,0,0,0,0,0,0,0,0,0,0,0,0,0,0,0,0,0,0,0,0,0,0,0,0,0,0,0,0,0,0,0,0,0,0,0,0,0,0,0,0,0,0,0,0,0,0,0,0,0,0,0,0,0,0,0,0,0,0,0,0,0,0,0,0,0,0,0,0,0,0,0,0,0,
0,0,0,0,0,0,0,0,0,0,0,0,0,0,0,0,0,0,0,0,0,0,0,0,0,0,0,0,0,0,0,0,0,0,0,0,0,0,0,0,0,0,0,0,0,0,0,0,0,0,0,0,0,0,0,0,0,0,0,0,0,0,0,0,0,0,0,0,0,0,0,0,0,0,0,0,0,0,0,0,0,0,0,0,0,0,0,0,0,0,0,0,0,0,0,0,0,0,0,0,
0,0,0,0,0,0,0,0,0,0,0,0,0,0,0,0,0,0,0,0,0,0,0,0,0,0,0,0,0,0,0,0,0,0,0,0,0,0,0,0,0,0,0,0,0,0,0,0,0,0,0,0,0,0,0,0,0,0,0,0,0,0,0,0,0,0,0,0,0,0,0,0,0,0,0,0,0,0,0,0,0,0,0,0,0,0,0,0,0,0,0,0,0,0,0,0,0,0,0,0,
0,0,0,0,0,0,0,0,0,0,0,0,0,0,0,0,0,0,0,0,0,0,0,0,0,0,0,0,0,0,0,0,0,0,0,0,0,0,0,0,0,0,0,0,0,0,0,0,0,0,0,0,0,0,0,0,0,0,0,0,0,0,0,0,0,0,0,0,0,0,0,0,0,0,0,0,0,0,0,0,0,0,0,0,0,0,0,0,0,0,0,0,0,0,0,0,0,0,0,0,
0,0,0,0,0,0,0,0,0,0,0,0,0,0,0,0,0,0,0,0,0,0,0,0,0,0,0,0,0,0,0,0,0,0,0,0,0,0,0,0,0,0,0,0,0,0,0,0,0,0,0,0,0,0,0,0,0,0,0,0,0,0,0,0,0,0,0,0,0,0,0,0,0,0,0,0,0,0,0,0,0,0,0,0,0,0,0,0,0,0,0,0,0,0,0,0,0,0,0,0,
0,0,0,0,0,0,0,0,0,0,0,0,0,0,0,0,0,0,0,0,0,0,0,0,0,0,0,0,0,0,0,0,0,0,0,0,0,0,0,0,0,0,0,0,0,0,0,0,0,0,0,0,0,0,0,0,0,0,0,0,0,0,0,0,0,0,0,0,0,0,0,0,0,0,0,0,0,0,0,0,0,0,0,0,0,0,0,0,0,0,0,0,0,0,0,0,0,0,0,0,
0,0,0,0,0,0,0,0,0,0,0,0,0,0,0,0,0,0,0,0,0,0,0,0,0,0,0,0,0,0,0,0,0,0,0,0,0,0,0,0,0,0,0,0,0,0,0,0,0,0,0,0,0,0,0,0,0,0,0,0,0,0,0,0,0,0,0,0,0,0,0,0,0,0,0,0,0,0,0,0,0,0,0,0,0,0,0,0,0,0,0,0,0,0,0,0,0,0,0,0,
0,0,0,0,0,0,0,0,0,0,0,0,0,0,0,0,0,0,0,0,0,0,0,0,0,0,0,0,0,0,0,0,0,0,0,0,0,0,0,0,0,0,0,0,0,0,0,0,0,0,0,0,0,0,0,0,0,0,0,0,0,0,0,0,0,0,0,0,0,0,0,0,0,0,0,0,0,0,0,0,0,0,0,0,0,0,0,0,0,0,0,0,0,0,0,0,0,0,0,0,
0,0,0,0,0,0,0,0,0,0,0,0,0,0,0,0,0,0,0,0,0,0,0,0,0,0,0,0,0,0,0,0,0,0,0,0,0,0,0,0,0,0,0,0,0,0,0,0,0,0,0,0,0,0,0,0,0,0,0,0,0,0,0,0,0,0,0,0,0,0,0,0,0,0,0,0,0,0,0,0,0,0,0,0,0,0,0,0,0,0,0,0,0,0,0,0,0,0,0,0,
0,0,0,0,0,0,0,0,0,0,0,0,0,0,0,0,0,0,0,0,0,0,0,0,0,0,0,0,0,0,0,0,0,0,0,0,0,0,0,0,0,0,0,0,0,0,0,0,0,0,0,0,0,0,0,0,0,0,0,0,0,0,0,0,0,0,0,0,0,0,0,0,0,0,0,0,0,0,0,0,0,0,0,0,0,0,0,0,0,0,0,0,0,0,0,0,0,0,0,0,
0,0,0,0,0,0,0,0,0,0,0,0,0,0,0,0,0,0,0,0,0,0,0,0,0,0,0,0,0,0,0,0,0,0,0,0,0,0,0,0,0,0,0,0,0,0,0,0,0,0,0,0,0,0,0,0,0,0,0,0,0,0,0,0,0,0,0,0,0,0,0,0,0,0,0,0,0,0,0,0,0,0,0,0,0,0,0,0,0,0,0,0,0,0,0,0,0,0,0,0,
0,0,0,0,0,0,0,0,0,0,0,0,0,0,0,0,0,0,0,0,0,0,0,0,0,0,0,0,0,0,0,0,0,0,0,0,0,0,0,0,0,0,0,0,0,0,0,0,0,0,0,0,0,0,0,0,0,0,0,0,0,0,0,0,0,0,0,0,0,0,0,0,0,0,0,0,0,0,0,0,0,0,0,0,0,0,0,0,0,0,0,0,0,0,0,0,0,0,0,0,
0,0,0,0,0,0,0,0,0,0,0,0,0,0,0,0,0,0,0,0,0,0,0,0,0,0,0,0,0,0,0,0,0,0,0,0,0,0,0,0,0,0,0,0,0,0,0,0,0,0,0,0,0,0,0,0,0,0,0,0,0,0,0,0,0,0,0,0,0,0,0,0,0,0,0,0,0,0,0,0,0,0,0,0,0,0,0,0,0,0,0,0,0,0,0,0,0,0,0,0,
0,0,0,0,0,0,0,0,0,0,0,0,0,0,0,0,0,0,0,0,0,0,0,0,0,0,0,0,0,0,0,0,0,0,0,0,0,0,0,0,0,0,0,0,0,0,0,0,0,0,0,0,0,0,0,0,0,0,0,0,0,0,0,0,0,0,0,0,0,0,0,0,0,0,0,0,0,0,0,0,0,0,0,0,0,0,0,0,0,0,0,0,0,0,0,0,0,0,0,0,
0,0,0,0,0,0,0,0,0,0,0,0,0,0,0,0,0,0,0,0,0,0,0,0,0,0,0,0,0,0,0,0,0,0,0,0,0,0,0,0,0,0,0,0,0,0,0,0,0,0,0,0,0,0,0,0,0,0,0,0,0,0,0,0,0,0,0,0,0,0,0,0,0,0,0,0,0,0,0,0,0,0,0,0,0,0,0,0,0,0,0,0,0,0,0,0,0,0,0,0,
0,0,0,0,0,0,0,0,0,0,0,0,0,0,0,0,0,0,0,0,0,0,0,0,0,0,0,0,0,0,0,0,0,0,0,0,0,0,0,0,0,0,0,0,0,0,0,0,0,0,0,0,0,0,0,0,0,0,0,0,0,0,0,0,0,0,0,0,0,0,0,0,0,0,0,0,0,0,0,0,0,0,0,0,0,0,0,0,0,0,0,0,0,0,0,0,0,0,0,0,
0,0,0,0,0,0,0,0,0,0,0,0,0,0,0,0,0,0,0,0,0,0,0,0,0,0,0,0,0,0,0,0,0,0,0,0,0,0,0,0,0,0,0,0,0,0,0,0,0,0,0,0,0,0,0,0,0,0,0,0,0,0,0,0,0,0,0,0,0,0,0,0,0,0,0,0,0,0,0,0,0,0,0,0,0,0,0,0,0,0,0,0,0,0,0,0,0,0,0,0,
0,0,0,0,0,0,0,0,0,0,0,0,0,0,0,0,0,0,0,0,0,0,0,0,0,0,0,0,0,0,0,0,0,0,0,0,0,0,0,0,0,0,0,0,0,0,0,0,0,0,0,0,0,0,0,0,0,0,0,0,0,0,0,0,0,0,0,0,0,0,0,0,0,0,0,0,0,0,0,0,0,0,0,0,0,0,0,0,0,0,0,0,0,0,0,0,0,0,0,0,
0,0,0,0,0,0,0,0,0,0,0,0,0,0,0,0,0,0,0,0,0,0,0,0,0,0,0,0,0,0,0,0,0,0,0,0,0,0,0,0,0,0,0,0,0,0,0,0,0,0,0,0,0,0,0,0,0,0,0,0,0,0,0,0,0,0,0,0,0,0,0,0,0,0,0,0,0,0,0,0,0,0,0,0,0,0,0,0,0,0,0,0,0,0,0,0,0,0,0,0,
0,0,0,0,0,0,0,0,0,0,0,0,0,0,0,0,0,0,0,0,0,0,0,0,0,0,0,0,0,0,0,0,0,0,0,0,0,0,0,0,0,0,0,0,0,0,0,0,0,0,0,0,0,0,0,0,0,0,0,0,0,0,0,0,0,0,0,0,0,0,0,0,0,0,0,0,0,0,0,0,0,0,0,0,0,0,0,0,0,0,0,0,0,0,0,0,0,0,0,0,
0,0,0,0,0,0,0,0,0,0,0,0,0,0,0,0,0,0,0,0,0,0,0,0,0,0,0,0,0,0,0,0,0,0,0,0,0,0,0,0,0,0,0,0,0,0,0,0,0,0,0,0,0,0,0,0,0,0,0,0,0,0,0,0,0,0,0,0,0,0,0,0,0,0,0,0,0,0,0,0,0,0,0,0,0,0,0,0,0,0,0,0,0,0,0,0,0,0,0,0,
0,0,0,0,0,0,0,0,0,0,0,0,0,0,0,0,0,0,0,0,0,0,0,0,0,0,0,0,0,0,0,0,0,0,0,0,0,0,0,0,0,0,0,0,0,0,0,0,0,0,0,0,0,0,0,0,0,0,0,0,0,0,0,0,0,0,0,0,0,0,0,0,0,0,0,0,0,0,0,0,0,0,0,0,0,0,0,0,0,0,0,0,0,0,0,0,0,0,0,0,
0,0,0,0,0,0,0,0,0,0,0,0,0,0,0,0,0,0,0,0,0,0,0,0,0,0,0,0,0,0,0,0,0,0,0,0,0,0,0,0,0,0,0,0,0,0,0,0,0,0,0,0,0,0,0,0,0,0,0,0,0,0,0,0,0,0,0,0,0,0,0,0,0,0,0,0,0,0,0,0,0,0,0,0,0,0,0,0,0,0,0,0,0,0,0,0,0,0,0,0,
0,0,0,0,0,0,0,0,0,0,0,0,0,0,0,0,0,0,0,0,0,0,0,0,0,0,0,0,0,0,0,0,0,0,0,0,0,0,0,0,0,0,0,0,0,0,0,0,0,0,0,0,0,0,0,0,0,0,0,0,0,0,0,0,0,0,0,0,0,0,0,0,0,0,0,0,0,0,0,0,0,0,0,0,0,0,0,0,0,0,0,0,0,0,0,0,0,0,0,0,
0,0,0,0,0,0,0,0,0,0,0,0,0,0,0,0,0,0,0,0,0,0,0,0,0,0,0,0,0,0,0,0,0,0,0,0,0,0,0,0,0,0,0,0,0,0,0,0,0,0,0,0,0,2123,2124,2124,2124,2124,2124,2124,2124,2125,0,0,0,0,0,0,0,0,0,0,0,0,0,0,0,0,0,0,0,0,0,0,0,0,0,0,0,0,0,0,0,0,0,0,0,0,0,0,
0,0,0,0,0,0,0,0,0,0,0,0,0,0,0,0,0,0,0,0,0,0,0,0,0,0,0,0,0,0,0,0,0,0,0,0,0,0,0,0,0,0,0,0,0,0,0,0,0,0,0,0,0,2250,2188,2316,2316,2251,2253,2253,2253,2189,2124,2124,2124,2125,0,0,0,0,0,0,0,0,0,0,0,0,0,0,0,0,0,0,0,0,0,0,0,0,0,0,0,0,0,0,0,0,0,0,
0,0,0,0,0,0,0,0,0,0,0,0,0,0,0,0,0,0,0,0,0,0,0,0,0,0,0,0,0,0,0,0,0,0,0,0,0,0,0,0,0,0,0,0,0,0,0,0,0,0,0,0,0,2250,2316,2316,2252,2253,2252,2252,2316,2316,2188,2251,2252,2189,0,0,0,0,0,0,0,0,0,0,0,0,0,0,0,0,0,0,0,0,0,0,0,0,0,0,0,0,0,0,0,0,0,0,
0,0,0,0,0,0,0,0,0,0,0,0,0,0,0,0,0,0,0,0,0,0,0,0,0,0,0,0,0,0,0,0,0,0,0,0,0,0,0,0,0,0,0,0,0,0,0,0,0,0,0,0,0,2314,2315,2251,2316,2188,2188,2316,2316,2188,2188,2253,2252,2252,2189,0,0,0,0,0,0,0,0,0,0,0,0,0,0,0,0,0,0,0,0,0,0,0,0,0,0,0,0,0,0,0,0,0,
0,0,0,0,0,0,0,0,0,0,0,0,0,0,0,0,0,0,0,0,0,0,0,0,0,0,0,0,0,0,0,0,0,0,0,0,0,0,0,0,0,0,0,0,0,0,0,0,0,0,0,0,0,0,2379,2380,2380,2380,2380,2380,2315,2316,2188,2188,2188,2251,2316,2189,2124,2124,0,0,0,0,0,0,0,0,0,0,0,0,0,0,0,0,0,0,0,0,0,0,0,0,0,0,0,0,0,0,
0,0,0,0,0,0,0,0,0,0,0,0,0,0,0,0,0,0,0,0,0,0,0,0,0,0,0,0,0,0,0,0,0,0,0,0,0,0,0,0,0,0,0,0,0,0,0,0,0,0,0,0,0,0,0,0,0,0,0,0,2379,2380,2315,2253,2253,2251,2252,2316,2251,2253,2189,0,0,0,0,0,0,0,0,0,0,0,0,0,0,0,0,0,0,0,0,0,0,0,0,0,0,0,0,0,
0,0,0,0,0,0,0,0,0,0,0,0,0,0,0,0,0,0,0,0,0,0,0,0,0,0,0,0,0,0,0,0,0,0,0,0,0,0,0,0,0,0,0,0,0,0,0,0,0,0,0,0,0,0,0,0,0,0,0,0,0,0,2379,2380,2380,2315,2253,2251,2253,2251,2253,2189,2124,2124,2124,2124,2124,2124,2124,0,0,0,0,0,0,0,0,0,0,0,0,0,0,0,0,0,0,0,0,0,
0,0,0,0,0,0,0,0,0,0,0,0,0,0,0,0,0,0,0,0,0,0,0,0,0,0,0,0,0,0,0,0,0,0,0,0,0,0,0,0,0,0,0,0,0,0,0,0,0,0,0,0,0,0,0,0,0,0,0,0,0,0,0,0,0,2379,2380,2315,2253,2252,2253,2252,2252,2316,2251,2188,2252,2316,2252,2189,0,0,0,0,0,0,0,0,0,0,0,0,0,0,0,0,0,0,0,0,
0,0,0,0,0,0,0,0,0,0,0,0,0,0,0,0,0,0,0,0,0,0,0,0,0,0,0,0,0,0,0,0,0,0,0,0,0,0,0,0,0,0,0,0,0,0,0,0,0,0,0,0,0,0,0,0,0,0,0,0,0,0,0,0,0,0,0,2379,2380,2315,2188,2316,2316,2251,2316,2252,2316,2253,2252,2252,2254,0,0,0,0,0,0,0,0,0,0,0,0,0,0,0,0,0,0,0,
0,0,0,0,0,0,0,0,0,0,0,0,0,0,0,0,0,0,0,0,0,0,0,0,0,0,0,0,0,0,0,0,0,0,0,0,0,0,0,0,0,0,0,0,0,0,0,0,0,0,0,0,0,0,0,0,0,0,0,0,0,0,0,0,0,0,0,0,0,0,2315,2251,2253,2188,2252,2251,2252,2316,2253,2251,2254,0,0,0,0,0,0,0,0,0,0,0,0,0,0,0,0,0,0,0,
0,0,0,0,0,0,0,0,0,0,0,0,0,0,0,0,0,0,0,0,0,0,0,0,0,0,0,0,0,0,0,0,0,0,0,0,0,0,0,0,0,0,0,0,0,0,0,0,0,0,0,0,0,0,0,0,0,0,0,0,0,0,0,0,0,0,0,0,0,0,2379,2380,2380,2380,2380,2315,2188,2251,2253,2317,0,0,0,0,0,0,0,0,0,0,0,0,0,0,0,0,0,0,0,0,
0,0,0,0,0,0,0,0,0,0,0,0,0,0,0,0,0,0,0,0,0,0,0,0,0,0,0,0,0,0,0,0,0,0,0,0,0,0,0,0,0,0,0,0,0,0,0,0,0,0,0,0,0,0,0,0,0,0,0,0,0,0,0,0,0,0,0,0,0,0,0,0,0,0,0,2379,2380,2380,2380,0,0,0,0,0,0,0,0,0,0,0,0,0,0,0,0,0,0,0,0,0,
0,0,0,0,0,0,0,0,0,0,0,0,0,0,0,0,0,0,0,0,0,0,0,0,0,0,0,0,0,0,0,0,0,0,0,0,0,0,0,0,0,0,0,0,0,0,0,0,0,0,0,0,0,0,0,0,0,0,0,0,0,0,0,0,0,0,0,0,0,0,0,0,0,0,0,0,0,0,0,0,0,0,0,0,0,0,0,0,0,0,0,0,0,0,0,0,0,0,0,0,
0,0,0,0,0,0,0,0,0,0,0,0,0,0,0,0,0,0,0,0,0,0,0,0,0,0,0,0,0,0,0,0,0,0,0,0,0,0,0,0,0,0,0,0,0,0,0,0,0,0,0,0,0,0,0,0,0,0,0,0,0,0,0,0,0,0,0,0,0,0,0,0,0,0,0,0,0,0,0,0,0,0,0,0,0,0,0,0,0,0,0,0,0,0,0,0,0,0,0,0,
0,0,0,0,0,0,0,0,0,0,0,0,0,0,0,0,0,0,0,0,0,0,0,0,0,0,0,0,0,0,0,0,0,0,0,0,0,0,0,0,0,0,0,0,0,0,0,0,0,0,0,0,0,0,0,0,0,0,0,0,0,0,0,0,0,0,0,0,0,0,0,0,0,0,0,0,0,0,0,0,0,0,0,0,0,0,0,0,0,0,0,0,0,0,0,0,0,0,0,0,
0,0,0,0,0,0,0,0,0,0,0,0,0,0,0,0,0,0,0,0,0,0,0,0,0,0,0,0,0,0,0,0,0,0,0,0,0,0,0,0,0,0,0,0,0,0,0,0,0,0,0,0,0,0,0,0,0,0,0,0,0,0,0,0,0,0,0,0,0,0,0,0,0,0,0,0,0,0,0,0,0,0,0,0,0,0,0,0,0,0,0,0,0,0,0,0,0,0,0,0,
0,0,0,0,0,0,0,0,0,0,0,0,0,0,0,0,0,0,0,0,0,0,0,0,0,0,0,0,0,0,0,0,0,0,0,0,0,0,0,0,0,0,0,0,0,0,0,0,0,0,0,0,0,0,0,0,0,0,0,0,0,0,0,0,0,0,0,0,0,0,0,0,0,0,0,0,0,0,0,0,0,0,0,0,0,0,0,0,0,0,0,0,0,0,0,0,0,0,0,0,
0,0,0,0,0,0,0,0,0,0,0,0,0,0,0,0,0,0,0,0,0,0,0,0,0,0,0,0,0,0,0,0,0,0,0,0,0,0,0,0,0,0,0,0,0,0,0,0,0,0,0,0,0,0,0,0,0,0,0,0,0,0,0,0,0,0,0,0,0,0,0,0,0,0,0,0,0,0,0,0,0,0,0,0,0,0,0,0,0,0,0,0,0,0,0,0,0,0,0,0,
0,0,0,0,0,0,0,0,0,0,0,0,0,0,0,0,0,0,0,0,0,0,0,0,0,0,0,0,0,0,0,0,0,0,0,0,0,0,0,0,0,0,0,0,0,0,0,0,0,0,0,0,0,0,0,0,0,0,0,0,0,0,0,0,0,0,0,0,0,0,0,0,0,0,0,0,0,0,0,0,0,0,0,0,0,0,0,0,0,0,0,0,0,0,0,0,0,0,0,0,
0,0,0,0,0,0,0,0,0,0,0,0,0,0,0,0,0,0,0,0,0,0,0,0,0,0,0,0,0,0,0,0,0,0,0,0,0,0,0,0,0,0,0,0,0,0,0,0,0,0,0,0,0,0,0,0,0,0,0,0,0,0,0,0,0,0,0,0,0,0,0,0,0,0,0,0,0,0,0,0,0,0,0,0,0,0,0,0,0,0,0,0,0,0,0,0,0,0,0,0,
0,0,0,0,0,0,0,0,0,0,0,0,0,0,0,0,0,0,0,0,0,0,0,0,0,0,0,0,0,0,0,0,0,0,0,0,0,0,0,0,0,0,0,0,0,0,0,0,0,0,0,0,0,0,0,0,0,0,0,0,0,0,0,0,0,0,0,0,0,0,0,0,0,0,0,0,0,0,0,0,0,0,0,0,0,0,0,0,0,0,0,0,0,0,0,0,0,0,0,0,
0,0,0,0,0,0,0,0,0,0,0,0,0,0,0,0,0,0,0,0,0,0,0,0,0,0,0,0,0,0,0,0,0,0,0,0,0,0,0,0,0,0,0,0,0,0,0,0,0,0,0,0,0,0,0,0,0,0,0,0,0,0,0,0,0,0,0,0,0,0,0,0,0,0,0,0,0,0,0,0,0,0,0,0,0,0,0,0,0,0,0,0,0,0,0,0,0,0,0,0,
0,0,0,0,0,0,0,0,0,0,0,0,0,0,0,0,0,0,0,0,0,0,0,0,0,0,0,0,0,0,0,0,0,0,0,0,0,0,0,0,0,0,0,0,0,0,0,0,0,0,0,0,0,0,0,0,0,0,0,0,0,0,0,0,0,0,0,0,0,0,0,0,0,0,0,0,0,0,0,0,0,0,0,0,0,0,0,0,0,0,0,0,0,0,0,0,0,0,0,0,
0,0,0,0,0,0,0,0,0,0,0,0,0,0,0,0,0,0,0,0,0,0,0,0,0,0,0,0,0,0,0,0,0,0,0,0,0,0,0,0,0,0,0,0,0,0,0,0,0,0,0,0,0,0,0,0,0,0,0,0,0,0,0,0,0,0,0,0,0,0,0,0,0,0,0,0,0,0,0,0,0,0,0,0,0,0,0,0,0,0,0,0,0,0,0,0,0,0,0,0,
0,0,0,0,0,0,0,0,0,0,0,0,0,0,0,0,0,0,0,0,0,0,0,0,0,0,0,0,0,0,0,0,0,0,0,0,0,0,0,0,0,0,0,0,0,0,0,0,0,0,0,0,0,0,0,0,0,0,0,0,0,0,0,0,0,0,0,0,0,0,0,0,0,0,0,0,0,0,0,0,0,0,0,0,0,0,0,0,0,0,0,0,0,0,0,0,0,0,0,0,
0,0,0,0,0,0,0,0,0,0,0,0,0,0,0,0,0,0,0,0,0,0,0,0,0,0,0,0,0,0,0,0,0,0,0,0,0,0,0,0,0,0,0,0,0,0,0,0,0,0,0,0,0,0,0,0,0,0,0,0,0,0,0,0,0,0,0,0,0,0,0,0,0,0,0,0,0,0,0,0,0,0,0,0,0,0,0,0,0,0,0,0,0,0,0,0,0,0,0,0,
0,0,0,0,0,0,0,0,0,0,0,0,0,0,0,0,0,0,0,0,0,0,0,0,0,0,0,0,0,0,0,0,0,0,0,0,0,0,0,0,0,0,0,0,0,0,0,0,0,0,0,0,0,0,0,0,0,0,0,0,0,0,0,0,0,0,0,0,0,0,0,0,0,0,0,0,0,0,0,0,0,0,0,0,0,0,0,0,0,0,0,0,0,0,0,0,0,0,0,0,
0,0,0,0,0,0,0,0,0,0,0,0,0,0,0,0,0,0,0,0,0,0,0,0,0,0,0,0,0,0,0,0,0,0,0,0,0,0,0,0,0,0,0,0,0,0,0,0,0,0,0,0,0,0,0,0,0,0,0,0,0,0,0,0,0,0,0,0,0,0,0,0,0,0,0,0,0,0,0,0,0,0,0,0,0,0,0,0,0,0,0,0,0,0,0,0,0,0,0,0,
0,0,0,0,0,0,0,0,0,0,0,0,0,0,0,0,0,0,0,0,0,0,0,0,0,0,0,0,0,0,0,0,0,0,0,0,0,0,0,0,0,0,0,0,0,0,0,0,0,0,0,0,0,0,0,0,0,0,0,0,0,0,0,0,0,0,0,0,0,0,0,0,0,0,0,0,0,0,0,0,0,0,0,0,0,0,0,0,0,0,0,0,0,0,0,0,0,0,0,0,
0,0,0,0,0,0,0,0,0,0,0,0,0,0,0,0,0,0,0,0,0,0,0,0,0,0,0,0,0,0,0,0,0,0,0,0,0,0,0,0,0,0,0,0,0,0,0,0,0,0,0,0,0,0,0,0,0,0,0,0,0,0,0,0,0,0,0,0,0,0,0,0,0,0,0,0,0,0,0,0,0,0,0,0,0,0,0,0,0,0,0,0,0,0,0,0,0,0,0,0,
0,0,0,0,0,0,0,0,0,0,0,0,0,0,0,0,0,0,0,0,0,0,0,0,0,0,0,0,0,0,0,0,0,0,0,0,0,0,0,0,0,0,0,0,0,0,0,0,0,0,0,0,0,0,0,0,0,0,0,0,0,0,0,0,0,0,0,0,0,0,0,0,0,0,0,0,0,0,0,0,0,0,0,0,0,0,0,0,0,0,0,0,0,0,0,0,0,0,0,0,
0,0,0,0,0,0,0,0,0,0,0,0,0,0,0,0,0,0,0,0,0,0,0,0,0,0,0,0,0,0,0,0,0,0,0,0,0,0,0,0,0,0,0,0,0,0,0,0,0,0,0,0,0,0,0,0,0,0,0,0,0,0,0,0,0,0,0,0,0,0,0,0,0,0,0,0,0,0,0,0,0,0,0,0,0,0,0,0,0,0,0,0,0,0,0,0,0,0,0,0,
0,0,0,0,0,0,0,0,0,0,0,0,0,0,0,0,0,0,0,0,0,0,0,0,0,0,0,0,0,0,0,0,0,0,0,0,0,0,0,0,0,0,0,0,0,0,0,0,0,0,0,0,0,0,0,0,0,0,0,0,0,0,0,0,0,0,0,0,0,0,0,0,0,0,0,0,0,0,0,0,0,0,0,0,0,0,0,0,0,0,0,0,0,0,0,0,0,0,0,0,
0,0,0,0,0,0,0,0,0,0,0,0,0,0,0,0,0,0,0,0,0,0,0,0,0,0,0,0,0,0,0,0,0,0,0,0,0,0,0,0,0,0,0,0,0,0,0,0,0,0,0,0,0,0,0,0,0,0,0,0,0,0,0,0,0,0,0,0,0,0,0,0,0,0,0,0,0,0,0,0,0,0,0,0,0,0,0,0,0,0,0,0,0,0,0,0,0,0,0,0,
0,0,0,0,0,0,0,0,0,0,0,0,0,0,0,0,0,0,0,0,0,0,0,0,0,0,0,0,0,0,0,0,0,0,0,0,0,0,0,0,0,0,0,0,0,0,0,0,0,0,0,0,0,0,0,0,0,0,0,0,0,0,0,0,0,0,0,0,0,0,0,0,0,0,0,0,0,0,0,0,0,0,0,0,0,0,0,0,0,0,0,0,0,0,0,0,0,0,0,0,
0,0,0,0,0,0,0,0,0,0,0,0,0,0,0,0,0,0,0,0,0,0,0,0,0,0,0,0,0,0,0,0,0,0,0,0,0,0,0,0,0,0,0,0,0,0,0,0,0,0,0,0,0,0,0,0,0,0,0,0,0,0,0,0,0,0,0,0,0,0,0,0,0,0,0,0,0,0,0,0,0,0,0,0,0,0,0,0,0,0,0,0,0,0,0,0,0,0,0,0,
0,0,0,0,0,0,0,0,0,0,0,0,0,0,0,0,0,0,0,0,0,0,0,0,0,0,0,0,0,0,0,0,0,0,0,0,0,0,0,0,0,0,0,0,0,0,0,0,0,0,0,0,0,0,0,0,0,0,0,0,0,0,0,0,0,0,0,0,0,0,0,0,0,0,0,0,0,0,0,0,0,0,0,0,0,0,0,0,0,0,0,0,0,0,0,0,0,0,0,0,
0,0,0,0,0,0,0,0,0,0,0,0,0,0,0,0,0,0,0,0,0,0,0,0,0,0,0,0,0,0,0,0,0,0,0,0,0,0,0,0,0,0,0,0,0,0,0,0,0,0,0,0,0,0,0,0,0,0,0,0,0,0,0,0,0,0,0,0,0,0,0,0,0,0,0,0,0,0,0,0,0,0,0,0,0,0,0,0,0,0,0,0,0,0,0,0,0,0,0,0,
0,0,0,0,0,0,0,0,0,0,0,0,0,0,0,0,0,0,0,0,0,0,0,0,0,0,0,0,0,0,0,0,0,0,0,0,0,0,0,0,0,0,0,0,0,0,0,0,0,0,0,0,0,0,0,0,0,0,0,0,0,0,0,0,0,0,0,0,0,0,0,0,0,0,0,0,0,0,0,0,0,0,0,0,0,0,0,0,0,0,0,0,0,0,0,0,0,0,0,0
</data>
 </layer>
 <objectgroup id="4" name="objects">
  <object id="4" type="static" gid="1" x="1216" y="1136" width="32" height="48">
   <properties>
    <property name="OFFSET_Y" type="float" value="10"/>
   </properties>
  </object>
  <object id="9" name="spawn" x="899" y="1013.67">
   <point/>
  </object>
  <object id="13" type="static" gid="3" x="848" y="992" width="112" height="112"/>
  <object id="24" gid="5" x="944" y="1008" width="18" height="16"/>
 </objectgroup>
 <objectgroup id="9" name="collisions"/>
</map>
